; generated by Slic3r 1.3.0 on 2020-09-13 at 19:50:20

; external perimeters extrusion width = 0.55mm (16.32mm^3/s)
; perimeters extrusion width = 0.70mm (30.51mm^3/s)
; infill extrusion width = 0.62mm (30.27mm^3/s)
; solid infill extrusion width = 0.70mm (27.46mm^3/s)
; top infill extrusion width = 0.70mm (21.97mm^3/s)

M107
M104 S200 ; set temperature
G28 ; home all axes
G1 Z5 F5000 ; lift nozzle

; Filament gcode

M109 S200 ; set temperature and wait for it to be reached
G21 ; set units to millimeters
G90 ; use absolute coordinates
M82 ; use absolute distances for extrusion
G92 E0
G1 Z0.350 F10800.000
G1 E-2.00000 F2400.00000
G92 E0
G1 X70.234 Y12.945 F10800.000
G1 E2.00000 F2400.00000
G1 F1800
G1 X71.377 Y10.957 E2.20854
G1 X73.130 Y9.478 E2.41708
G1 X76.384 Y8.580 E2.72410
G1 X111.461 Y8.171 E5.91385
G1 X143.538 Y8.171 E8.83061
G1 X145.797 Y8.568 E9.03915
G1 X147.785 Y9.711 E9.24770
G1 X149.265 Y11.464 E9.45624
G1 X150.057 Y13.616 E9.66478
G1 X150.163 Y14.796 E9.77249
G1 X150.158 Y72.070 E14.98036
G1 X144.658 Y205.070 E27.08434
G1 X144.168 Y207.310 E27.29288
G1 X142.943 Y209.249 E27.50142
G1 X141.131 Y210.655 E27.70996
G1 X138.116 Y211.420 E27.99284
G1 X103.039 Y211.829 E31.18259
G1 X81.962 Y211.829 E33.09912
G1 X79.703 Y211.432 E33.30767
G1 X77.715 Y210.289 E33.51621
G1 X76.235 Y208.536 E33.72475
G1 X75.342 Y205.478 E34.01444
G1 X69.842 Y72.478 E46.11841
G1 X69.837 Y15.204 E51.32628
G1 X70.221 Y13.019 E51.52801
G1 E49.52801 F2400.00000
G92 E0
G1 X134.015 Y198.309 F10800.000
G1 E2.00000 F2400.00000
G1 F1800
G1 X134.464 Y198.509 E2.04470
G1 X134.862 Y198.798 E2.08942
G1 X135.191 Y199.163 E2.13412
G1 X135.437 Y199.589 E2.17884
G1 X135.589 Y200.057 E2.22355
G1 X135.640 Y200.546 E2.26825
G1 X135.589 Y201.035 E2.31296
G1 X135.437 Y201.503 E2.35773
G1 X135.186 Y201.934 E2.40309
G1 X134.862 Y202.294 E2.44708
G1 X134.464 Y202.583 E2.49178
G1 X134.015 Y202.783 E2.53649
G1 X133.534 Y202.885 E2.58120
G1 X133.043 Y202.885 E2.62591
G1 X132.562 Y202.783 E2.67062
G1 X132.113 Y202.583 E2.71533
G1 X131.715 Y202.294 E2.76003
G1 X131.386 Y201.928 E2.80474
G1 X131.140 Y201.502 E2.84945
G1 X130.988 Y201.035 E2.89416
G1 X130.937 Y200.546 E2.93887
G1 X130.988 Y200.057 E2.98358
G1 X131.140 Y199.589 E3.02835
G1 X131.391 Y199.157 E3.07371
G1 X131.715 Y198.798 E3.11769
G1 X132.113 Y198.509 E3.16240
G1 X132.562 Y198.309 E3.20711
G1 X133.043 Y198.207 E3.25182
G1 X133.534 Y198.207 E3.29653
G1 X133.942 Y198.293 E3.33442
G1 X134.015 Y198.309 F10800.000
G1 E1.33442 F2400.00000
G92 E0
G1 X133.534 Y191.385 F10800.000
G1 E2.00000 F2400.00000
G1 F1800
G1 X133.043 Y191.385 E2.04472
G1 X132.562 Y191.283 E2.08942
G1 X132.113 Y191.083 E2.13413
G1 X131.715 Y190.794 E2.17884
G1 X131.386 Y190.428 E2.22355
G1 X131.140 Y190.002 E2.26826
G1 X130.988 Y189.535 E2.31297
G1 X130.937 Y189.046 E2.35768
G1 X130.988 Y188.557 E2.40238
G1 X131.140 Y188.089 E2.44715
G1 X131.391 Y187.657 E2.49251
G1 X131.715 Y187.298 E2.53650
G1 X132.113 Y187.009 E2.58120
G1 X132.562 Y186.809 E2.62591
G1 X133.043 Y186.707 E2.67062
G1 X133.534 Y186.707 E2.71533
G1 X134.015 Y186.809 E2.76004
G1 X134.464 Y187.009 E2.80475
G1 X134.862 Y187.298 E2.84945
G1 X135.191 Y187.663 E2.89416
G1 X135.437 Y188.089 E2.93887
G1 X135.589 Y188.557 E2.98358
G1 X135.640 Y189.046 E3.02829
G1 X135.589 Y189.535 E3.07300
G1 X135.437 Y190.003 E3.11777
G1 X135.186 Y190.434 E3.16313
G1 X134.862 Y190.794 E3.20711
G1 X134.464 Y191.083 E3.25183
G1 X134.015 Y191.283 E3.29653
G1 X133.608 Y191.369 E3.33442
G1 X133.534 Y191.385 F10800.000
G1 E1.33442 F2400.00000
G92 E0
G1 X124.089 Y189.535 F10800.000
G1 E2.00000 F2400.00000
G1 F1800
G1 X123.937 Y190.003 E2.04477
G1 X123.686 Y190.434 E2.09013
G1 X123.362 Y190.794 E2.13412
G1 X122.964 Y191.083 E2.17883
G1 X122.515 Y191.283 E2.22353
G1 X122.034 Y191.385 E2.26824
G1 X121.543 Y191.385 E2.31295
G1 X121.062 Y191.283 E2.35766
G1 X120.613 Y191.083 E2.40237
G1 X120.215 Y190.794 E2.44708
G1 X119.886 Y190.428 E2.49179
G1 X119.640 Y190.002 E2.53650
G1 X119.488 Y189.535 E2.58121
G1 X119.437 Y189.046 E2.62592
G1 X119.488 Y188.557 E2.67062
G1 X119.640 Y188.089 E2.71539
G1 X119.891 Y187.657 E2.76075
G1 X120.215 Y187.298 E2.80474
G1 X120.613 Y187.009 E2.84944
G1 X121.062 Y186.809 E2.89415
G1 X121.543 Y186.707 E2.93886
G1 X122.034 Y186.707 E2.98357
G1 X122.515 Y186.809 E3.02828
G1 X122.964 Y187.009 E3.07299
G1 X123.362 Y187.298 E3.11769
G1 X123.691 Y187.663 E3.16240
G1 X123.937 Y188.089 E3.20711
G1 X124.089 Y188.557 E3.25182
G1 X124.140 Y189.046 E3.29653
G1 X124.097 Y189.460 E3.33442
G1 X124.089 Y189.535 F10800.000
G1 E1.33442 F2400.00000
G92 E0
G1 X122.235 Y198.249 F10800.000
G1 E2.00000 F2400.00000
G1 F1800
G1 X122.515 Y198.309 E2.02606
G1 X122.964 Y198.509 E2.07076
G1 X123.362 Y198.798 E2.11547
G1 X123.691 Y199.163 E2.16018
G1 X123.937 Y199.589 E2.20489
G1 X124.089 Y200.057 E2.24960
G1 X124.140 Y200.546 E2.29431
G1 X124.089 Y201.035 E2.33902
G1 X123.937 Y201.503 E2.38379
G1 X123.686 Y201.934 E2.42915
G1 X123.362 Y202.294 E2.47313
G1 X122.964 Y202.583 E2.51784
G1 X122.515 Y202.783 E2.56255
G1 X122.034 Y202.885 E2.60726
G1 X121.543 Y202.885 E2.65196
G1 X121.062 Y202.783 E2.69667
G1 X120.613 Y202.583 E2.74138
G1 X120.215 Y202.294 E2.78609
G1 X119.886 Y201.928 E2.83080
G1 X119.640 Y201.502 E2.87551
G1 X119.488 Y201.035 E2.92022
G1 X119.437 Y200.546 E2.96493
G1 X119.488 Y200.057 E3.00963
G1 X119.640 Y199.589 E3.05440
G1 X119.891 Y199.157 E3.09976
G1 X120.215 Y198.798 E3.14375
G1 X120.613 Y198.509 E3.18846
G1 X121.062 Y198.309 E3.23316
G1 X121.543 Y198.207 E3.27787
G1 X122.034 Y198.207 E3.32259
G1 X122.162 Y198.234 E3.33442
G1 X122.416 Y198.027 F10800.000
G1 E1.33442 F2400.00000
G92 E0
G1 X115.564 Y67.271 F10800.000
G1 E2.00000 F2400.00000
G1 F1800
G1 X115.564 Y22.321 E6.08726
G1 X118.905 Y22.321 E6.39109
G1 X118.628 Y21.457 E6.47355
G1 X118.558 Y20.796 E6.53404
G1 X118.629 Y20.124 E6.59545
G1 X118.838 Y19.482 E6.65686
G1 X119.175 Y18.897 E6.71826
G1 X119.627 Y18.395 E6.77966
G1 X120.173 Y17.998 E6.84107
G1 X120.790 Y17.724 E6.90248
G1 X121.451 Y17.583 E6.96388
G1 X122.126 Y17.583 E7.02529
G1 X122.787 Y17.724 E7.08669
G1 X123.404 Y17.998 E7.14810
G1 X123.950 Y18.395 E7.20951
G1 X124.402 Y18.897 E7.27091
G1 X124.739 Y19.482 E7.33231
G1 X124.948 Y20.124 E7.39372
G1 X125.019 Y20.796 E7.45513
G1 X124.948 Y21.467 E7.51653
G1 X124.671 Y22.321 E7.59813
G1 X130.406 Y22.321 E8.11964
G1 X130.129 Y21.467 E8.20124
G1 X130.058 Y20.796 E8.26265
G1 X130.129 Y20.124 E8.32405
G1 X130.338 Y19.482 E8.38546
G1 X130.675 Y18.897 E8.44686
G1 X131.127 Y18.395 E8.50827
G1 X131.673 Y17.998 E8.56968
G1 X132.290 Y17.724 E8.63108
G1 X132.951 Y17.583 E8.69249
G1 X133.626 Y17.583 E8.75389
G1 X134.287 Y17.724 E8.81529
G1 X134.904 Y17.998 E8.87670
G1 X135.450 Y18.395 E8.93811
G1 X135.902 Y18.897 E8.99952
G1 X136.239 Y19.482 E9.06092
G1 X136.448 Y20.124 E9.12233
G1 X136.519 Y20.796 E9.18373
G1 X136.448 Y21.467 E9.24514
G1 X136.171 Y22.321 E9.32674
G1 X139.513 Y22.321 E9.63067
G1 X139.513 Y67.271 E13.71794
G1 X136.171 Y67.271 E14.02187
G1 X136.448 Y68.124 E14.10348
G1 X136.519 Y68.796 E14.16488
G1 X136.448 Y69.467 E14.22628
G1 X136.239 Y70.110 E14.28770
G1 X135.902 Y70.694 E14.34909
G1 X135.450 Y71.196 E14.41050
G1 X134.904 Y71.593 E14.47191
G1 X134.287 Y71.868 E14.53332
G1 X133.626 Y72.008 E14.59472
G1 X132.951 Y72.008 E14.65613
G1 X132.290 Y71.868 E14.71753
G1 X131.673 Y71.593 E14.77894
G1 X131.127 Y71.196 E14.84035
G1 X130.675 Y70.694 E14.90175
G1 X130.338 Y70.110 E14.96315
G1 X130.129 Y69.467 E15.02456
G1 X130.058 Y68.796 E15.08597
G1 X130.129 Y68.124 E15.14737
G1 X130.406 Y67.271 E15.22897
G1 X124.671 Y67.271 E15.75048
G1 X124.948 Y68.124 E15.83208
G1 X125.019 Y68.796 E15.89348
G1 X124.948 Y69.467 E15.95489
G1 X124.739 Y70.110 E16.01630
G1 X124.402 Y70.694 E16.07770
G1 X123.950 Y71.196 E16.13910
G1 X123.404 Y71.593 E16.20051
G1 X122.787 Y71.868 E16.26192
G1 X122.126 Y72.008 E16.32332
G1 X121.451 Y72.008 E16.38473
G1 X120.790 Y71.868 E16.44613
G1 X120.173 Y71.593 E16.50754
G1 X119.627 Y71.196 E16.56895
G1 X119.175 Y70.694 E16.63035
G1 X118.838 Y70.110 E16.69175
G1 X118.629 Y69.467 E16.75316
G1 X118.558 Y68.796 E16.81457
G1 X118.629 Y68.124 E16.87597
G1 X118.906 Y67.271 E16.95758
G1 X115.639 Y67.271 E17.25469
G1 X116.188 Y66.646 F10800.000
G1 F1800
G1 X116.188 Y22.946 E21.22831
G1 X120.242 Y22.946 E21.59692
G1 X119.683 Y22.325 E21.67286
G1 X119.411 Y21.854 E21.72237
G1 X119.242 Y21.328 E21.77257
G1 X119.187 Y20.796 E21.82122
G1 X119.243 Y20.255 E21.87068
G1 X119.412 Y19.737 E21.92015
G1 X119.683 Y19.266 E21.96961
G1 X120.047 Y18.862 E22.01907
G1 X120.488 Y18.542 E22.06853
G1 X120.984 Y18.321 E22.11799
G1 X121.517 Y18.208 E22.16745
G1 X122.060 Y18.208 E22.21692
G1 X122.593 Y18.321 E22.26638
G1 X123.089 Y18.542 E22.31584
G1 X123.530 Y18.862 E22.36530
G1 X123.893 Y19.266 E22.41476
G1 X124.165 Y19.737 E22.46422
G1 X124.334 Y20.255 E22.51369
G1 X124.390 Y20.796 E22.56315
G1 X124.334 Y21.337 E22.61261
G1 X124.165 Y21.854 E22.66207
G1 X123.893 Y22.325 E22.71153
G1 X123.335 Y22.946 E22.78747
G1 X131.742 Y22.946 E23.55196
G1 X131.183 Y22.325 E23.62789
G1 X130.912 Y21.854 E23.67735
G1 X130.743 Y21.337 E23.72681
G1 X130.687 Y20.796 E23.77627
G1 X130.743 Y20.255 E23.82574
G1 X130.912 Y19.737 E23.87520
G1 X131.183 Y19.266 E23.92466
G1 X131.547 Y18.862 E23.97412
G1 X131.988 Y18.542 E24.02358
G1 X132.484 Y18.321 E24.07304
G1 X133.017 Y18.208 E24.12250
G1 X133.560 Y18.208 E24.17197
G1 X134.093 Y18.321 E24.22143
G1 X134.589 Y18.542 E24.27089
G1 X135.030 Y18.862 E24.32035
G1 X135.393 Y19.266 E24.36981
G1 X135.665 Y19.737 E24.41927
G1 X135.834 Y20.255 E24.46874
G1 X135.890 Y20.796 E24.51820
G1 X135.834 Y21.337 E24.56766
G1 X135.665 Y21.854 E24.61712
G1 X135.393 Y22.325 E24.66658
G1 X134.835 Y22.946 E24.74252
G1 X138.888 Y22.946 E25.11113
G1 X138.888 Y66.646 E29.08475
G1 X134.835 Y66.646 E29.45336
G1 X135.393 Y67.266 E29.52929
G1 X135.665 Y67.737 E29.57875
G1 X135.834 Y68.255 E29.62822
G1 X135.890 Y68.796 E29.67768
G1 X135.834 Y69.337 E29.72714
G1 X135.665 Y69.854 E29.77660
G1 X135.393 Y70.325 E29.82606
G1 X135.030 Y70.729 E29.87552
G1 X134.589 Y71.049 E29.92498
G1 X134.093 Y71.270 E29.97445
G1 X133.560 Y71.383 E30.02391
G1 X133.017 Y71.383 E30.07337
G1 X132.484 Y71.270 E30.12283
G1 X131.988 Y71.049 E30.17229
G1 X131.547 Y70.729 E30.22175
G1 X131.183 Y70.325 E30.27122
G1 X130.912 Y69.854 E30.32067
G1 X130.743 Y69.337 E30.37014
G1 X130.687 Y68.796 E30.41960
G1 X130.743 Y68.255 E30.46906
G1 X130.912 Y67.737 E30.51853
G1 X131.183 Y67.266 E30.56798
G1 X131.742 Y66.646 E30.64392
G1 X123.335 Y66.646 E31.40841
G1 X123.893 Y67.266 E31.48435
G1 X124.165 Y67.737 E31.53380
G1 X124.334 Y68.255 E31.58327
G1 X124.390 Y68.796 E31.63273
G1 X124.334 Y69.337 E31.68219
G1 X124.165 Y69.854 E31.73165
G1 X123.893 Y70.325 E31.78111
G1 X123.530 Y70.729 E31.83057
G1 X123.089 Y71.049 E31.88004
G1 X122.593 Y71.270 E31.92950
G1 X122.060 Y71.383 E31.97896
G1 X121.517 Y71.383 E32.02842
G1 X120.984 Y71.270 E32.07788
G1 X120.488 Y71.049 E32.12734
G1 X120.047 Y70.729 E32.17681
G1 X119.683 Y70.325 E32.22627
G1 X119.412 Y69.854 E32.27572
G1 X119.243 Y69.337 E32.32519
G1 X119.187 Y68.796 E32.37465
G1 X119.243 Y68.255 E32.42411
G1 X119.412 Y67.737 E32.47358
G1 X119.683 Y67.266 E32.52303
G1 X120.242 Y66.646 E32.59897
G1 X116.263 Y66.646 E32.96076
G1 X115.689 Y66.617 F10800.000
G1 E30.96076 F2400.00000
G92 E0
G1 X124.138 Y83.196 F10800.000
G1 E2.00000 F2400.00000
G1 F1800
G1 X118.638 Y83.196 E2.50011
G1 X118.638 Y71.032 E3.60618
G1 X119.207 Y71.663 E3.68340
G1 X119.859 Y72.137 E3.75676
G1 X120.596 Y72.466 E3.83011
G1 X121.385 Y72.633 E3.90346
G1 X122.192 Y72.633 E3.97681
G1 X122.981 Y72.466 E4.05016
G1 X123.718 Y72.137 E4.12351
G1 X124.370 Y71.663 E4.19686
G1 X124.910 Y71.064 E4.27021
G1 X125.313 Y70.365 E4.34355
G1 X125.563 Y69.598 E4.41691
G1 X125.647 Y68.796 E4.49026
G1 X125.552 Y67.896 E4.57257
G1 X129.525 Y67.896 E4.93375
G1 X129.430 Y68.796 E5.01605
G1 X129.514 Y69.598 E5.08940
G1 X129.763 Y70.365 E5.16276
G1 X130.167 Y71.064 E5.23610
G1 X130.707 Y71.663 E5.30945
G1 X131.359 Y72.137 E5.38281
G1 X132.096 Y72.466 E5.45616
G1 X132.885 Y72.633 E5.52950
G1 X133.692 Y72.633 E5.60285
G1 X134.481 Y72.466 E5.67620
G1 X135.218 Y72.137 E5.74955
G1 X135.870 Y71.663 E5.82291
G1 X136.439 Y71.032 E5.90014
G1 X136.439 Y83.196 E7.00620
G1 X130.939 Y83.196 E7.50631
G1 X130.939 Y186.317 E16.88306
G1 X130.874 Y186.364 E16.89034
G1 X130.376 Y186.917 E16.95801
G1 X129.993 Y187.575 E17.02726
G1 X129.759 Y188.296 E17.09613
G1 X129.680 Y189.046 E17.16472
G1 X129.759 Y189.796 E17.23332
G1 X129.992 Y190.514 E17.30192
G1 X130.369 Y191.167 E17.37052
G1 X130.874 Y191.727 E17.43911
G1 X131.484 Y192.171 E17.50772
G1 X132.173 Y192.478 E17.57630
G1 X132.911 Y192.635 E17.64489
G1 X133.666 Y192.635 E17.71352
G1 X134.404 Y192.478 E17.78211
G1 X135.093 Y192.171 E17.85069
G1 X135.703 Y191.727 E17.91930
G1 X136.439 Y190.911 E18.01926
G1 X136.439 Y198.681 E18.72582
G1 X135.703 Y197.864 E18.82578
G1 X135.093 Y197.421 E18.89439
G1 X134.404 Y197.114 E18.96297
G1 X133.666 Y196.957 E19.03156
G1 X132.911 Y196.957 E19.10019
G1 X132.173 Y197.114 E19.16878
G1 X131.484 Y197.421 E19.23736
G1 X130.874 Y197.864 E19.30597
G1 X130.376 Y198.417 E19.37363
G1 X129.993 Y199.075 E19.44289
G1 X129.759 Y199.796 E19.51175
G1 X129.680 Y200.546 E19.58034
G1 X129.759 Y201.296 E19.64894
G1 X129.992 Y202.014 E19.71754
G1 X130.369 Y202.667 E19.78614
G1 X130.846 Y203.196 E19.85088
G1 X124.231 Y203.196 E20.45229
G1 X124.701 Y202.675 E20.51610
G1 X125.084 Y202.016 E20.58536
G1 X125.318 Y201.296 E20.65422
G1 X125.397 Y200.546 E20.72282
G1 X125.318 Y199.796 E20.79141
G1 X125.085 Y199.078 E20.86001
G1 X124.708 Y198.425 E20.92861
G1 X124.203 Y197.864 E20.99720
G1 X123.593 Y197.421 E21.06581
G1 X122.904 Y197.114 E21.13440
G1 X122.166 Y196.957 E21.20299
G1 X121.411 Y196.957 E21.27161
G1 X120.673 Y197.114 E21.34020
G1 X119.984 Y197.421 E21.40879
G1 X119.374 Y197.864 E21.47739
G1 X118.638 Y198.681 E21.57735
G1 X118.638 Y190.911 E22.28392
G1 X119.374 Y191.727 E22.38388
G1 X119.984 Y192.171 E22.45248
G1 X120.673 Y192.478 E22.52106
G1 X121.411 Y192.635 E22.58966
G1 X122.166 Y192.635 E22.65828
G1 X122.904 Y192.478 E22.72687
G1 X123.593 Y192.171 E22.79546
G1 X124.203 Y191.727 E22.86406
G1 X124.701 Y191.174 E22.93172
G1 X125.084 Y190.516 E23.00098
G1 X125.318 Y189.796 E23.06984
G1 X125.397 Y189.046 E23.13844
G1 X125.318 Y188.296 E23.20703
G1 X125.085 Y187.578 E23.27563
G1 X124.708 Y186.925 E23.34423
G1 X124.203 Y186.364 E23.41284
G1 X124.138 Y186.317 E23.42011
G1 X124.138 Y83.271 E32.79004
G1 E30.79004 F2400.00000
G92 E0
G1 X114.939 Y67.896 F10800.000
G1 E2.00000 F2400.00000
G1 F1800
G1 X118.025 Y67.896 E2.28059
G1 X117.930 Y68.796 E2.36290
G1 X118.014 Y69.598 E2.43625
G1 X118.209 Y70.196 E2.49342
G1 X113.138 Y70.196 E2.95445
G1 X113.138 Y16.396 E7.84651
G1 X141.939 Y16.396 E10.46532
G1 X141.939 Y70.196 E15.35737
G1 X136.868 Y70.196 E15.81841
G1 X137.063 Y69.598 E15.87558
G1 X137.147 Y68.796 E15.94893
G1 X137.052 Y67.896 E16.03123
G1 X140.138 Y67.896 E16.31183
G1 X140.138 Y21.696 E20.51273
G1 X137.052 Y21.696 E20.79332
G1 X137.147 Y20.796 E20.87563
G1 X137.063 Y19.994 E20.94898
G1 X136.813 Y19.226 E21.02234
G1 X136.410 Y18.528 E21.09568
G1 X135.870 Y17.928 E21.16902
G1 X135.218 Y17.454 E21.24238
G1 X134.481 Y17.126 E21.31573
G1 X133.692 Y16.958 E21.38908
G1 X132.885 Y16.958 E21.46243
G1 X132.096 Y17.126 E21.53578
G1 X131.359 Y17.454 E21.60913
G1 X130.707 Y17.928 E21.68249
G1 X130.167 Y18.528 E21.75583
G1 X129.763 Y19.226 E21.82918
G1 X129.514 Y19.994 E21.90253
G1 X129.430 Y20.796 E21.97588
G1 X129.525 Y21.696 E22.05819
G1 X125.552 Y21.696 E22.41937
G1 X125.647 Y20.796 E22.50168
G1 X125.563 Y19.994 E22.57502
G1 X125.313 Y19.226 E22.64838
G1 X124.910 Y18.528 E22.72172
G1 X124.370 Y17.928 E22.79507
G1 X123.718 Y17.454 E22.86843
G1 X122.981 Y17.126 E22.94178
G1 X122.192 Y16.958 E23.01512
G1 X121.385 Y16.958 E23.08847
G1 X120.596 Y17.126 E23.16182
G1 X119.859 Y17.454 E23.23517
G1 X119.207 Y17.928 E23.30853
G1 X118.667 Y18.528 E23.38188
G1 X118.264 Y19.226 E23.45522
G1 X118.014 Y19.994 E23.52858
G1 X117.930 Y20.796 E23.60192
