; generated by Slic3r 1.3.0 on 2020-09-09 at 08:01:41

; external perimeters extrusion width = 0.55mm (4.37mm^3/s)
; perimeters extrusion width = 0.70mm (11.44mm^3/s)
; infill extrusion width = 0.62mm (13.45mm^3/s)
; solid infill extrusion width = 0.70mm (3.81mm^3/s)
; top infill extrusion width = 0.70mm (2.86mm^3/s)

M107
M104 S200 ; set temperature
G28 ; home all axes
G1 Z5 F5000 ; lift nozzle

; Filament gcode

M109 S200 ; set temperature and wait for it to be reached
G21 ; set units to millimeters
G90 ; use absolute coordinates
M82 ; use absolute distances for extrusion
G92 E0
G1 Z0.350 F7800.000
G1 E-2.00000 F2400.00000
G92 E0
G1 X61.618 Y73.824 F7800.000
G1 E2.00000 F2400.00000
G1 F1800
G1 X63.770 Y73.031 E2.20854
G1 X64.950 Y72.925 E2.31625
G1 X155.050 Y72.925 E10.50901
G1 X157.309 Y73.322 E10.71755
G1 X159.297 Y74.465 E10.92609
G1 X160.776 Y76.218 E11.13463
G1 X161.569 Y78.370 E11.34318
G1 X161.675 Y79.550 E11.45088
G1 X161.675 Y140.450 E16.98850
G1 X161.278 Y142.709 E17.19704
G1 X160.135 Y144.697 E17.40558
G1 X158.382 Y146.176 E17.61412
G1 X156.230 Y146.969 E17.82267
G1 X155.050 Y147.075 E17.93037
G1 X64.950 Y147.075 E26.12313
G1 X62.691 Y146.678 E26.33167
G1 X60.703 Y145.535 E26.54021
G1 X59.224 Y143.782 E26.74876
G1 X58.431 Y141.630 E26.95730
G1 X58.325 Y140.450 E27.06501
G1 X58.325 Y79.550 E32.60262
G1 X58.722 Y77.291 E32.81116
G1 X59.865 Y75.303 E33.01970
G1 X61.561 Y73.872 E33.22143
G1 E31.22143 F2400.00000
G92 E0
G1 X121.550 Y92.150 F7800.000
G1 E2.00000 F2400.00000
G1 F1800
G1 X98.350 Y92.150 E4.10953
G1 X98.350 Y84.950 E4.76418
G1 X121.550 Y84.950 E6.87370
G1 X121.550 Y92.075 E7.52154
G1 X120.925 Y91.525 F7800.000
G1 F1800
G1 X98.975 Y91.525 E9.51742
G1 X98.975 Y85.575 E10.05843
G1 X120.925 Y85.575 E12.05431
G1 X120.925 Y91.450 E12.58851
G1 X120.300 Y90.900 F7800.000
G1 F1800
G1 X99.600 Y90.900 E14.47075
G1 X99.600 Y86.200 E14.89812
G1 X120.300 Y86.200 E16.78036
G1 X120.300 Y90.825 E17.20091
G1 X120.517 Y91.350 F7800.000
G1 E15.20091 F2400.00000
G92 E0
G1 X153.450 Y81.150 F7800.000
G1 E2.00000 F2400.00000
G1 F1800
G1 X153.450 Y138.850 E7.24668
G1 X66.550 Y138.850 E15.14850
G1 X66.550 Y81.150 E20.39518
G1 X153.375 Y81.150 E28.29018
G1 X154.075 Y80.525 F7800.000
G1 F1800
G1 X154.075 Y139.475 E33.65050
G1 X65.925 Y139.475 E41.66596
G1 X65.925 Y80.525 E47.02628
G1 X154.000 Y80.525 E55.03492
G1 X154.700 Y79.900 F7800.000
G1 F1800
G1 X154.700 Y140.100 E60.50888
G1 X65.300 Y140.100 E68.63799
G1 X65.300 Y79.900 E74.11195
G1 X154.625 Y79.900 E82.23423
G1 X154.540 Y80.374 F7800.000
G1 E80.23423 F2400.00000
G92 E0
G1 X121.932 Y92.740 F7800.000
G1 E2.00000 F2400.00000
G1 F1800
G1 X133.140 Y81.532 E3.44846
G1 X132.251 Y81.532 E3.52962
G1 X121.932 Y91.851 E4.86331
G1 X121.932 Y90.963 E4.94447
G1 X131.363 Y81.532 E6.16338
G1 X130.475 Y81.532 E6.24454
G1 X121.932 Y90.075 E7.34867
G1 X121.932 Y89.187 E7.42983
G1 X129.587 Y81.532 E8.41918
G1 X128.699 Y81.532 E8.50034
G1 X121.932 Y88.299 E9.37492
G1 X121.932 Y87.411 E9.45608
G1 X127.811 Y81.532 E10.21588
G1 X126.923 Y81.532 E10.29704
G1 X121.932 Y86.523 E10.94206
G1 X121.932 Y85.635 E11.02322
G1 X126.035 Y81.532 E11.55346
G1 X125.146 Y81.532 E11.63462
G1 X121.932 Y84.746 E12.05008
G1 X121.932 Y84.568 E12.06636
G1 X121.222 Y84.568 E12.13125
G1 X124.258 Y81.532 E12.52370
G1 X123.370 Y81.532 E12.60486
G1 X120.333 Y84.568 E12.99731
G1 X119.445 Y84.568 E13.07848
G1 X122.482 Y81.532 E13.47093
G1 X121.594 Y81.532 E13.55209
G1 X118.557 Y84.568 E13.94455
G1 X117.669 Y84.568 E14.02571
G1 X120.706 Y81.532 E14.41816
G1 X119.818 Y81.532 E14.49932
G1 X116.781 Y84.568 E14.89178
G1 X115.893 Y84.568 E14.97294
G1 X118.930 Y81.532 E15.36539
G1 X118.041 Y81.532 E15.44655
G1 X115.005 Y84.568 E15.83901
G1 X114.116 Y84.568 E15.92017
G1 X117.153 Y81.532 E16.31262
G1 X116.265 Y81.532 E16.39378
G1 X113.228 Y84.568 E16.78624
G1 X112.340 Y84.568 E16.86740
G1 X115.377 Y81.532 E17.25985
G1 X114.489 Y81.532 E17.34101
G1 X111.452 Y84.568 E17.73346
G1 X110.564 Y84.568 E17.81462
G1 X113.601 Y81.532 E18.20708
G1 X112.713 Y81.532 E18.28824
G1 X109.676 Y84.568 E18.68069
G1 X108.788 Y84.568 E18.76185
G1 X111.824 Y81.532 E19.15431
G1 X110.936 Y81.532 E19.23547
G1 X107.900 Y84.568 E19.62792
G1 X107.011 Y84.568 E19.70908
G1 X110.048 Y81.532 E20.10154
G1 X109.160 Y81.532 E20.18270
G1 X106.123 Y84.568 E20.57515
G1 X105.235 Y84.568 E20.65631
G1 X108.272 Y81.532 E21.04877
G1 X107.384 Y81.532 E21.12993
G1 X104.347 Y84.568 E21.52238
G1 X103.459 Y84.568 E21.60354
G1 X106.496 Y81.532 E21.99600
G1 X105.608 Y81.532 E22.07716
G1 X102.571 Y84.568 E22.46961
G1 X101.683 Y84.568 E22.55077
G1 X104.719 Y81.532 E22.94323
G1 X103.831 Y81.532 E23.02439
G1 X100.795 Y84.568 E23.41684
G1 X99.906 Y84.568 E23.49800
G1 X102.943 Y81.532 E23.89046
G1 X102.055 Y81.532 E23.97162
G1 X99.018 Y84.568 E24.36407
G1 X98.130 Y84.568 E24.44523
G1 X101.167 Y81.532 E24.83769
G1 X100.279 Y81.532 E24.91885
G1 X66.932 Y114.879 E29.22846
G1 X66.932 Y113.991 E29.30962
G1 X99.391 Y81.532 E33.50444
G1 X98.502 Y81.532 E33.58560
G1 X66.932 Y113.102 E37.66566
G1 X66.932 Y112.214 E37.74682
G1 X97.614 Y81.532 E41.71209
G1 X96.726 Y81.532 E41.79325
G1 X66.932 Y111.326 E45.64375
G1 X66.932 Y110.438 E45.72491
G1 X95.838 Y81.532 E49.46063
G1 X94.950 Y81.532 E49.54179
G1 X66.932 Y109.550 E53.16273
G1 X66.932 Y108.662 E53.24389
G1 X94.062 Y81.532 E56.75005
G1 X93.174 Y81.532 E56.83121
G1 X66.932 Y107.774 E60.22260
G1 X66.932 Y106.886 E60.30376
G1 X92.286 Y81.532 E63.58037
G1 X91.397 Y81.532 E63.66153
G1 X66.932 Y105.997 E66.82336
G1 X66.932 Y105.109 E66.90452
G1 X90.509 Y81.532 E69.95158
G1 X89.621 Y81.532 E70.03274
G1 X66.932 Y104.221 E72.96501
G1 X66.932 Y103.333 E73.04617
G1 X88.733 Y81.532 E75.86367
G1 X87.845 Y81.532 E75.94483
G1 X66.932 Y102.445 E78.64756
G1 X66.932 Y101.557 E78.72872
G1 X86.957 Y81.532 E81.31666
G1 X86.069 Y81.532 E81.39782
G1 X66.932 Y100.669 E83.87099
G1 X66.932 Y99.780 E83.95215
G1 X85.180 Y81.532 E86.31054
G1 X84.292 Y81.532 E86.39170
G1 X66.932 Y98.892 E88.63531
G1 X66.932 Y98.004 E88.71647
G1 X83.404 Y81.532 E90.84530
G1 X82.516 Y81.532 E90.92646
G1 X66.932 Y97.116 E92.94052
G1 X66.932 Y96.228 E93.02168
G1 X81.628 Y81.532 E94.92096
G1 X80.740 Y81.532 E95.00212
G1 X66.932 Y95.340 E96.78662
G1 X66.932 Y94.452 E96.86778
G1 X79.852 Y81.532 E98.53751
G1 X78.964 Y81.532 E98.61867
G1 X66.932 Y93.564 E100.17361
G1 X66.932 Y92.675 E100.25477
G1 X78.075 Y81.532 E101.69494
G1 X77.187 Y81.532 E101.77610
G1 X66.932 Y91.787 E103.10149
G1 X66.932 Y90.899 E103.18265
G1 X76.299 Y81.532 E104.39327
G1 X75.411 Y81.532 E104.47443
G1 X66.932 Y90.011 E105.57026
G1 X66.932 Y89.123 E105.65142
G1 X74.523 Y81.532 E106.63248
G1 X73.635 Y81.532 E106.71364
G1 X66.932 Y88.235 E107.57992
G1 X66.932 Y87.347 E107.66108
G1 X72.747 Y81.532 E108.41259
G1 X71.859 Y81.532 E108.49375
G1 X66.932 Y86.459 E109.13048
G1 X66.932 Y85.570 E109.21164
G1 X70.970 Y81.532 E109.73358
G1 X70.082 Y81.532 E109.81474
G1 X66.932 Y84.682 E110.22192
G1 X66.932 Y83.794 E110.30308
G1 X69.194 Y81.532 E110.59547
G1 X68.306 Y81.532 E110.67663
G1 X66.932 Y82.906 E110.85425
G1 X66.932 Y82.018 E110.93541
G1 X67.418 Y81.532 E110.99824
G1 E108.99824 F2400.00000
G92 E0
G1 X97.968 Y84.730 F7800.000
G1 E2.00000 F2400.00000
G1 F1800
G1 X66.932 Y115.767 E6.01103
G1 X66.932 Y116.655 E6.09219
G1 X97.968 Y85.618 E10.10322
G1 X97.968 Y86.506 E10.18438
G1 X66.932 Y117.543 E14.19540
G1 X66.932 Y118.431 E14.27656
G1 X97.968 Y87.395 E18.28759
G1 X97.968 Y88.283 E18.36875
G1 X66.932 Y119.319 E22.37978
G1 X66.932 Y120.208 E22.46094
G1 X97.968 Y89.171 E26.47197
G1 X97.968 Y90.059 E26.55313
G1 X66.932 Y121.096 E30.56416
G1 X66.932 Y121.984 E30.64532
G1 X97.968 Y90.947 E34.65635
G1 X97.968 Y91.835 E34.73751
G1 X66.932 Y122.872 E38.74854
G1 X66.932 Y123.760 E38.82970
G1 X98.160 Y92.532 E42.86549
G1 X99.048 Y92.532 E42.94665
G1 X66.932 Y124.648 E47.09723
G1 X66.932 Y125.536 E47.17839
G1 X99.936 Y92.532 E51.44375
G1 X100.824 Y92.532 E51.52491
G1 X66.932 Y126.424 E55.90504
G1 X66.932 Y127.313 E55.98620
G1 X101.713 Y92.532 E60.48111
G1 X102.601 Y92.532 E60.56227
G1 X66.932 Y128.201 E65.17195
G1 X66.932 Y129.089 E65.25311
G1 X103.489 Y92.532 E69.97758
G1 X104.377 Y92.532 E70.05874
G1 X66.932 Y129.977 E74.89798
G1 X66.932 Y130.865 E74.97914
G1 X105.265 Y92.532 E79.93316
G1 X106.153 Y92.532 E80.01432
G1 X66.932 Y131.753 E85.08312
G1 X66.932 Y132.641 E85.16428
G1 X107.041 Y92.532 E90.34785
G1 X107.930 Y92.532 E90.42901
G1 X66.932 Y133.529 E95.72737
G1 X66.932 Y134.418 E95.80853
G1 X108.818 Y92.532 E101.22166
G1 X109.706 Y92.532 E101.30282
G1 X66.932 Y135.306 E106.83072
G1 X66.932 Y136.194 E106.91188
G1 X110.594 Y92.532 E112.55457
G1 X111.482 Y92.532 E112.63573
G1 X66.932 Y137.082 E118.39319
G1 X66.932 Y137.970 E118.47435
G1 X112.370 Y92.532 E124.34659
G1 X113.258 Y92.532 E124.42775
G1 X67.322 Y138.468 E130.36438
G1 X68.210 Y138.468 E130.44554
G1 X114.146 Y92.532 E136.38217
G1 X115.035 Y92.532 E136.46333
G1 X69.098 Y138.468 E142.39996
G1 X69.986 Y138.468 E142.48111
G1 X115.923 Y92.532 E148.41774
G1 X116.811 Y92.532 E148.49890
G1 X70.874 Y138.468 E154.43553
G1 X71.762 Y138.468 E154.51669
G1 X117.699 Y92.532 E160.45332
G1 X118.587 Y92.532 E160.53448
G1 X72.650 Y138.468 E166.47111
G1 X73.538 Y138.468 E166.55227
G1 X119.475 Y92.532 E172.48890
G1 X120.363 Y92.532 E172.57006
G1 X74.427 Y138.468 E178.50669
G1 X75.315 Y138.468 E178.58785
G1 X121.251 Y92.532 E184.52447
G1 X122.140 Y92.532 E184.60563
G1 X76.203 Y138.468 E190.54226
G1 X77.091 Y138.468 E190.62342
G1 X134.028 Y81.532 E197.98163
G1 X134.916 Y81.532 E198.06279
G1 X77.979 Y138.468 E205.42101
G1 X78.867 Y138.468 E205.50217
G1 X135.804 Y81.532 E212.86038
G1 X136.692 Y81.532 E212.94154
G1 X79.755 Y138.468 E220.29975
G1 X80.644 Y138.468 E220.38091
G1 X137.580 Y81.532 E227.73912
G1 X138.468 Y81.532 E227.82028
G1 X81.532 Y138.468 E235.17849
G1 X82.420 Y138.468 E235.25965
G1 X139.357 Y81.532 E242.61786
G1 X140.245 Y81.532 E242.69902
G1 X83.308 Y138.468 E250.05723
G1 X84.196 Y138.468 E250.13839
G1 X141.133 Y81.532 E257.49661
G1 X142.021 Y81.532 E257.57777
G1 X85.084 Y138.468 E264.93598
G1 X85.972 Y138.468 E265.01714
G1 X142.909 Y81.532 E272.37535
G1 X143.797 Y81.532 E272.45651
G1 X86.860 Y138.468 E279.81472
G1 X87.749 Y138.468 E279.89588
G1 X144.685 Y81.532 E287.25409
G1 X145.573 Y81.532 E287.33525
G1 X88.637 Y138.468 E294.69346
G1 X89.525 Y138.468 E294.77462
G1 X146.462 Y81.532 E302.13283
G1 X147.350 Y81.532 E302.21399
G1 X90.413 Y138.468 E309.57220
G1 X91.301 Y138.468 E309.65336
G1 X148.238 Y81.532 E317.01158
G1 X149.126 Y81.532 E317.09274
G1 X92.189 Y138.468 E324.45095
G1 X93.077 Y138.468 E324.53211
G1 X150.014 Y81.532 E331.89032
G1 X150.902 Y81.532 E331.97148
G1 X93.965 Y138.468 E339.32969
G1 X94.854 Y138.468 E339.41085
G1 X151.790 Y81.532 E346.76906
G1 X152.679 Y81.532 E346.85022
G1 X95.742 Y138.468 E354.20843
G1 X96.630 Y138.468 E354.28959
G1 X153.068 Y82.030 E361.58341
G1 X153.068 Y82.918 E361.66457
G1 X97.518 Y138.468 E368.84361
G1 X98.406 Y138.468 E368.92477
G1 X153.068 Y83.806 E375.98903
G1 X153.068 Y84.694 E376.07019
G1 X99.294 Y138.468 E383.01967
G1 X100.182 Y138.468 E383.10083
G1 X153.068 Y85.582 E389.93554
G1 X153.068 Y86.471 E390.01670
G1 X101.071 Y138.468 E396.73663
G1 X101.959 Y138.468 E396.81779
G1 X153.068 Y87.359 E403.42294
G1 X153.068 Y88.247 E403.50410
G1 X102.847 Y138.468 E409.99448
G1 X103.735 Y138.468 E410.07564
G1 X153.068 Y89.135 E416.45123
G1 X153.068 Y90.023 E416.53239
G1 X104.623 Y138.468 E422.79321
G1 X105.511 Y138.468 E422.87437
G1 X153.068 Y90.911 E429.02041
G1 X153.068 Y91.799 E429.10157
G1 X106.399 Y138.468 E435.13284
G1 X107.287 Y138.468 E435.21400
G1 X153.068 Y92.687 E441.13048
G1 X153.068 Y93.576 E441.21164
G1 X108.176 Y138.468 E447.01335
G1 X109.064 Y138.468 E447.09451
G1 X153.068 Y94.464 E452.78144
G1 X153.068 Y95.352 E452.86260
G1 X109.952 Y138.468 E458.43476
G1 X110.840 Y138.468 E458.51592
G1 X153.068 Y96.240 E463.97329
G1 X153.068 Y97.128 E464.05446
G1 X111.728 Y138.468 E469.39705
G1 X112.616 Y138.468 E469.47821
G1 X153.068 Y98.016 E474.70604
G1 X153.068 Y98.904 E474.78720
G1 X113.504 Y138.468 E479.90024
G1 X114.393 Y138.468 E479.98140
G1 X153.068 Y99.793 E484.97967
G1 X153.068 Y100.681 E485.06083
G1 X115.281 Y138.468 E489.94431
G1 X116.169 Y138.468 E490.02547
G1 X153.068 Y101.569 E494.79419
G1 X153.068 Y102.457 E494.87535
G1 X117.057 Y138.468 E499.52928
G1 X117.945 Y138.468 E499.61044
G1 X153.068 Y103.345 E504.14960
G1 X153.068 Y104.233 E504.23076
G1 X118.833 Y138.468 E508.65514
G1 X119.721 Y138.468 E508.73630
G1 X153.068 Y105.121 E513.04590
G1 X153.068 Y106.009 E513.12706
G1 X120.609 Y138.468 E517.32188
G1 X121.498 Y138.468 E517.40304
G1 X153.068 Y106.898 E521.48309
G1 X153.068 Y107.786 E521.56425
G1 X122.386 Y138.468 E525.52951
G1 X123.274 Y138.468 E525.61067
G1 X153.068 Y108.674 E529.46117
G1 X153.068 Y109.562 E529.54233
G1 X124.162 Y138.468 E533.27804
G1 X125.050 Y138.468 E533.35920
G1 X153.068 Y110.450 E536.98013
G1 X153.068 Y111.338 E537.06129
G1 X125.938 Y138.468 E540.56745
G1 X126.826 Y138.468 E540.64861
G1 X153.068 Y112.226 E544.03999
G1 X153.068 Y113.115 E544.12115
G1 X127.714 Y138.468 E547.39776
G1 X128.603 Y138.468 E547.47892
G1 X153.068 Y114.003 E550.64074
G1 X153.068 Y114.891 E550.72190
G1 X129.491 Y138.468 E553.76895
G1 X130.379 Y138.468 E553.85011
G1 X153.068 Y115.779 E556.78238
G1 X153.068 Y116.667 E556.86354
G1 X131.267 Y138.468 E559.68104
G1 X132.155 Y138.468 E559.76220
G1 X153.068 Y117.555 E562.46491
G1 X153.068 Y118.443 E562.54607
G1 X133.043 Y138.468 E565.13401
G1 X133.931 Y138.468 E565.21517
G1 X153.068 Y119.331 E567.68833
G1 X153.068 Y120.220 E567.76949
G1 X134.820 Y138.468 E570.12787
G1 X135.708 Y138.468 E570.20903
G1 X153.068 Y121.108 E572.45264
G1 X153.068 Y121.996 E572.53380
G1 X136.596 Y138.468 E574.66263
G1 X137.484 Y138.468 E574.74379
G1 X153.068 Y122.884 E576.75784
G1 X153.068 Y123.772 E576.83900
G1 X138.372 Y138.468 E578.73827
G1 X139.260 Y138.468 E578.81943
G1 X153.068 Y124.660 E580.60393
G1 X153.068 Y125.548 E580.68509
G1 X140.148 Y138.468 E582.35481
G1 X141.036 Y138.468 E582.43597
G1 X153.068 Y126.436 E583.99091
G1 X153.068 Y127.325 E584.07207
G1 X141.925 Y138.468 E585.51223
G1 X142.813 Y138.468 E585.59339
G1 X153.068 Y128.213 E586.91877
G1 X153.068 Y129.101 E586.99993
G1 X143.701 Y138.468 E588.21054
G1 X144.589 Y138.468 E588.29170
G1 X153.068 Y129.989 E589.38753
G1 X153.068 Y130.877 E589.46869
G1 X145.477 Y138.468 E590.44975
G1 X146.365 Y138.468 E590.53091
G1 X153.068 Y131.765 E591.39718
G1 X153.068 Y132.653 E591.47834
G1 X147.253 Y138.468 E592.22984
G1 X148.142 Y138.468 E592.31100
G1 X153.068 Y133.542 E592.94772
G1 X153.068 Y134.430 E593.02888
G1 X149.030 Y138.468 E593.55082
G1 X149.918 Y138.468 E593.63198
G1 X153.068 Y135.318 E594.03915
G1 X153.068 Y136.206 E594.12031
G1 X150.806 Y138.468 E594.41269
G1 X151.694 Y138.468 E594.49385
G1 X153.068 Y137.094 E594.67147
G1 X153.068 Y137.982 E594.75263
G1 X152.582 Y138.468 E594.81546
G1 Z0.650 F7800.000
G1 X121.421 Y85.079 F7800.000
G1 F3600
G1 X121.421 Y92.021 E595.36584
G1 X98.479 Y92.021 E597.18468
G1 X98.479 Y85.079 E597.73506
G1 X121.346 Y85.079 E599.54795
G1 X120.786 Y85.714 F7800.000
G1 F3600
G1 X120.786 Y91.386 E599.99755
G1 X99.114 Y91.386 E601.71560
G1 X99.114 Y85.714 E602.16521
G1 X120.711 Y85.714 E603.87731
G1 X120.225 Y86.275 F7800.000
G1 F1800
G1 X120.225 Y90.825 E604.15290
G1 X99.675 Y90.825 E605.39760
G1 X99.675 Y86.275 E605.67319
G1 X120.150 Y86.275 E606.91334
G1 X120.724 Y86.239 F7800.000
G1 X153.579 Y81.021 F7800.000
G1 F3600
G1 X153.579 Y138.979 E611.50810
G1 X66.421 Y138.979 E618.41777
G1 X66.421 Y81.021 E623.01252
G1 X153.504 Y81.021 E629.91625
G1 X154.214 Y80.386 F7800.000
G1 F3600
G1 X154.214 Y139.614 E634.61178
G1 X65.786 Y139.614 E641.62223
G1 X65.786 Y80.386 E646.31777
G1 X154.139 Y80.386 E653.32227
G1 X154.775 Y79.825 F7800.000
G1 F1800
G1 X154.775 Y140.175 E656.97762
G1 X65.225 Y140.175 E662.40159
G1 X65.225 Y79.825 E666.05694
G1 X154.700 Y79.825 E671.47636
G1 X154.615 Y80.299 F7800.000
G1 X153.190 Y81.904 F7800.000
G1 F1200
G1 X152.696 Y81.410 E671.53202
G1 X151.793 Y81.410 E671.60383
