; generated by Slic3r 1.3.0 on 2020-09-07 at 17:27:42

; external perimeters extrusion width = 0.55mm (4.37mm^3/s)
; perimeters extrusion width = 0.70mm (11.44mm^3/s)
; infill extrusion width = 0.62mm (13.45mm^3/s)
; solid infill extrusion width = 0.70mm (3.81mm^3/s)
; top infill extrusion width = 0.70mm (2.86mm^3/s)

M107
M104 S200 ; set temperature
G28 ; home all axes
G1 Z5 F5000 ; lift nozzle

; Filament gcode

M109 S200 ; set temperature and wait for it to be reached
G21 ; set units to millimeters
G90 ; use absolute coordinates
M82 ; use absolute distances for extrusion
G92 E0
G1 Z0.350 F7800.000
G1 E-2.00000 F2400.00000
G92 E0
G1 X62.368 Y74.574 F7800.000
G1 E2.00000 F2400.00000
G1 F1800
G1 X64.520 Y73.781 E2.20854
G1 X65.700 Y73.675 E2.31625
G1 X154.300 Y73.675 E10.37261
G1 X156.559 Y74.072 E10.58115
G1 X158.547 Y75.215 E10.78970
G1 X160.026 Y76.968 E10.99824
G1 X160.819 Y79.120 E11.20678
G1 X160.925 Y80.300 E11.31449
G1 X160.925 Y139.700 E16.71571
G1 X160.528 Y141.959 E16.92425
G1 X159.385 Y143.947 E17.13279
G1 X157.632 Y145.426 E17.34133
G1 X155.480 Y146.219 E17.54988
G1 X154.300 Y146.325 E17.65759
G1 X65.700 Y146.325 E25.71395
G1 X63.441 Y145.928 E25.92249
G1 X61.453 Y144.785 E26.13103
G1 X59.974 Y143.032 E26.33957
G1 X59.181 Y140.880 E26.54812
G1 X59.075 Y139.700 E26.65583
G1 X59.075 Y80.300 E32.05704
G1 X59.472 Y78.041 E32.26558
G1 X60.615 Y76.053 E32.47413
G1 X62.311 Y74.622 E32.67585
G1 E30.67585 F2400.00000
G92 E0
G1 X152.700 Y138.100 F7800.000
G1 E2.00000 F2400.00000
G1 F1800
G1 X67.300 Y138.100 E9.76543
G1 X67.300 Y81.900 E14.87571
G1 X152.700 Y81.900 E22.64114
G1 X152.700 Y138.025 E27.74460
G1 X153.325 Y138.725 F7800.000
G1 F1800
G1 X66.675 Y138.725 E35.62367
G1 X66.675 Y81.275 E40.84759
G1 X153.325 Y81.275 E48.72666
G1 X153.325 Y138.650 E53.94377
G1 X153.950 Y139.350 F7800.000
G1 F1800
G1 X66.050 Y139.350 E61.93648
G1 X66.050 Y80.650 E67.27404
G1 X153.950 Y80.650 E75.26675
G1 X153.950 Y139.275 E80.59750
G1 X153.460 Y139.252 F7800.000
G1 E78.59750 F2400.00000
G92 E0
G1 X151.832 Y137.718 F7800.000
G1 E2.00000 F2400.00000
G1 F1800
G1 X152.318 Y137.232 E2.06268
G1 X152.318 Y136.346 E2.14345
G1 X150.946 Y137.718 E2.32036
G1 X150.060 Y137.718 E2.40113
G1 X152.318 Y135.460 E2.69226
G1 X152.318 Y134.574 E2.77303
G1 X149.174 Y137.718 E3.17839
G1 X148.288 Y137.718 E3.25916
G1 X152.318 Y133.688 E3.77874
G1 X152.318 Y132.802 E3.85951
G1 X147.402 Y137.718 E4.49332
G1 X146.516 Y137.718 E4.57409
G1 X152.318 Y131.916 E5.32212
G1 X152.318 Y131.030 E5.40289
G1 X145.630 Y137.718 E6.26515
G1 X144.744 Y137.718 E6.34592
G1 X152.318 Y130.144 E7.32241
G1 X152.318 Y129.258 E7.40318
G1 X143.858 Y137.718 E8.49389
G1 X142.972 Y137.718 E8.57466
G1 X152.318 Y128.372 E9.77959
G1 X152.318 Y127.486 E9.86036
G1 X142.086 Y137.718 E11.17953
G1 X141.200 Y137.718 E11.26030
G1 X152.318 Y126.600 E12.69368
G1 X152.318 Y125.714 E12.77445
G1 X140.314 Y137.718 E14.32207
G1 X139.428 Y137.718 E14.40284
G1 X152.318 Y124.828 E16.06467
G1 X152.318 Y123.942 E16.14544
G1 X138.542 Y137.718 E17.92151
G1 X137.656 Y137.718 E18.00228
G1 X152.318 Y123.056 E19.89257
G1 X152.318 Y122.170 E19.97334
G1 X136.770 Y137.718 E21.97785
G1 X135.884 Y137.718 E22.05862
G1 X152.318 Y121.284 E24.17736
G1 X152.318 Y120.398 E24.25813
G1 X134.998 Y137.718 E26.49110
G1 X134.112 Y137.718 E26.57187
G1 X152.318 Y119.512 E28.91906
G1 X152.318 Y118.626 E28.99983
G1 X133.226 Y137.718 E31.46125
G1 X132.340 Y137.718 E31.54202
G1 X152.318 Y117.740 E34.11766
G1 X152.318 Y116.854 E34.19843
G1 X131.454 Y137.718 E36.88830
G1 X130.568 Y137.718 E36.96907
G1 X152.318 Y115.968 E39.77316
G1 X152.318 Y115.082 E39.85393
G1 X129.682 Y137.718 E42.77225
G1 X128.796 Y137.718 E42.85302
G1 X152.318 Y114.196 E45.88556
G1 X152.318 Y113.310 E45.96633
G1 X127.910 Y137.718 E49.11310
G1 X127.024 Y137.718 E49.19387
G1 X152.318 Y112.424 E52.45487
G1 X152.318 Y111.538 E52.53564
G1 X126.138 Y137.718 E55.91086
G1 X125.252 Y137.718 E55.99163
G1 X152.318 Y110.652 E59.48107
G1 X152.318 Y109.766 E59.56184
G1 X124.366 Y137.718 E63.16552
G1 X123.480 Y137.718 E63.24629
G1 X152.318 Y108.880 E66.96418
G1 X152.318 Y107.994 E67.04495
G1 X122.594 Y137.718 E70.87708
G1 X121.708 Y137.718 E70.95785
G1 X152.318 Y107.108 E74.90419
G1 X152.318 Y106.222 E74.98496
G1 X120.822 Y137.718 E79.04554
G1 X119.936 Y137.718 E79.12631
G1 X152.318 Y105.336 E83.30111
G1 X152.318 Y104.450 E83.38188
G1 X119.050 Y137.718 E87.67090
G1 X118.164 Y137.718 E87.75167
G1 X152.318 Y103.564 E92.15492
G1 X152.318 Y102.678 E92.23569
G1 X117.278 Y137.718 E96.75317
G1 X116.392 Y137.718 E96.83394
G1 X152.318 Y101.792 E101.46564
G1 X152.318 Y100.906 E101.54641
G1 X115.506 Y137.718 E106.29234
G1 X114.620 Y137.718 E106.37311
G1 X152.318 Y100.020 E111.23326
G1 X152.318 Y99.134 E111.31403
G1 X113.734 Y137.718 E116.28841
G1 X112.848 Y137.718 E116.36918
G1 X152.318 Y98.248 E121.45778
G1 X152.318 Y97.362 E121.53855
G1 X111.962 Y137.718 E126.74138
G1 X111.076 Y137.718 E126.82215
G1 X152.318 Y96.476 E132.13920
G1 X152.318 Y95.591 E132.21997
G1 X110.190 Y137.718 E137.65125
G1 X109.304 Y137.718 E137.73202
G1 X152.318 Y94.705 E143.27753
G1 X152.318 Y93.819 E143.35830
G1 X108.419 Y137.718 E149.01803
G1 X107.533 Y137.718 E149.09880
G1 X152.318 Y92.933 E154.87276
G1 X152.318 Y92.047 E154.95353
G1 X106.647 Y137.718 E160.84171
G1 X105.761 Y137.718 E160.92248
G1 X152.318 Y91.161 E166.92488
G1 X152.318 Y90.275 E167.00565
G1 X104.875 Y137.718 E173.12229
G1 X103.989 Y137.718 E173.20306
G1 X152.318 Y89.389 E179.43392
G1 X152.318 Y88.503 E179.51469
G1 X103.103 Y137.718 E185.85977
G1 X102.217 Y137.718 E185.94054
G1 X152.318 Y87.617 E192.39985
G1 X152.318 Y86.731 E192.48062
G1 X101.331 Y137.718 E199.05415
G1 X100.445 Y137.718 E199.13492
G1 X152.318 Y85.845 E205.82269
G1 X152.318 Y84.959 E205.90346
G1 X99.559 Y137.718 E212.70544
G1 X98.673 Y137.718 E212.78621
G1 X152.318 Y84.073 E219.70242
G1 X152.318 Y83.187 E219.78319
G1 X97.787 Y137.718 E226.81363
G1 X96.901 Y137.718 E226.89440
G1 X152.318 Y82.301 E234.03906
G1 X152.318 Y82.282 E234.04079
G1 X151.451 Y82.282 E234.11983
G1 X96.015 Y137.718 E241.26694
G1 X95.129 Y137.718 E241.34771
G1 X150.565 Y82.282 E248.49482
G1 X149.679 Y82.282 E248.57559
G1 X94.243 Y137.718 E255.72270
G1 X93.357 Y137.718 E255.80347
G1 X148.793 Y82.282 E262.95058
G1 X147.907 Y82.282 E263.03135
G1 X92.471 Y137.718 E270.17846
G1 X91.585 Y137.718 E270.25923
G1 X147.021 Y82.282 E277.40634
G1 X146.135 Y82.282 E277.48711
G1 X90.699 Y137.718 E284.63422
G1 X89.813 Y137.718 E284.71499
G1 X145.249 Y82.282 E291.86210
G1 X144.363 Y82.282 E291.94287
G1 X88.927 Y137.718 E299.08998
G1 X88.041 Y137.718 E299.17075
G1 X143.477 Y82.282 E306.31786
G1 X142.591 Y82.282 E306.39863
G1 X87.155 Y137.718 E313.54574
G1 X86.269 Y137.718 E313.62651
G1 X141.705 Y82.282 E320.77362
G1 X140.819 Y82.282 E320.85439
G1 X85.383 Y137.718 E328.00150
G1 X84.497 Y137.718 E328.08227
G1 X139.933 Y82.282 E335.22938
G1 X139.047 Y82.282 E335.31015
G1 X83.611 Y137.718 E342.45726
G1 X82.725 Y137.718 E342.53803
G1 X138.161 Y82.282 E349.68514
G1 X137.275 Y82.282 E349.76591
G1 X81.839 Y137.718 E356.91302
G1 X80.953 Y137.718 E356.99379
G1 X136.389 Y82.282 E364.14090
G1 X135.503 Y82.282 E364.22167
G1 X80.067 Y137.718 E371.36878
G1 X79.181 Y137.718 E371.44954
G1 X134.617 Y82.282 E378.59666
G1 X133.731 Y82.282 E378.67743
G1 X78.295 Y137.718 E385.82454
G1 X77.409 Y137.718 E385.90530
G1 X132.846 Y82.282 E393.05241
G1 X131.960 Y82.282 E393.13318
G1 X76.523 Y137.718 E400.28029
G1 X75.637 Y137.718 E400.36106
G1 X131.074 Y82.282 E407.50817
G1 X130.188 Y82.282 E407.58894
G1 X74.751 Y137.718 E414.73605
G1 X73.865 Y137.718 E414.81682
G1 X129.302 Y82.282 E421.96393
G1 X128.416 Y82.282 E422.04470
G1 X72.979 Y137.718 E429.19181
G1 X72.093 Y137.718 E429.27258
G1 X127.530 Y82.282 E436.41969
G1 X126.644 Y82.282 E436.50046
G1 X71.207 Y137.718 E443.64757
G1 X70.321 Y137.718 E443.72834
G1 X125.758 Y82.282 E450.87545
G1 X124.872 Y82.282 E450.95622
G1 X69.435 Y137.718 E458.10333
G1 X68.549 Y137.718 E458.18410
G1 X123.986 Y82.282 E465.33121
G1 X123.100 Y82.282 E465.41198
G1 X67.682 Y137.700 E472.55666
G1 X67.682 Y136.814 E472.63743
G1 X122.214 Y82.282 E479.66789
G1 X121.328 Y82.282 E479.74866
G1 X67.682 Y135.928 E486.66489
G1 X67.682 Y135.042 E486.74566
G1 X120.442 Y82.282 E493.54767
G1 X119.556 Y82.282 E493.62844
G1 X67.682 Y134.156 E500.31622
G1 X67.682 Y133.270 E500.39699
G1 X118.670 Y82.282 E506.97054
G1 X117.784 Y82.282 E507.05131
G1 X67.682 Y132.384 E513.51064
G1 X67.682 Y131.498 E513.59141
G1 X116.898 Y82.282 E519.93652
G1 X116.012 Y82.282 E520.01729
G1 X67.682 Y130.612 E526.24817
G1 X67.682 Y129.726 E526.32894
G1 X115.126 Y82.282 E532.44559
G1 X114.240 Y82.282 E532.52636
G1 X67.682 Y128.840 E538.52879
G1 X67.682 Y127.954 E538.60956
G1 X113.354 Y82.282 E544.49776
G1 X112.468 Y82.282 E544.57853
G1 X67.682 Y127.068 E550.35250
G1 X67.682 Y126.182 E550.43327
G1 X111.582 Y82.282 E556.09302
G1 X110.696 Y82.282 E556.17379
G1 X67.682 Y125.296 E561.71932
G1 X67.682 Y124.410 E561.80009
G1 X109.810 Y82.282 E567.23139
G1 X108.924 Y82.282 E567.31216
G1 X67.682 Y123.524 E572.62923
G1 X67.682 Y122.638 E572.71000
G1 X108.038 Y82.282 E577.91285
G1 X107.152 Y82.282 E577.99362
G1 X67.682 Y121.752 E583.08225
G1 X67.682 Y120.866 E583.16302
G1 X106.266 Y82.282 E588.13741
G1 X105.380 Y82.282 E588.21818
G1 X67.682 Y119.980 E593.07836
G1 X67.682 Y119.094 E593.15913
G1 X104.494 Y82.282 E597.90507
G1 X103.608 Y82.282 E597.98584
G1 X67.682 Y118.208 E602.61757
G1 X67.682 Y117.322 E602.69834
G1 X102.722 Y82.282 E607.21583
G1 X101.836 Y82.282 E607.29660
G1 X67.682 Y116.436 E611.69987
G1 X67.682 Y115.550 E611.78064
G1 X100.950 Y82.282 E616.06969
G1 X100.064 Y82.282 E616.15046
G1 X67.682 Y114.664 E620.32528
G1 X67.682 Y113.778 E620.40605
G1 X99.178 Y82.282 E624.46664
G1 X98.292 Y82.282 E624.54741
G1 X67.682 Y112.892 E628.49378
G1 X67.682 Y112.006 E628.57455
G1 X97.406 Y82.282 E632.40669
G1 X96.520 Y82.282 E632.48746
G1 X67.682 Y111.120 E636.20538
G1 X67.682 Y110.234 E636.28615
G1 X95.634 Y82.282 E639.88984
G1 X94.748 Y82.282 E639.97061
G1 X67.682 Y109.348 E643.46008
G1 X67.682 Y108.462 E643.54084
G1 X93.862 Y82.282 E646.91609
G1 X92.976 Y82.282 E646.99686
G1 X67.682 Y107.576 E650.25787
G1 X67.682 Y106.690 E650.33864
G1 X92.090 Y82.282 E653.48543
G1 X91.204 Y82.282 E653.56620
G1 X67.682 Y105.804 E656.59877
G1 X67.682 Y104.918 E656.67954
G1 X90.318 Y82.282 E659.59787
G1 X89.432 Y82.282 E659.67864
G1 X67.682 Y104.032 E662.48276
G1 X67.682 Y103.146 E662.56353
G1 X88.546 Y82.282 E665.25342
G1 X87.660 Y82.282 E665.33419
G1 X67.682 Y102.260 E667.90985
G1 X67.682 Y101.374 E667.99062
G1 X86.774 Y82.282 E670.45205
G1 X85.888 Y82.282 E670.53282
G1 X67.682 Y100.488 E672.88004
G1 X67.682 Y99.602 E672.96081
G1 X85.002 Y82.282 E675.19379
G1 X84.116 Y82.282 E675.27456
G1 X67.682 Y98.716 E677.39332
G1 X67.682 Y97.830 E677.47409
G1 X83.230 Y82.282 E679.47863
G1 X82.344 Y82.282 E679.55940
G1 X67.682 Y96.944 E681.44971
G1 X67.682 Y96.058 E681.53048
G1 X81.458 Y82.282 E683.30656
G1 X80.572 Y82.282 E683.38733
G1 X67.682 Y95.172 E685.04919
G1 X67.682 Y94.286 E685.12996
G1 X79.686 Y82.282 E686.67759
G1 X78.800 Y82.282 E686.75836
G1 X67.682 Y93.400 E688.19177
G1 X67.682 Y92.514 E688.27254
G1 X77.914 Y82.282 E689.59172
G1 X77.028 Y82.282 E689.67249
G1 X67.682 Y91.628 E690.87745
G1 X67.682 Y90.742 E690.95822
G1 X76.142 Y82.282 E692.04895
G1 X75.256 Y82.282 E692.12972
G1 X67.682 Y89.856 E693.10622
G1 X67.682 Y88.970 E693.18699
G1 X74.370 Y82.282 E694.04927
G1 X73.484 Y82.282 E694.13004
G1 X67.682 Y88.084 E694.87810
G1 X67.682 Y87.198 E694.95887
G1 X72.598 Y82.282 E695.59269
G1 X71.712 Y82.282 E695.67346
G1 X67.682 Y86.312 E696.19307
G1 X67.682 Y85.426 E696.27384
G1 X70.826 Y82.282 E696.67922
G1 X69.940 Y82.282 E696.75999
G1 X67.682 Y84.540 E697.05114
G1 X67.682 Y83.654 E697.13191
G1 X69.054 Y82.282 E697.30883
G1 X68.168 Y82.282 E697.38960
G1 X67.682 Y82.768 E697.45227
G1 Z0.650 F7800.000
G1 X152.829 Y138.229 F7800.000
G1 F3600
G1 X67.171 Y138.229 E704.24302
G1 X67.171 Y81.771 E708.71886
G1 X152.829 Y81.771 E715.50961
G1 X152.829 Y138.154 E719.97950
G1 X153.464 Y138.864 F7800.000
G1 F3600
G1 X66.536 Y138.864 E726.87104
G1 X66.536 Y81.136 E731.44766
G1 X153.464 Y81.136 E738.33919
G1 X153.464 Y138.789 E742.90986
G1 X154.025 Y139.425 F7800.000
G1 F1800
G1 X65.975 Y139.425 E748.24298
G1 X65.975 Y80.575 E751.80747
G1 X154.025 Y80.575 E757.14058
G1 X154.025 Y139.350 E760.70053
G1 X153.535 Y139.327 F7800.000
G1 X152.440 Y82.654 F7800.000
G1 F1200
G1 X151.946 Y82.160 E760.75608
G1 X151.045 Y82.160 E760.82759
G1 X152.440 Y83.555 E760.98426
G1 X152.440 Y84.455 E761.05577
G1 X150.145 Y82.160 E761.31358
G1 X149.244 Y82.160 E761.38509
G1 X152.440 Y85.356 E761.74403
G1 X152.440 Y86.256 E761.81554
G1 X148.344 Y82.160 E762.27562
G1 X147.443 Y82.160 E762.34713
G1 X152.440 Y87.157 E762.90833
G1 X152.440 Y88.057 E762.97984
G1 X146.543 Y82.160 E763.64218
G1 X145.643 Y82.160 E763.71369
G1 X152.440 Y88.957 E764.47716
G1 X152.440 Y89.858 E764.54867
G1 X144.742 Y82.160 E765.41327
G1 X143.842 Y82.160 E765.48478
G1 X152.440 Y90.758 E766.45052
G1 X152.440 Y91.659 E766.52203
G1 X142.941 Y82.160 E767.58890
G1 X142.041 Y82.160 E767.66041
G1 X152.440 Y92.559 E768.82841
G1 X152.440 Y93.460 E768.89992
G1 X141.140 Y82.160 E770.16905
G1 X140.240 Y82.160 E770.24056
G1 X152.440 Y94.360 E771.61083
G1 X152.440 Y95.261 E771.68234
G1 X139.339 Y82.160 E773.15373
G1 X138.439 Y82.160 E773.22524
G1 X152.440 Y96.161 E774.79777
G1 X152.440 Y97.062 E774.86928
G1 X137.538 Y82.160 E776.54295
G1 X136.638 Y82.160 E776.61446
G1 X152.440 Y97.962 E778.38925
G1 X152.440 Y98.863 E778.46076
G1 X135.737 Y82.160 E780.33669
G1 X134.837 Y82.160 E780.40820
G1 X152.440 Y99.763 E782.38526
G1 X152.440 Y100.664 E782.45677
G1 X133.936 Y82.160 E784.53496
G1 X133.036 Y82.160 E784.60647
G1 X152.440 Y101.564 E786.78580
G1 X152.440 Y102.464 E786.85731
G1 X132.136 Y82.160 E789.13776
G1 X131.235 Y82.160 E789.20927
G1 X152.440 Y103.365 E791.59086
G1 X152.440 Y104.265 E791.66237
G1 X130.335 Y82.160 E794.14510
G1 X129.434 Y82.160 E794.21661
G1 X152.440 Y105.166 E796.80046
G1 X152.440 Y106.066 E796.87197
G1 X128.534 Y82.160 E799.55696
G1 X127.633 Y82.160 E799.62847
G1 X152.440 Y106.967 E802.41459
G1 X152.440 Y107.867 E802.48610
G1 X126.733 Y82.160 E805.37335
G1 X125.832 Y82.160 E805.44486
G1 X152.440 Y108.768 E808.43324
G1 X152.440 Y109.668 E808.50475
G1 X124.932 Y82.160 E811.59427
G1 X124.031 Y82.160 E811.66578
G1 X152.440 Y110.569 E814.85643
G1 X152.440 Y111.469 E814.92794
G1 X123.131 Y82.160 E818.21972
G1 X122.230 Y82.160 E818.29123
G1 X152.440 Y112.370 E821.68414
G1 X152.440 Y113.270 E821.75566
G1 X121.330 Y82.160 E825.24970
G1 X120.429 Y82.160 E825.32121
G1 X152.440 Y114.171 E828.91639
G1 X152.440 Y115.071 E828.98790
G1 X119.529 Y82.160 E832.68421
G1 X118.629 Y82.160 E832.75572
G1 X152.440 Y115.971 E836.55317
G1 X152.440 Y116.872 E836.62468
G1 X117.728 Y82.160 E840.52325
G1 X116.828 Y82.160 E840.59476
G1 X152.440 Y117.772 E844.59447
G1 X152.440 Y118.673 E844.66598
G1 X115.927 Y82.160 E848.76682
G1 X115.027 Y82.160 E848.83833
G1 X152.440 Y119.573 E853.04030
G1 X152.440 Y120.474 E853.11182
G1 X114.126 Y82.160 E857.41492
G1 X113.226 Y82.160 E857.48643
G1 X152.440 Y121.374 E861.89067
G1 X152.440 Y122.275 E861.96218
G1 X112.325 Y82.160 E866.46755
G1 X111.425 Y82.160 E866.53906
G1 X152.440 Y123.175 E871.14556
G1 X152.440 Y124.076 E871.21707
G1 X110.524 Y82.160 E875.92471
G1 X109.624 Y82.160 E875.99622
G1 X152.440 Y124.976 E880.80499
G1 X152.440 Y125.877 E880.87650
G1 X108.723 Y82.160 E885.78640
G1 X107.823 Y82.160 E885.85791
G1 X152.440 Y126.777 E890.86894
G1 X152.440 Y127.678 E890.94045
G1 X106.922 Y82.160 E896.05262
G1 X106.022 Y82.160 E896.12413
G1 X152.440 Y128.578 E901.33742
G1 X152.440 Y129.478 E901.40893
G1 X105.122 Y82.160 E906.72336
G1 X104.221 Y82.160 E906.79487
G1 X152.440 Y130.379 E912.21044
G1 X152.440 Y131.279 E912.28195
G1 X103.321 Y82.160 E917.79864
G1 X102.420 Y82.160 E917.87015
G1 X152.440 Y132.180 E923.48798
G1 X152.440 Y133.080 E923.55949
G1 X101.520 Y82.160 E929.27845
G1 X100.619 Y82.160 E929.34996
