; generated by Slic3r 1.3.0 on 2020-09-10 at 16:29:47

; external perimeters extrusion width = 0.55mm (4.37mm^3/s)
; perimeters extrusion width = 0.70mm (11.44mm^3/s)
; infill extrusion width = 0.62mm (13.45mm^3/s)
; solid infill extrusion width = 0.70mm (3.81mm^3/s)
; top infill extrusion width = 0.70mm (2.86mm^3/s)

M107
M104 S200 ; set temperature
G28 ; home all axes
G1 Z5 F5000 ; lift nozzle

; Filament gcode

M109 S200 ; set temperature and wait for it to be reached
G21 ; set units to millimeters
G90 ; use absolute coordinates
M82 ; use absolute distances for extrusion
G92 E0
G1 Z0.350 F7800.000
G1 E-2.00000 F2400.00000
G92 E0
G1 X92.415 Y76.453 F7800.000
G1 E2.00000 F2400.00000
G1 F1800
G1 X94.168 Y74.974 E2.20854
G1 X96.320 Y74.181 E2.41708
G1 X97.500 Y74.075 E2.52479
G1 X122.500 Y74.075 E4.79803
G1 X124.759 Y74.472 E5.00658
G1 X126.747 Y75.615 E5.21512
G1 X128.226 Y77.368 E5.42366
G1 X129.019 Y79.520 E5.63220
G1 X129.125 Y80.700 E5.73991
G1 X129.125 Y139.300 E11.06838
G1 X128.728 Y141.559 E11.27693
G1 X127.585 Y143.547 E11.48547
G1 X125.832 Y145.026 E11.69401
G1 X123.680 Y145.819 E11.90255
G1 X122.500 Y145.925 E12.01026
G1 X97.500 Y145.925 E14.28350
G1 X95.241 Y145.528 E14.49205
G1 X93.253 Y144.385 E14.70059
G1 X91.774 Y142.632 E14.90913
G1 X90.981 Y140.480 E15.11767
G1 X90.875 Y139.300 E15.22538
G1 X90.875 Y80.700 E20.55385
G1 X91.272 Y78.441 E20.76240
G1 X92.378 Y76.518 E20.96412
G1 E18.96412 F2400.00000
G92 E0
G1 X120.900 Y137.700 F7800.000
G1 E2.00000 F2400.00000
G1 F1800
G1 X99.100 Y137.700 E3.98231
G1 X99.100 Y82.300 E9.01984
G1 X120.900 Y82.300 E11.00215
G1 X120.900 Y137.625 E16.03287
G1 X121.525 Y138.325 F7800.000
G1 F1800
G1 X98.475 Y138.325 E18.12882
G1 X98.475 Y81.675 E23.28000
G1 X121.525 Y81.675 E25.37594
G1 X121.525 Y138.250 E30.52031
G1 X122.150 Y138.950 F7800.000
G1 F1800
G1 X97.850 Y138.950 E32.72989
G1 X97.850 Y81.050 E37.99472
G1 X122.150 Y81.050 E40.20431
G1 X122.150 Y138.875 E45.46231
G1 X121.688 Y138.759 F7800.000
G1 E43.46231 F2400.00000
G92 E0
G1 X120.032 Y137.318 F7800.000
G1 E2.00000 F2400.00000
G1 F1800
G1 X120.518 Y136.832 E2.06292
G1 X120.518 Y135.943 E2.14429
G1 X119.143 Y137.318 E2.32228
G1 X118.254 Y137.318 E2.40366
G1 X120.518 Y135.054 E2.69673
G1 X120.518 Y134.164 E2.77810
G1 X117.364 Y137.318 E3.18626
G1 X116.475 Y137.318 E3.26763
G1 X120.518 Y133.275 E3.79086
G1 X120.518 Y132.386 E3.87224
G1 X115.586 Y137.318 E4.51055
G1 X114.696 Y137.318 E4.59192
G1 X120.518 Y131.496 E5.34531
G1 X120.518 Y130.607 E5.42668
G1 X113.807 Y137.318 E6.29515
G1 X112.918 Y137.318 E6.37653
G1 X120.518 Y129.718 E7.36008
G1 X120.518 Y128.829 E7.44145
G1 X112.029 Y137.318 E8.54008
G1 X111.139 Y137.318 E8.62145
G1 X120.518 Y127.939 E9.83516
G1 X120.518 Y127.050 E9.91653
G1 X110.250 Y137.318 E11.24532
G1 X109.361 Y137.318 E11.32669
G1 X120.518 Y126.161 E12.77056
G1 X120.518 Y125.271 E12.85193
G1 X108.471 Y137.318 E14.41088
G1 X107.582 Y137.318 E14.49225
G1 X120.518 Y124.382 E16.16628
G1 X120.518 Y123.493 E16.24765
G1 X106.693 Y137.318 E18.03676
G1 X105.803 Y137.318 E18.11813
G1 X120.518 Y122.603 E20.02231
G1 X120.518 Y121.714 E20.10369
G1 X104.914 Y137.318 E22.12295
G1 X104.025 Y137.318 E22.20432
G1 X120.518 Y120.825 E24.33867
G1 X120.518 Y119.936 E24.42004
G1 X103.136 Y137.318 E26.66946
G1 X102.246 Y137.318 E26.75084
G1 X120.518 Y119.046 E29.11534
G1 X120.518 Y118.157 E29.19671
G1 X101.357 Y137.318 E31.67629
G1 X100.468 Y137.318 E31.75766
G1 X120.518 Y117.268 E34.35232
G1 X120.518 Y116.378 E34.43370
G1 X99.578 Y137.318 E37.14344
G1 X99.482 Y137.318 E37.15228
G1 X99.482 Y136.526 E37.22481
G1 X120.518 Y115.489 E39.94706
G1 X120.518 Y114.600 E40.02843
G1 X99.482 Y135.636 E42.75069
G1 X99.482 Y134.747 E42.83206
G1 X120.518 Y113.710 E45.55431
G1 X120.518 Y112.821 E45.63569
G1 X99.482 Y133.858 E48.35794
G1 X99.482 Y132.969 E48.43931
G1 X120.518 Y111.932 E51.16156
G1 X120.518 Y111.043 E51.24294
G1 X99.482 Y132.079 E53.96519
G1 X99.482 Y131.190 E54.04656
G1 X120.518 Y110.153 E56.76881
G1 X120.518 Y109.264 E56.85019
G1 X99.482 Y130.301 E59.57244
G1 X99.482 Y129.411 E59.65381
G1 X120.518 Y108.375 E62.37606
G1 X120.518 Y107.485 E62.45744
G1 X99.482 Y128.522 E65.17969
G1 X99.482 Y127.633 E65.26106
G1 X120.518 Y106.596 E67.98331
G1 X120.518 Y105.707 E68.06469
G1 X99.482 Y126.743 E70.78694
G1 X99.482 Y125.854 E70.86831
G1 X120.518 Y104.817 E73.59056
G1 X120.518 Y103.928 E73.67194
G1 X99.482 Y124.965 E76.39419
G1 X99.482 Y124.076 E76.47556
G1 X120.518 Y103.039 E79.19782
G1 X120.518 Y102.150 E79.27919
G1 X99.482 Y123.186 E82.00144
G1 X99.482 Y122.297 E82.08281
G1 X120.518 Y101.260 E84.80507
G1 X120.518 Y100.371 E84.88644
G1 X99.482 Y121.408 E87.60869
G1 X99.482 Y120.518 E87.69006
G1 X120.518 Y99.482 E90.41232
G1 X120.518 Y98.592 E90.49369
G1 X99.482 Y119.629 E93.21594
G1 X99.482 Y118.740 E93.29731
G1 X120.518 Y97.703 E96.01957
G1 X120.518 Y96.814 E96.10094
G1 X99.482 Y117.851 E98.82319
G1 X99.482 Y116.961 E98.90457
G1 X120.518 Y95.924 E101.62682
G1 X120.518 Y95.035 E101.70819
G1 X99.482 Y116.072 E104.43044
G1 X99.482 Y115.183 E104.51182
G1 X120.518 Y94.146 E107.23407
G1 X120.518 Y93.257 E107.31544
G1 X99.482 Y114.293 E110.03769
G1 X99.482 Y113.404 E110.11907
G1 X120.518 Y92.367 E112.84132
G1 X120.518 Y91.478 E112.92269
G1 X99.482 Y112.515 E115.64494
G1 X99.482 Y111.625 E115.72632
G1 X120.518 Y90.589 E118.44857
G1 X120.518 Y89.699 E118.52994
G1 X99.482 Y110.736 E121.25219
G1 X99.482 Y109.847 E121.33357
G1 X120.518 Y88.810 E124.05582
G1 X120.518 Y87.921 E124.13719
G1 X99.482 Y108.958 E126.85944
G1 X99.482 Y108.068 E126.94082
G1 X120.518 Y87.031 E129.66307
G1 X120.518 Y86.142 E129.74444
G1 X99.482 Y107.179 E132.46670
G1 X99.482 Y106.290 E132.54807
G1 X120.518 Y85.253 E135.27032
G1 X120.518 Y84.364 E135.35169
G1 X99.482 Y105.400 E138.07395
G1 X99.482 Y104.511 E138.15532
G1 X120.518 Y83.474 E140.87757
G1 X120.518 Y82.682 E140.95010
G1 X120.422 Y82.682 E140.95895
G1 X99.482 Y103.622 E143.66869
G1 X99.482 Y102.732 E143.75007
G1 X119.532 Y82.682 E146.34473
G1 X118.643 Y82.682 E146.42611
G1 X99.482 Y101.843 E148.90570
G1 X99.482 Y100.954 E148.98707
G1 X117.754 Y82.682 E151.35158
G1 X116.865 Y82.682 E151.43295
G1 X99.482 Y100.065 E153.68238
G1 X99.482 Y99.175 E153.76376
G1 X115.975 Y82.682 E155.89811
G1 X115.086 Y82.682 E155.97948
G1 X99.482 Y98.286 E157.99875
G1 X99.482 Y97.397 E158.08013
G1 X114.197 Y82.682 E159.98432
G1 X113.307 Y82.682 E160.06569
G1 X99.482 Y96.507 E161.85480
G1 X99.482 Y95.618 E161.93618
G1 X112.418 Y82.682 E163.61021
G1 X111.529 Y82.682 E163.69158
G1 X99.482 Y94.729 E165.25054
G1 X99.482 Y93.839 E165.33191
G1 X110.639 Y82.682 E166.77579
G1 X109.750 Y82.682 E166.85716
G1 X99.482 Y92.950 E168.18596
G1 X99.482 Y92.061 E168.26733
G1 X108.861 Y82.682 E169.48105
G1 X107.972 Y82.682 E169.56242
G1 X99.482 Y91.172 E170.66106
G1 X99.482 Y90.282 E170.74243
G1 X107.082 Y82.682 E171.72599
G1 X106.193 Y82.682 E171.80736
G1 X99.482 Y89.393 E172.67584
G1 X99.482 Y88.504 E172.75722
G1 X105.304 Y82.682 E173.51061
G1 X104.414 Y82.682 E173.59199
G1 X99.482 Y87.614 E174.23031
G1 X99.482 Y86.725 E174.31168
G1 X103.525 Y82.682 E174.83492
G1 X102.636 Y82.682 E174.91630
G1 X99.482 Y85.836 E175.32446
G1 X99.482 Y84.946 E175.40583
G1 X101.746 Y82.682 E175.69891
G1 X100.857 Y82.682 E175.78029
G1 X99.482 Y84.057 E175.95829
G1 X99.482 Y83.168 E176.03966
G1 X99.968 Y82.682 E176.10259
G1 Z0.650 F7800.000
G1 X121.029 Y137.796 F7800.000
G1 F3600
G1 X98.971 Y137.808 E177.85126
G1 X98.971 Y82.171 E182.26201
G1 X121.029 Y82.171 E184.01068
G1 X121.029 Y137.721 E188.41454
G1 X121.664 Y138.431 F7800.000
G1 F3600
G1 X98.336 Y138.444 E190.26400
G1 X98.336 Y81.536 E194.77555
G1 X121.664 Y81.536 E196.62501
G1 X121.664 Y138.356 E201.12962
G1 X122.225 Y138.991 F7800.000
G1 F1800
G1 X97.775 Y139.005 E202.61054
G1 X97.775 Y80.975 E206.12534
G1 X122.225 Y80.975 E207.60625
G1 X122.225 Y138.916 E211.11572
G1 X121.763 Y138.801 F7800.000
G1 X99.854 Y137.419 F7800.000
G1 F1200
G1 X99.360 Y136.924 E211.17155
G1 X99.360 Y136.019 E211.24385
G1 X100.759 Y137.418 E211.40191
G1 X101.664 Y137.418 E211.47417
G1 X99.360 Y135.113 E211.73442
G1 X99.360 Y134.208 E211.80672
G1 X102.569 Y137.417 E212.16917
G1 X103.474 Y137.417 E212.24144
G1 X99.360 Y133.303 E212.70608
G1 X99.360 Y132.397 E212.77838
G1 X104.379 Y137.417 E213.34522
G1 X105.284 Y137.416 E213.41748
G1 X99.360 Y131.492 E214.08652
G1 X99.360 Y130.586 E214.15882
G1 X106.189 Y137.416 E214.93005
G1 X107.094 Y137.415 E215.00232
G1 X99.360 Y129.681 E215.87575
G1 X99.360 Y128.775 E215.94805
G1 X107.999 Y137.415 E216.92367
G1 X108.904 Y137.414 E216.99594
G1 X99.360 Y127.870 E218.07376
G1 X99.360 Y126.965 E218.14606
G1 X109.809 Y137.414 E219.32608
G1 X110.714 Y137.413 E219.39834
G1 X99.360 Y126.059 E220.68055
G1 X99.360 Y125.154 E220.75285
G1 X111.619 Y137.413 E222.13726
G1 X112.524 Y137.412 E222.20953
G1 X99.360 Y124.248 E223.69613
G1 X99.360 Y123.343 E223.76843
G1 X113.428 Y137.412 E225.35724
G1 X114.333 Y137.411 E225.42950
G1 X99.360 Y122.437 E227.12050
G1 X99.360 Y121.532 E227.19280
G1 X115.238 Y137.411 E228.98599
G1 X116.143 Y137.410 E229.05826
G1 X99.360 Y120.627 E230.95365
G1 X99.360 Y119.721 E231.02595
G1 X117.048 Y137.410 E233.02353
G1 X117.953 Y137.409 E233.09580
G1 X99.360 Y118.816 E235.19558
G1 X99.360 Y117.910 E235.26788
G1 X118.858 Y137.409 E237.46986
G1 X119.763 Y137.408 E237.54212
G1 X99.360 Y117.005 E239.84630
G1 X99.360 Y116.099 E239.91860
G1 X120.640 Y137.380 E242.32184
G1 X120.640 Y136.475 E242.39414
G1 X99.360 Y115.194 E244.79738
G1 X99.360 Y114.289 E244.86969
G1 X120.640 Y135.569 E247.27293
G1 X120.640 Y134.664 E247.34523
G1 X99.360 Y113.383 E249.74847
G1 X99.360 Y112.478 E249.82077
G1 X120.640 Y133.758 E252.22401
G1 X120.640 Y132.853 E252.29632
G1 X99.360 Y111.572 E254.69956
G1 X99.360 Y110.667 E254.77186
G1 X120.640 Y131.947 E257.17510
G1 X120.640 Y131.042 E257.24740
G1 X99.360 Y109.761 E259.65065
G1 X99.360 Y108.856 E259.72295
G1 X120.640 Y130.137 E262.12619
G1 X120.640 Y129.231 E262.19849
G1 X99.360 Y107.950 E264.60173
G1 X99.360 Y107.045 E264.67403
G1 X120.640 Y128.326 E267.07728
G1 X120.640 Y127.420 E267.14958
G1 X99.360 Y106.140 E269.55282
G1 X99.360 Y105.234 E269.62512
G1 X120.640 Y126.515 E272.02836
G1 X120.640 Y125.609 E272.10067
G1 X99.360 Y104.329 E274.50391
G1 X99.360 Y103.423 E274.57621
G1 X120.640 Y124.704 E276.97945
G1 X120.640 Y123.799 E277.05175
G1 X99.360 Y102.518 E279.45499
G1 X99.360 Y101.612 E279.52730
G1 X120.640 Y122.893 E281.93054
G1 X120.640 Y121.988 E282.00284
G1 X99.360 Y100.707 E284.40608
G1 X99.360 Y99.802 E284.47838
G1 X120.640 Y121.082 E286.88163
G1 X120.640 Y120.177 E286.95393
G1 X99.360 Y98.896 E289.35717
G1 X99.360 Y97.991 E289.42947
G1 X120.640 Y119.271 E291.83271
G1 X120.640 Y118.366 E291.90502
G1 X99.360 Y97.085 E294.30826
G1 X99.360 Y96.180 E294.38056
G1 X120.640 Y117.461 E296.78380
G1 X120.640 Y116.555 E296.85610
G1 X99.360 Y95.274 E299.25934
G1 X99.360 Y94.369 E299.33165
G1 X120.640 Y115.650 E301.73489
G1 X120.640 Y114.744 E301.80719
G1 X99.360 Y93.464 E304.21043
G1 X99.360 Y92.558 E304.28273
G1 X120.640 Y113.839 E306.68598
G1 X120.640 Y112.933 E306.75828
G1 X99.360 Y91.653 E309.16152
G1 X99.360 Y90.747 E309.23382
G1 X120.640 Y112.028 E311.63706
G1 X120.640 Y111.123 E311.70937
G1 X99.360 Y89.842 E314.11261
G1 X99.360 Y88.936 E314.18491
G1 X120.640 Y110.217 E316.58815
G1 X120.640 Y109.312 E316.66045
G1 X99.360 Y88.031 E319.06369
G1 X99.360 Y87.126 E319.13600
G1 X120.640 Y108.406 E321.53924
G1 X120.640 Y107.501 E321.61154
G1 X99.360 Y86.220 E324.01478
G1 X99.360 Y85.315 E324.08708
G1 X120.640 Y106.595 E326.49033
G1 X120.640 Y105.690 E326.56263
G1 X99.360 Y84.409 E328.96587
G1 X99.360 Y83.504 E329.03817
G1 X120.640 Y104.785 E331.44141
G1 X120.640 Y103.879 E331.51371
G1 X99.360 Y82.598 E333.91696
G1 X99.360 Y82.560 E333.92005
G1 X100.226 Y82.560 E333.98926
G1 X120.640 Y102.974 E336.29462
G1 X120.640 Y102.068 E336.36693
G1 X101.132 Y82.560 E338.57004
G1 X102.037 Y82.560 E338.64234
G1 X120.640 Y101.163 E340.74321
G1 X120.640 Y100.257 E340.81551
G1 X102.943 Y82.560 E342.81413
G1 X103.848 Y82.560 E342.88643
G1 X120.640 Y99.352 E344.78279
G1 X120.640 Y98.447 E344.85509
G1 X104.753 Y82.560 E346.64921
G1 X105.659 Y82.560 E346.72151
G1 X120.640 Y97.541 E348.41337
G1 X120.640 Y96.636 E348.48567
G1 X106.564 Y82.560 E350.07528
G1 X107.470 Y82.560 E350.14758
G1 X120.640 Y95.730 E351.63494
G1 X120.640 Y94.825 E351.70725
G1 X108.375 Y82.560 E353.09236
G1 X109.281 Y82.560 E353.16466
G1 X120.640 Y93.919 E354.44752
G1 X120.640 Y93.014 E354.51982
G1 X110.186 Y82.560 E355.70043
G1 X111.092 Y82.560 E355.77273
G1 X120.640 Y92.108 E356.85108
G1 X120.640 Y91.203 E356.92339
G1 X111.997 Y82.560 E357.89949
G1 X112.902 Y82.560 E357.97179
G1 X120.640 Y90.298 E358.84565
G1 X120.640 Y89.392 E358.91795
G1 X113.808 Y82.560 E359.68955
G1 X114.713 Y82.560 E359.76186
G1 X120.640 Y88.487 E360.43121
G1 X120.640 Y87.581 E360.50351
G1 X115.619 Y82.560 E361.07061
G1 X116.524 Y82.560 E361.14292
G1 X120.640 Y86.676 E361.60777
G1 X120.640 Y85.770 E361.68007
G1 X117.430 Y82.560 E362.04267
G1 X118.335 Y82.560 E362.11497
G1 X120.640 Y84.865 E362.37532
G1 X120.640 Y83.960 E362.44763
G1 X119.240 Y82.560 E362.60572
G1 X120.146 Y82.560 E362.67803
G1 X120.640 Y83.054 E362.73387
G1 Z0.950 F7800.000
G1 X121.029 Y137.776 F7800.000
G1 F3600
G1 X98.971 Y137.795 E364.48255
G1 X98.971 Y82.171 E368.89230
G1 X121.029 Y82.171 E370.64098
G1 X121.029 Y137.701 E375.04326
G1 X121.664 Y138.411 F7800.000
G1 F3600
G1 X98.336 Y138.431 E376.89272
G1 X98.336 Y81.536 E381.40330
G1 X121.664 Y81.536 E383.25275
G1 X121.664 Y138.336 E387.75578
G1 X122.225 Y138.996 F7800.000
G1 F1800
G1 X121.987 Y138.971 E387.77024
G1 X98.018 Y138.992 E389.22204
G1 X97.775 Y139.007 E389.23679
G1 X97.775 Y80.975 E392.75176
G1 X122.225 Y80.975 E394.23268
G1 X122.225 Y138.921 E397.74239
G1 X122.011 Y138.890 F7800.000
G1 X120.146 Y137.388 F7800.000
G1 F1200
G1 X120.640 Y136.894 E397.79822
G1 X120.640 Y135.989 E397.87046
G1 X119.240 Y137.389 E398.02854
G1 X118.334 Y137.390 E398.10085
G1 X120.640 Y135.083 E398.36119
G1 X120.640 Y134.178 E398.43343
G1 X117.428 Y137.390 E398.79602
G1 X116.522 Y137.391 E398.86833
G1 X120.640 Y133.273 E399.33318
G1 X120.640 Y132.368 E399.40542
G1 X115.617 Y137.392 E399.97253
G1 X114.711 Y137.393 E400.04483
G1 X120.640 Y131.463 E400.71420
G1 X120.640 Y130.558 E400.78644
G1 X113.805 Y137.394 E401.55806
G1 X112.899 Y137.394 E401.63036
G1 X120.640 Y129.653 E402.50424
G1 X120.640 Y128.748 E402.57648
G1 X111.993 Y137.395 E403.55261
G1 X111.087 Y137.396 E403.62492
G1 X120.640 Y127.843 E404.70330
G1 X120.640 Y126.938 E404.77555
G1 X110.181 Y137.397 E405.95619
G1 X109.276 Y137.398 E406.02850
G1 X120.640 Y126.033 E407.31139
G1 X120.640 Y125.128 E407.38364
G1 X108.370 Y137.398 E408.76879
G1 X107.464 Y137.399 E408.84110
G1 X120.640 Y124.223 E410.32851
G1 X120.640 Y123.318 E410.40075
G1 X106.558 Y137.400 E411.99042
G1 X105.652 Y137.401 E412.06273
G1 X120.640 Y122.413 E413.75465
G1 X120.640 Y121.508 E413.82689
G1 X104.746 Y137.402 E415.62107
G1 X103.841 Y137.402 E415.69338
G1 X120.640 Y120.602 E417.58981
G1 X120.640 Y119.697 E417.66206
G1 X102.935 Y137.403 E419.66075
G1 X102.029 Y137.404 E419.73306
G1 X120.640 Y118.792 E421.83400
G1 X120.640 Y117.887 E421.90625
G1 X101.123 Y137.405 E424.10945
G1 X100.217 Y137.405 E424.18176
G1 X120.640 Y116.982 E426.48722
G1 X120.640 Y116.077 E426.55946
G1 X99.360 Y137.358 E428.96172
G1 X99.360 Y136.453 E429.03396
G1 X120.640 Y115.172 E431.43622
G1 X120.640 Y114.267 E431.50846
G1 X99.360 Y135.548 E433.91072
G1 X99.360 Y134.643 E433.98296
G1 X120.640 Y113.362 E436.38522
G1 X120.640 Y112.457 E436.45746
G1 X99.360 Y133.738 E438.85972
G1 X99.360 Y132.833 E438.93196
G1 X120.640 Y111.552 E441.33422
G1 X120.640 Y110.647 E441.40646
G1 X99.360 Y131.928 E443.80872
G1 X99.360 Y131.022 E443.88097
G1 X120.640 Y109.742 E446.28322
G1 X120.640 Y108.837 E446.35547
G1 X99.360 Y130.117 E448.75772
G1 X99.360 Y129.212 E448.82997
G1 X120.640 Y107.932 E451.23223
G1 X120.640 Y107.027 E451.30447
G1 X99.360 Y128.307 E453.70673
G1 X99.360 Y127.402 E453.77897
G1 X120.640 Y106.122 E456.18123
