; generated by Slic3r 1.3.0 on 2020-09-10 at 16:33:03

; external perimeters extrusion width = 0.55mm (4.37mm^3/s)
; perimeters extrusion width = 0.70mm (11.44mm^3/s)
; infill extrusion width = 0.62mm (13.45mm^3/s)
; solid infill extrusion width = 0.70mm (3.81mm^3/s)
; top infill extrusion width = 0.70mm (2.86mm^3/s)

M107
M104 S200 ; set temperature
G28 ; home all axes
G1 Z5 F5000 ; lift nozzle

; Filament gcode

M109 S200 ; set temperature and wait for it to be reached
G21 ; set units to millimeters
G90 ; use absolute coordinates
M82 ; use absolute distances for extrusion
G92 E0
G1 Z0.350 F7800.000
G1 E-2.00000 F2400.00000
G92 E0
G1 X90.854 Y65.528 F7800.000
G1 E2.00000 F2400.00000
G1 F1800
G1 X92.607 Y64.049 E2.20854
G1 X94.759 Y63.256 E2.41708
G1 X95.939 Y63.150 E2.52479
G1 X121.939 Y63.150 E4.88896
G1 X124.198 Y63.547 E5.09751
G1 X126.186 Y64.691 E5.30605
G1 X127.665 Y66.443 E5.51459
G1 X128.562 Y69.606 E5.81349
G1 X130.363 Y140.055 E12.22152
G1 X130.349 Y147.094 E12.86151
G1 X130.258 Y148.173 E12.95999
G1 X130.143 Y148.857 E13.02311
G1 X129.346 Y151.074 E13.23732
G1 X128.802 Y151.917 E13.32849
G1 X128.698 Y152.054 E13.34417
G1 X127.042 Y153.604 E13.55036
G1 X126.736 Y153.805 E13.58370
G1 X124.629 Y154.711 E13.79224
G1 X123.172 Y154.889 E13.92571
G1 X122.955 Y154.891 E13.94544
G1 X99.064 Y154.900 E16.11787
G1 X96.673 Y154.455 E16.33900
G1 X96.415 Y154.355 E16.36414
G1 X95.140 Y153.695 E16.49469
G1 X94.976 Y153.585 E16.51266
G1 X93.334 Y151.960 E16.72273
G1 X92.637 Y150.707 E16.85309
G1 X92.510 Y150.389 E16.88420
G1 X92.076 Y149.035 E17.01349
G1 X91.830 Y147.920 E17.11730
G1 X89.371 Y129.240 E18.83056
G1 X89.314 Y128.375 E18.90936
G1 X89.314 Y69.775 E24.23783
G1 X89.711 Y67.516 E24.44637
G1 X90.817 Y65.593 E24.64810
G1 E22.64810 F2400.00000
G92 E0
G1 X103.826 Y146.370 F7800.000
G1 E2.00000 F2400.00000
G1 F1800
G1 X103.767 Y146.673 E2.02805
G1 X99.998 Y146.675 E2.37078
G1 X99.995 Y143.631 E2.64755
G1 X100.562 Y144.273 E2.72539
G1 X100.986 Y144.683 E2.77908
G1 X101.532 Y145.136 E2.84352
G1 X102.016 Y145.476 E2.89736
G1 X102.623 Y145.835 E2.96152
G1 X103.148 Y146.094 E3.01468
G1 X103.757 Y146.342 E3.07446
G1 E1.07446 F2400.00000
G92 E0
G1 X109.291 Y146.365 F7800.000
G1 E2.00000 F2400.00000
G1 F1800
G1 X109.944 Y146.107 E2.06383
G1 X110.584 Y145.789 E2.12886
G1 X111.098 Y145.481 E2.18338
G1 X111.782 Y144.986 E2.26016
G1 X112.323 Y144.509 E2.32569
G1 X112.737 Y144.082 E2.37980
G1 X113.227 Y143.489 E2.44977
G1 X113.526 Y143.059 E2.49740
G1 X113.835 Y142.552 E2.55134
G1 X114.170 Y141.858 E2.62138
G1 X114.461 Y141.925 E2.64854
G1 X114.461 Y146.643 E3.07754
G1 X109.349 Y146.670 E3.54243
G1 X109.305 Y146.439 E3.56383
G1 E1.56383 F2400.00000
G92 E0
G1 X115.086 Y147.268 F7800.000
G1 E2.00000 F2400.00000
G1 F1800
G1 X110.342 Y147.294 E2.43136
G1 X99.496 Y147.300 E3.41758
G1 X99.373 Y146.906 E3.45511
G1 X99.368 Y141.978 E3.90321
G1 X99.650 Y141.905 E3.92962
G1 X99.962 Y142.470 E3.98828
G1 X100.254 Y142.918 E4.03691
G1 X100.577 Y143.346 E4.08570
G1 X101.014 Y143.841 E4.14568
G1 X101.403 Y144.218 E4.19495
G1 X101.911 Y144.638 E4.25493
G1 X102.356 Y144.950 E4.30431
G1 X102.921 Y145.286 E4.36409
G1 X103.404 Y145.523 E4.41304
G1 X103.899 Y145.725 E4.46164
G1 X104.410 Y145.893 E4.51053
G1 X105.050 Y146.051 E4.57048
G1 X105.580 Y146.137 E4.61934
G1 X106.111 Y146.188 E4.66784
G1 X106.650 Y146.200 E4.71686
G1 X107.309 Y146.164 E4.77681
G1 X107.849 Y146.092 E4.82640
G1 X108.553 Y145.938 E4.89189
G1 X109.074 Y145.779 E4.94141
G1 X109.690 Y145.536 E5.00162
G1 X110.284 Y145.241 E5.06197
G1 X110.754 Y144.959 E5.11177
G1 X111.392 Y144.497 E5.18338
G1 X111.891 Y144.057 E5.24397
G1 X112.271 Y143.665 E5.29358
G1 X112.729 Y143.111 E5.35893
G1 X113.002 Y142.718 E5.40246
G1 X113.285 Y142.253 E5.45194
G1 X113.659 Y141.480 E5.52997
G1 X113.756 Y141.200 E5.55697
G1 X115.086 Y141.200 E5.67794
G1 X115.086 Y147.193 E6.22295
G1 X115.711 Y147.894 F7800.000
G1 F1800
G1 X113.104 Y147.892 E6.45997
G1 X110.346 Y147.919 E6.71084
G1 X99.037 Y147.925 E7.73910
G1 X98.748 Y147.002 E7.82706
G1 X98.742 Y140.576 E8.41141
G1 X99.038 Y140.577 E8.43834
G1 X99.286 Y140.614 E8.46110
G1 X99.471 Y140.680 E8.47893
G1 X99.642 Y140.776 E8.49685
G1 X99.825 Y140.932 E8.51869
G1 X99.988 Y141.150 E8.54342
G1 X100.261 Y141.719 E8.60082
G1 X100.498 Y142.147 E8.64533
G1 X100.766 Y142.559 E8.68999
G1 X101.062 Y142.951 E8.73465
G1 X101.466 Y143.409 E8.79016
G1 X101.820 Y143.752 E8.83501
G1 X102.290 Y144.141 E8.89053
G1 X102.695 Y144.425 E8.93546
G1 X103.219 Y144.736 E8.99087
G1 X103.660 Y144.953 E9.03560
G1 X104.115 Y145.138 E9.08024
G1 X104.582 Y145.292 E9.12498
G1 X105.175 Y145.438 E9.18047
G1 X105.660 Y145.517 E9.22518
G1 X106.148 Y145.563 E9.26975
G1 X106.640 Y145.575 E9.31452
G1 X107.250 Y145.541 E9.37001
G1 X107.741 Y145.476 E9.41505
G1 X108.395 Y145.333 E9.47591
G1 X108.867 Y145.188 E9.52086
G1 X109.436 Y144.964 E9.57639
G1 X109.984 Y144.692 E9.63207
G1 X110.409 Y144.437 E9.67714
G1 X111.001 Y144.008 E9.74358
G1 X111.460 Y143.604 E9.79923
G1 X111.805 Y143.248 E9.84434
G1 X112.231 Y142.733 E9.90508
G1 X112.478 Y142.377 E9.94451
G1 X112.736 Y141.954 E9.98952
G1 X113.080 Y141.241 E10.06148
G1 X113.310 Y140.575 E10.12561
G1 X115.711 Y140.575 E10.34389
G1 X115.711 Y147.819 E11.00258
G1 X115.254 Y147.690 F7800.000
G1 E9.00258 F2400.00000
G92 E0
G1 X113.593 Y146.265 F7800.000
G1 E2.00000 F2400.00000
G1 F1800
G1 X114.079 Y145.778 E2.07503
G1 X114.079 Y144.718 E2.19074
G1 X112.527 Y146.270 E2.43027
G1 X111.924 Y146.273 E2.49609
G1 X111.878 Y146.098 E2.51591
G1 X112.005 Y145.731 E2.55822
G1 X114.079 Y143.657 E2.87825
G1 X113.939 Y143.056 F7800.000
G1 F1800
G1 X114.091 Y142.843 E2.87980
G1 X114.118 Y142.746 E2.88039
G1 X114.387 Y141.549 F7800.000
G1 F1800
G1 X114.774 Y141.593 E2.88439
G1 E0.88439 F2400.00000
G92 E0
G1 X111.399 Y145.657 F7800.000
G1 E2.00000 F2400.00000
G1 F1800
G1 X111.159 Y146.349 E2.01795
G1 X111.523 Y146.033 F7800.000
G1 F1800
G1 X110.282 Y146.325 E2.02089
G1 X110.284 Y146.335 F7800.000
G1 F1800
G1 X111.517 Y146.014 E2.06456
G1 E0.06456 F2400.00000
G92 E0
G1 X109.012 Y146.575 F7800.000
G1 E2.00000 F2400.00000
G1 F1800
G1 X108.315 Y146.650 E2.06753
G1 F1800
G1 X107.942 Y146.690 E2.09830
G1 F1800
G1 X107.372 Y146.728 E2.14082
G1 F1800
G1 X106.650 Y146.748 E2.18658
G1 X105.497 Y146.714 E2.25961
G1 F1800
G1 X104.937 Y146.669 E2.30142
G1 F1800
G1 X104.643 Y146.634 E2.32561
G1 F1800
G1 X104.106 Y146.569 E2.37541
G1 X102.842 Y146.337 F7800.000
G1 F1800
G1 X101.624 Y146.028 E2.41098
G1 X101.738 Y145.668 F7800.000
G1 F1800
G1 X101.988 Y146.361 E2.42472
G1 X101.217 Y145.807 F7800.000
G1 F1800
G1 X100.731 Y146.293 E2.49972
G1 X100.378 Y145.585 F7800.000
G1 F1800
G1 X100.946 Y145.017 E2.58734
G1 E0.58734 F2400.00000
G92 E0
G1 X99.839 Y142.924 F7800.000
G1 E2.00000 F2400.00000
G1 F1800
G1 X99.733 Y142.785 E2.00071
G1 X99.712 Y142.712 E2.00102
G1 E0.00102 F2400.00000
G92 E0
G1 X122.036 Y147.252 F7800.000
G1 E2.00000 F2400.00000
G1 F1800
G1 X122.036 Y141.200 E2.55031
G1 X122.763 Y141.200 E2.61647
G1 X122.749 Y146.994 E3.14338
G1 X122.702 Y147.275 E3.16924
G1 X122.111 Y147.254 E3.22304
G1 X121.411 Y147.855 F7800.000
G1 F1800
G1 X121.411 Y140.575 E3.88507
G1 X123.389 Y140.575 E4.06498
G1 X123.374 Y147.047 E4.65351
G1 X123.276 Y147.630 E4.70730
G1 X123.196 Y147.753 E4.72060
G1 X123.161 Y147.760 E4.72383
G1 X122.982 Y147.910 E4.74500
G1 X121.486 Y147.858 E4.88114
G1 X121.653 Y147.418 F7800.000
G1 X122.393 Y146.951 F7800.000
G1 F1800
G1 X122.399 Y141.512 E4.90247
G1 Z0.350 F7800.000
G1 E2.90247 F2400.00000
G92 E0
G1 X120.339 Y75.003 F7800.000
G1 E2.00000 F2400.00000
G1 F1800
G1 X120.081 Y75.088 E2.02471
G1 X119.604 Y74.505 E2.09315
G1 X119.191 Y74.080 E2.14709
G1 X118.555 Y73.532 E2.22341
G1 X118.076 Y73.185 E2.27721
G1 X117.584 Y72.880 E2.32984
G1 X117.060 Y72.603 E2.38371
G1 X116.286 Y72.277 E2.46011
G1 X115.711 Y72.090 E2.51511
G1 X114.891 Y71.901 E2.59164
G1 X114.305 Y71.820 E2.64535
G1 X113.716 Y71.779 E2.69909
G1 X112.875 Y71.793 E2.77556
G1 X112.286 Y71.855 E2.82940
G1 X111.716 Y71.955 E2.88206
G1 X111.155 Y72.094 E2.93462
G1 X110.595 Y72.276 E2.98815
G1 X109.880 Y72.573 E3.05852
G1 X109.351 Y72.847 E3.11274
G1 X108.749 Y73.221 E3.17712
G1 X108.272 Y73.571 E3.23096
G1 X107.731 Y74.039 E3.29604
G1 X107.229 Y74.553 E3.36128
G1 X106.851 Y75.010 E3.41521
G1 X106.442 Y75.587 E3.47953
G1 X106.140 Y76.096 E3.53343
G1 X105.828 Y76.726 E3.59729
G1 X105.538 Y76.658 E3.62432
G1 X105.538 Y71.375 E4.10470
G1 X120.339 Y71.375 E5.45054
G1 X120.339 Y74.928 E5.77363
G1 E3.77363 F2400.00000
G92 E0
G1 X120.964 Y77.400 F7800.000
G1 E2.00000 F2400.00000
G1 F1800
G1 X120.624 Y77.400 E2.03095
G1 X120.450 Y76.919 E2.07745
G1 X120.124 Y76.279 E2.14280
G1 X119.803 Y75.766 E2.19784
G1 X119.486 Y75.333 E2.24660
G1 X119.141 Y74.925 E2.29520
G1 X118.762 Y74.535 E2.34465
G1 X118.167 Y74.023 E2.41604
G1 X117.728 Y73.704 E2.46540
G1 X117.273 Y73.422 E2.51406
G1 X116.792 Y73.168 E2.56350
G1 X116.068 Y72.863 E2.63495
G1 X115.544 Y72.693 E2.68504
G1 X114.777 Y72.517 E2.75657
G1 X114.240 Y72.442 E2.80587
G1 X113.699 Y72.404 E2.85521
G1 X112.913 Y72.417 E2.92668
G1 X112.373 Y72.474 E2.97606
G1 X111.845 Y72.567 E3.02482
G1 X111.326 Y72.695 E3.07341
G1 X110.812 Y72.862 E3.12261
G1 X110.145 Y73.140 E3.18831
G1 X109.660 Y73.391 E3.23795
G1 X109.100 Y73.739 E3.29792
G1 X108.662 Y74.060 E3.34730
G1 X108.159 Y74.495 E3.40770
G1 X107.694 Y74.971 E3.46821
G1 X107.348 Y75.390 E3.51767
G1 X106.967 Y75.928 E3.57758
G1 X106.689 Y76.395 E3.62704
G1 X106.396 Y76.986 E3.68698
G1 X106.194 Y77.491 E3.73646
G1 X105.964 Y78.227 E3.80653
G1 X105.964 Y127.400 E8.27789
G1 X104.913 Y127.400 E8.37342
G1 X104.914 Y70.750 E13.52460
G1 X120.964 Y70.750 E14.98408
G1 X120.964 Y77.325 E15.58196
G1 X121.589 Y78.025 F7800.000
G1 F1800
G1 X120.185 Y78.025 E15.70964
G1 X119.876 Y77.168 E15.79251
G1 X119.580 Y76.587 E15.85181
G1 X119.286 Y76.117 E15.90223
G1 X118.995 Y75.720 E15.94692
G1 X118.678 Y75.345 E15.99162
G1 X118.333 Y74.990 E16.03658
G1 X117.779 Y74.513 E16.10304
G1 X117.379 Y74.223 E16.14797
G1 X116.961 Y73.965 E16.19266
G1 X116.524 Y73.733 E16.23766
G1 X115.850 Y73.449 E16.30416
G1 X115.377 Y73.296 E16.34935
G1 X114.664 Y73.132 E16.41588
G1 X114.175 Y73.064 E16.46076
G1 X113.682 Y73.029 E16.50571
G1 X112.951 Y73.042 E16.57218
G1 X112.460 Y73.093 E16.61710
G1 X111.974 Y73.179 E16.66196
G1 X111.498 Y73.296 E16.70658
G1 X111.028 Y73.449 E16.75145
G1 X110.409 Y73.707 E16.81248
G1 X109.969 Y73.935 E16.85754
G1 X109.450 Y74.257 E16.91310
G1 X109.052 Y74.549 E16.95801
G1 X108.588 Y74.950 E17.01375
G1 X108.160 Y75.389 E17.06951
G1 X107.844 Y75.770 E17.11451
G1 X107.491 Y76.268 E17.17001
G1 X107.238 Y76.694 E17.21503
G1 X106.967 Y77.241 E17.27056
G1 X106.783 Y77.701 E17.31558
G1 X106.589 Y78.322 E17.37475
G1 X106.589 Y128.025 E21.89426
G1 X104.289 Y128.025 E22.10343
G1 X104.289 Y70.125 E27.36826
G1 X121.589 Y70.125 E28.94137
G1 X121.589 Y77.950 E29.65290
G1 X121.094 Y77.954 F7800.000
G1 X120.629 Y76.490 F7800.000
G1 F1800
G1 X120.325 Y75.337 E29.68777
G1 X119.969 Y75.453 F7800.000
G1 F1800
G1 X120.652 Y75.686 E29.70677
G1 E27.70677 F2400.00000
G92 E0
G1 X119.471 Y73.965 F7800.000
G1 E2.00000 F2400.00000
G1 F1800
G1 X119.957 Y73.478 E2.07501
G1 X119.957 Y72.418 E2.19073
G1 X118.910 Y73.465 E2.35236
G1 X118.700 Y73.285 E2.38262
G1 X118.312 Y73.003 E2.43492
G1 X119.558 Y71.757 E2.62725
G1 X118.498 Y71.757 E2.74296
G1 X117.912 Y72.342 E2.83328
G1 X117.930 Y72.243 E2.84428
G1 X118.011 Y72.243 E2.85315
G1 X117.532 Y72.035 F7800.000
G1 F1800
G1 X116.284 Y71.814 E2.89609
G1 F1800
G1 X115.968 Y71.764 E2.90439
G1 F1800
G1 X115.806 Y71.739 E2.90626
G1 F1800
G1 X115.683 Y71.725 E2.90675
G1 E0.90675 F2400.00000
G92 E0
G1 X111.194 Y71.724 F7800.000
G1 E2.00000 F2400.00000
G1 F1800
G1 X110.899 Y71.766 E2.00140
G1 F1800
G1 X110.593 Y71.814 E2.00727
G1 F1800
G1 X109.350 Y72.034 E2.04896
G1 X108.548 Y72.703 F7800.000
G1 F1800
G1 X109.034 Y72.216 E2.12180
G1 X108.952 Y71.757 E2.17120
G1 X108.465 Y71.757 E2.22282
G1 X105.920 Y74.301 E2.60380
G1 X105.920 Y73.272 E2.71276
G1 X107.435 Y71.757 E2.93965
G1 X106.406 Y71.757 E3.04861
G1 X105.920 Y72.243 E3.12139
G1 E1.12139 F2400.00000
G92 E0
G1 X106.074 Y75.519 F7800.000
G1 E2.00000 F2400.00000
G1 F1800
G1 X105.912 Y75.750 E2.00190
G1 X105.882 Y75.858 E2.00265
G1 X106.005 Y77.088 F7800.000
G1 F1800
G1 X105.591 Y77.315 E2.03773
G1 F1800
G1 X105.563 Y77.331 E2.04057
G1 X105.515 Y77.644 E2.06819
G1 F1800
G1 X105.468 Y77.957 E2.09142
G1 F1800
G1 X105.439 Y78.179 E2.10469
G1 F1800
G1 X105.439 Y127.088 E4.60024
G1 E2.60024 F2400.00000
G92 E0
G1 X97.964 Y70.750 F7800.000
G1 E2.00000 F2400.00000
G1 F1800
G1 X97.967 Y127.383 E7.14956
G1 X96.914 Y127.383 E7.24530
G1 X96.914 Y70.750 E12.39486
G1 X97.889 Y70.750 E12.48354
G1 X98.589 Y70.125 F7800.000
G1 F1800
G1 X98.592 Y128.007 E17.74674
G1 X96.289 Y128.007 E17.95612
G1 X96.289 Y70.125 E23.21932
G1 X98.514 Y70.125 E23.42164
G1 X98.582 Y70.625 F7800.000
G1 X97.439 Y71.063 F7800.000
G1 F1800
G1 X97.440 Y127.070 E26.29724
G1 Z0.650 F7800.000
G1 E24.29724 F2400.00000
G92 E0
G1 X121.895 Y148.236 F7800.000
G1 E2.00000 F2400.00000
G1 F900
G1 X121.894 Y147.574 E2.05248
G1 X121.859 Y147.106 E2.08973
G1 X121.873 Y141.060 E2.56901
G1 X123.193 Y141.060 E2.67372
G1 X123.182 Y146.634 E3.11558
G1 X123.154 Y146.654 E3.11825
G1 X123.127 Y147.829 E3.21150
G1 X122.974 Y148.242 E3.24637
G1 X121.970 Y148.237 E3.32592
G1 E1.32592 F2400.00000
G92 E0
G1 X121.313 Y140.500 F7800.000
G1 E2.00000 F2400.00000
G1 F1800
G1 X123.755 Y140.500 E2.14793
G1 X123.742 Y146.923 E2.53700
G1 X123.708 Y146.947 E2.53949
G1 X123.685 Y147.937 E2.59944
G1 X123.555 Y148.287 E2.62206

G1 F3600
G1 X123.459 Y148.543 E2.64439
G1 X123.204 Y148.769 E2.67224
G1 X123.054 Y148.803 E2.68479
G1 X121.335 Y148.794 E2.82506
G1 X121.335 Y148.455 E2.85279

G1 F1800
G1 X121.333 Y147.596 E2.90481
G1 X121.298 Y147.126 E2.93334
G1 X121.313 Y140.575 E3.33015
G1 X121.746 Y140.749 F7800.000
G1 X122.532 Y141.378 F7800.000
G1 F1200
G1 X122.522 Y146.360 E3.70145
G1 X122.502 Y147.083 E3.75532
G1 F1200
G1 X122.510 Y147.922 E3.81173
G1 E1.81173 F2400.00000
G92 E0
G1 X114.613 Y141.696 F7800.000
G1 E2.00000 F2400.00000
G1 F3600
G1 X114.604 Y147.588 E2.46709
G1 X109.577 Y147.607 E2.86566
G1 X99.617 Y147.607 E3.65527
G1 X99.569 Y147.280 E3.68147
G1 X99.579 Y143.279 E3.99869
G1 X99.840 Y143.192 E4.02043
G1 X100.189 Y143.656 E4.06644
G1 X100.564 Y144.087 E4.11176
G1 X101.020 Y144.541 E4.16282
G1 X101.506 Y144.953 E4.21327
G1 X102.080 Y145.364 E4.26929
G1 X102.685 Y145.722 E4.32497
G1 X103.200 Y145.976 E4.37056
G1 X103.728 Y146.191 E4.41569
G1 X104.273 Y146.371 E4.46119
G1 X104.951 Y146.537 E4.51654
G1 X105.517 Y146.630 E4.56202
G1 X106.082 Y146.683 E4.60702
G1 X106.658 Y146.697 E4.65270
G1 X107.355 Y146.659 E4.70805
G1 X107.935 Y146.581 E4.75445
G1 X108.678 Y146.418 E4.81476
G1 X109.237 Y146.248 E4.86108
G1 X109.890 Y145.990 E4.91669
G1 X110.522 Y145.677 E4.97267
G1 X111.028 Y145.374 E5.01937
G1 X111.702 Y144.885 E5.08538
G1 X112.233 Y144.417 E5.14150
G1 X112.643 Y143.995 E5.18812
G1 X113.124 Y143.412 E5.24811
G1 X113.419 Y142.988 E5.28898
G1 X113.723 Y142.487 E5.33545
G1 X114.106 Y141.696 E5.40516
G1 X114.538 Y141.696 E5.43939
G1 X115.248 Y141.060 F7800.000
G1 F3600
G1 X115.253 Y147.172 E5.92388
G1 X115.222 Y148.221 E6.00711
G1 X109.578 Y148.243 E6.45451
G1 X99.160 Y148.243 E7.28047
G1 X99.037 Y148.000 E7.30200
G1 X98.934 Y147.301 E7.35801
G1 X98.949 Y141.010 E7.85677
G1 X99.269 Y141.123 E7.88363
G1 X99.469 Y141.267 E7.90317
G1 X99.571 Y141.402 E7.91661
G1 X99.829 Y141.942 E7.96403
G1 X100.082 Y142.398 E8.00536
G1 X100.368 Y142.838 E8.04698
G1 X100.683 Y143.256 E8.08846
G1 X101.028 Y143.653 E8.13017
G1 X101.451 Y144.073 E8.17741
G1 X101.897 Y144.451 E8.22378
G1 X102.428 Y144.831 E8.27556
G1 X102.988 Y145.163 E8.32713
G1 X103.461 Y145.396 E8.36899
G1 X103.947 Y145.594 E8.41059
G1 X104.448 Y145.759 E8.45241
G1 X105.078 Y145.914 E8.50381
G1 X105.598 Y145.999 E8.54561
G1 X106.120 Y146.048 E8.58713
G1 X106.648 Y146.061 E8.62904
G1 X107.295 Y146.025 E8.68044
G1 X107.825 Y145.954 E8.72279
G1 X108.518 Y145.803 E8.77899
G1 X109.028 Y145.647 E8.82127
