; generated by Slic3r 1.3.0 on 2020-09-13 at 19:02:23

; external perimeters extrusion width = 0.55mm (18.65mm^3/s)
; perimeters extrusion width = 0.70mm (30.51mm^3/s)
; infill extrusion width = 0.62mm (30.27mm^3/s)
; solid infill extrusion width = 0.70mm (27.46mm^3/s)
; top infill extrusion width = 0.70mm (21.97mm^3/s)

M107
M104 S200 ; set temperature
G28 ; home all axes
G1 Z5 F5000 ; lift nozzle

; Filament gcode

M109 S200 ; set temperature and wait for it to be reached
G21 ; set units to millimeters
G90 ; use absolute coordinates
M82 ; use absolute distances for extrusion
G92 E0
G1 Z0.350 F10800.000
G1 E-2.00000 F2400.00000
G92 E0
G1 X6.820 Y80.981 F10800.000
G1 E2.00000 F2400.00000
G1 F1800
G1 X8.000 Y80.875 E2.10771
G1 X212.000 Y80.875 E20.65734
G1 X214.259 Y81.272 E20.86589
G1 X216.247 Y82.415 E21.07443
G1 X217.726 Y84.168 E21.28297
G1 X218.519 Y86.320 E21.49151
G1 X218.625 Y87.500 E21.59922
G1 X218.625 Y132.500 E25.69105
G1 X218.228 Y134.759 E25.89959
G1 X217.085 Y136.747 E26.10814
G1 X215.332 Y138.226 E26.31668
G1 X213.180 Y139.019 E26.52522
G1 X212.000 Y139.125 E26.63293
G1 X8.000 Y139.125 E45.18256
G1 X5.741 Y138.728 E45.39111
G1 X3.753 Y137.585 E45.59965
G1 X2.274 Y135.832 E45.80819
G1 X1.481 Y133.680 E46.01673
G1 X1.375 Y132.500 E46.12444
G1 X1.375 Y87.500 E50.21627
G1 X1.772 Y85.241 E50.42482
G1 X2.915 Y83.253 E50.63336
G1 X4.668 Y81.774 E50.84190
G1 X6.750 Y81.007 E51.04362
G1 E49.04362 F2400.00000
G92 E0
G1 X202.469 Y126.238 F10800.000
G1 E2.00000 F2400.00000
G1 F1800
G1 X202.391 Y125.500 E2.06743
G1 X202.470 Y124.750 E2.13602
G1 X202.703 Y124.032 E2.20463
G1 X203.081 Y123.379 E2.27323
G1 X203.585 Y122.818 E2.34181
G1 X204.196 Y122.375 E2.41043
G1 X204.885 Y122.068 E2.47903
G1 X205.623 Y121.911 E2.54761
G1 X206.377 Y121.911 E2.61620
G1 X207.115 Y122.068 E2.68479
G1 X207.804 Y122.375 E2.75339
G1 X208.415 Y122.818 E2.82201
G1 X208.919 Y123.379 E2.89060
G1 X209.298 Y124.035 E2.95952
G1 X209.531 Y124.762 E3.02894
G1 X209.609 Y125.500 E3.09638
G1 X209.530 Y126.250 E3.16497
G1 X209.297 Y126.968 E3.23358
G1 X208.919 Y127.621 E3.30217
G1 X208.415 Y128.182 E3.37077
G1 X207.804 Y128.625 E3.43937
G1 X207.115 Y128.932 E3.50796
G1 X206.377 Y129.089 E3.57657
G1 X205.623 Y129.089 E3.64515
G1 X204.885 Y128.932 E3.71375
G1 X204.196 Y128.625 E3.78234
G1 X203.585 Y128.182 E3.85094
G1 X203.081 Y127.621 E3.91953
G1 X202.702 Y126.965 E3.98846
G1 X202.492 Y126.309 E4.05106
G1 X203.084 Y126.108 F10800.000
G1 F1800
G1 X203.020 Y125.500 E4.10668
G1 X203.085 Y124.880 E4.16333
G1 X203.277 Y124.288 E4.21999
G1 X203.589 Y123.748 E4.27665
G1 X204.006 Y123.285 E4.33329
G1 X204.510 Y122.919 E4.38996
G1 X205.079 Y122.666 E4.44661
G1 X205.688 Y122.536 E4.50325
G1 X206.311 Y122.536 E4.55990
G1 X206.921 Y122.666 E4.61655
G1 X207.490 Y122.919 E4.67320
G1 X207.994 Y123.285 E4.72987
G1 X208.411 Y123.748 E4.78651
G1 X208.724 Y124.290 E4.84337
G1 X208.916 Y124.892 E4.90084
G1 X208.980 Y125.500 E4.95646
G1 X208.915 Y126.120 E5.01311
G1 X208.723 Y126.712 E5.06977
G1 X208.411 Y127.252 E5.12642
G1 X207.994 Y127.715 E5.18307
G1 X207.490 Y128.081 E5.23973
G1 X206.921 Y128.334 E5.29638
G1 X206.311 Y128.464 E5.35304
G1 X205.688 Y128.464 E5.40969
G1 X205.079 Y128.334 E5.46633
G1 X204.510 Y128.081 E5.52299
G1 X204.006 Y127.715 E5.57964
G1 X203.589 Y127.252 E5.63629
G1 X203.276 Y126.710 E5.69314
G1 X203.107 Y126.180 E5.74380
G1 X203.698 Y125.979 F10800.000
G1 F1800
G1 X203.648 Y125.500 E5.78760
G1 X203.699 Y125.011 E5.83231
G1 X203.851 Y124.543 E5.87702
G1 X204.097 Y124.118 E5.92173
G1 X204.426 Y123.752 E5.96644
G1 X204.824 Y123.463 E6.01115
G1 X205.273 Y123.263 E6.05586
G1 X205.754 Y123.161 E6.10056
G1 X206.246 Y123.161 E6.14527
G1 X206.727 Y123.263 E6.18998
G1 X207.176 Y123.463 E6.23469
G1 X207.574 Y123.752 E6.27940
G1 X207.903 Y124.118 E6.32411
G1 X208.149 Y124.544 E6.36889
G1 X208.302 Y125.021 E6.41442
G1 X208.352 Y125.500 E6.45822
G1 X208.301 Y125.989 E6.50292
G1 X208.149 Y126.457 E6.54764
G1 X207.903 Y126.882 E6.59235
G1 X207.574 Y127.248 E6.63705
G1 X207.176 Y127.537 E6.68176
G1 X206.727 Y127.737 E6.72647
G1 X206.246 Y127.839 E6.77119
G1 X205.754 Y127.839 E6.81589
G1 X205.273 Y127.737 E6.86059
G1 X204.824 Y127.537 E6.90530
G1 X204.426 Y127.248 E6.95001
G1 X204.097 Y126.882 E6.99472
G1 X203.851 Y126.456 E7.03950
G1 X203.721 Y126.051 E7.07821
G1 X203.698 Y125.979 F10800.000
G1 E5.07821 F2400.00000
G92 E0
G1 X192.749 Y112.553 F10800.000
G1 E2.00000 F2400.00000
G1 F1800
G1 X192.054 Y113.058 E2.07811
G1 X191.269 Y113.407 E2.15621
G1 X190.430 Y113.586 E2.23430
G1 X189.570 Y113.586 E2.31241
G1 X188.730 Y113.407 E2.39050
G1 X187.946 Y113.058 E2.46860
G1 X187.251 Y112.553 E2.54671
G1 X186.676 Y111.915 E2.62481
G1 X186.245 Y111.168 E2.70324
G1 X185.980 Y110.339 E2.78237
G1 X185.891 Y109.500 E2.85910
G1 X185.981 Y108.646 E2.93720
G1 X186.247 Y107.829 E3.01532
G1 X186.676 Y107.085 E3.09342
G1 X187.251 Y106.447 E3.17151
G1 X187.946 Y105.942 E3.24961
G1 X188.730 Y105.592 E3.32772
G1 X189.571 Y105.414 E3.40582
G1 X190.429 Y105.414 E3.48391
G1 X191.270 Y105.592 E3.56201
G1 X192.054 Y105.942 E3.64012
G1 X192.749 Y106.447 E3.71823
G1 X193.324 Y107.085 E3.79631
G1 X193.755 Y107.832 E3.87474
G1 X194.020 Y108.661 E3.95388
G1 X194.109 Y109.500 E4.03061
G1 X194.019 Y110.354 E4.10871
G1 X193.753 Y111.171 E4.18682
G1 X193.324 Y111.915 E4.26493
G1 X192.799 Y112.498 E4.33620
G1 X192.329 Y112.086 F10800.000
G1 F1800
G1 X191.740 Y112.514 E4.40236
G1 X191.075 Y112.810 E4.46852
G1 X190.364 Y112.961 E4.53467
G1 X189.636 Y112.961 E4.60083
G1 X188.925 Y112.810 E4.66698
G1 X188.260 Y112.514 E4.73314
G1 X187.671 Y112.086 E4.79930
G1 X187.184 Y111.546 E4.86545
G1 X186.820 Y110.914 E4.93182
G1 X186.594 Y110.210 E4.99900
G1 X186.520 Y109.500 E5.06391
G1 X186.596 Y108.776 E5.13007
G1 X186.821 Y108.084 E5.19624
G1 X187.184 Y107.454 E5.26239
G1 X187.671 Y106.914 E5.32854
G1 X188.260 Y106.486 E5.39470
G1 X188.925 Y106.190 E5.46086
G1 X189.636 Y106.039 E5.52702
G1 X190.364 Y106.039 E5.59317
G1 X191.075 Y106.190 E5.65933
G1 X191.740 Y106.486 E5.72549
G1 X192.329 Y106.914 E5.79165
G1 X192.815 Y107.454 E5.85780
G1 X193.180 Y108.086 E5.92416
G1 X193.406 Y108.790 E5.99134
G1 X193.480 Y109.500 E6.05626
G1 X193.404 Y110.224 E6.12241
G1 X193.179 Y110.916 E6.18857
G1 X192.816 Y111.546 E6.25474
G1 X192.379 Y112.031 E6.31407
G1 X191.908 Y111.619 F10800.000
G1 F1800
G1 X191.426 Y111.970 E6.36829
G1 X190.881 Y112.212 E6.42250
G1 X190.298 Y112.336 E6.47671
G1 X189.702 Y112.336 E6.53092
G1 X189.119 Y112.212 E6.58513
G1 X188.574 Y111.970 E6.63935
G1 X188.092 Y111.619 E6.69356
G1 X187.693 Y111.176 E6.74777
G1 X187.394 Y110.659 E6.80207
G1 X187.209 Y110.081 E6.85730
G1 X187.148 Y109.500 E6.91040
G1 X187.210 Y108.907 E6.96461
G1 X187.395 Y108.340 E7.01883
G1 X187.693 Y107.824 E7.07304
G1 X188.092 Y107.381 E7.12725
G1 X188.574 Y107.030 E7.18146
G1 X189.119 Y106.788 E7.23568
G1 X189.702 Y106.664 E7.28989
G1 X190.298 Y106.664 E7.34410
G1 X190.881 Y106.788 E7.39831
G1 X191.426 Y107.030 E7.45253
G1 X191.908 Y107.381 E7.50674
G1 X192.307 Y107.824 E7.56096
G1 X192.606 Y108.341 E7.61524
G1 X192.791 Y108.919 E7.67048
G1 X192.852 Y109.500 E7.72358
G1 X192.790 Y110.093 E7.77779
G1 X192.605 Y110.660 E7.83200
G1 X192.307 Y111.176 E7.88623
G1 X191.958 Y111.564 E7.93362
G1 X191.908 Y111.619 F10800.000
G1 E5.93362 F2400.00000
G92 E0
G1 X176.415 Y96.182 F10800.000
G1 E2.00000 F2400.00000
G1 F1800
G1 X175.804 Y96.625 E2.06861
G1 X175.115 Y96.932 E2.13720
G1 X174.377 Y97.089 E2.20579
G1 X173.623 Y97.089 E2.27439
G1 X172.885 Y96.932 E2.34299
G1 X172.196 Y96.625 E2.41158
G1 X171.585 Y96.182 E2.48020
G1 X171.081 Y95.621 E2.54879
G1 X170.702 Y94.965 E2.61771
G1 X170.469 Y94.238 E2.68713
G1 X170.391 Y93.500 E2.75456
G1 X170.470 Y92.750 E2.82316
G1 X170.703 Y92.032 E2.89176
G1 X171.081 Y91.379 E2.96035
G1 X171.585 Y90.818 E3.02894
G1 X172.196 Y90.375 E3.09755
G1 X172.885 Y90.068 E3.16615
G1 X173.623 Y89.911 E3.23475
G1 X174.377 Y89.911 E3.30335
G1 X175.115 Y90.068 E3.37194
G1 X175.804 Y90.375 E3.44053
G1 X176.415 Y90.818 E3.50914
G1 X176.919 Y91.379 E3.57773
G1 X177.298 Y92.035 E3.64665
G1 X177.531 Y92.762 E3.71607
G1 X177.609 Y93.500 E3.78350
G1 X177.530 Y94.250 E3.85210
G1 X177.297 Y94.968 E3.92071
G1 X176.919 Y95.621 E3.98929
G1 X176.465 Y96.126 E4.05107
G1 X175.994 Y95.715 F10800.000
G1 F1800
G1 X175.490 Y96.081 E4.10773
G1 X174.921 Y96.334 E4.16438
G1 X174.312 Y96.464 E4.22102
G1 X173.689 Y96.464 E4.27768
G1 X173.079 Y96.334 E4.33433
G1 X172.510 Y96.081 E4.39099
G1 X172.006 Y95.715 E4.44765
G1 X171.589 Y95.252 E4.50430
G1 X171.276 Y94.710 E4.56115
G1 X171.084 Y94.108 E4.61862
G1 X171.020 Y93.500 E4.67424
G1 X171.085 Y92.880 E4.73089
G1 X171.277 Y92.288 E4.78755
G1 X171.589 Y91.748 E4.84420
G1 X172.006 Y91.285 E4.90084
G1 X172.510 Y90.919 E4.95751
G1 X173.079 Y90.666 E5.01416
G1 X173.689 Y90.536 E5.07082
G1 X174.312 Y90.536 E5.12747
G1 X174.921 Y90.666 E5.18412
G1 X175.490 Y90.919 E5.24077
G1 X175.994 Y91.285 E5.29743
G1 X176.411 Y91.748 E5.35408
G1 X176.724 Y92.290 E5.41092
G1 X176.916 Y92.892 E5.46840
G1 X176.980 Y93.500 E5.52402
G1 X176.915 Y94.120 E5.58067
G1 X176.723 Y94.712 E5.63733
G1 X176.411 Y95.252 E5.69398
G1 X176.044 Y95.659 E5.74380
G1 X175.574 Y95.248 F10800.000
G1 F1800
G1 X175.176 Y95.537 E5.78852
G1 X174.727 Y95.737 E5.83323
G1 X174.246 Y95.839 E5.87793
G1 X173.754 Y95.839 E5.92264
G1 X173.273 Y95.737 E5.96735
G1 X172.824 Y95.537 E6.01206
G1 X172.426 Y95.248 E6.05677
G1 X172.097 Y94.882 E6.10148
G1 X171.851 Y94.456 E6.14626
G1 X171.698 Y93.979 E6.19178
G1 X171.648 Y93.500 E6.23559
G1 X171.699 Y93.011 E6.28030
G1 X171.851 Y92.543 E6.32501
G1 X172.097 Y92.118 E6.36972
G1 X172.426 Y91.752 E6.41442
G1 X172.824 Y91.463 E6.45913
G1 X173.273 Y91.263 E6.50384
G1 X173.754 Y91.161 E6.54856
G1 X174.246 Y91.161 E6.59326
G1 X174.727 Y91.263 E6.63797
G1 X175.176 Y91.463 E6.68268
G1 X175.574 Y91.752 E6.72739
G1 X175.903 Y92.118 E6.77209
G1 X176.149 Y92.544 E6.81687
G1 X176.302 Y93.021 E6.86240
G1 X176.352 Y93.500 E6.90620
G1 X176.301 Y93.989 E6.95091
G1 X176.149 Y94.457 E6.99562
G1 X175.903 Y94.882 E7.04033
G1 X175.624 Y95.192 E7.07821
G1 X175.574 Y95.248 F10800.000
G1 E5.07821 F2400.00000
G92 E0
G1 X167.324 Y101.085 F10800.000
G1 E2.00000 F2400.00000
G1 F1800
G1 X167.755 Y101.832 E2.07843
G1 X168.020 Y102.661 E2.15757
G1 X168.109 Y103.500 E2.23430
G1 X168.019 Y104.354 E2.31239
G1 X167.753 Y105.171 E2.39051
G1 X167.324 Y105.915 E2.46862
G1 X166.749 Y106.553 E2.54670
G1 X166.054 Y107.058 E2.62481
G1 X165.270 Y107.408 E2.70292
G1 X164.429 Y107.586 E2.78101
G1 X163.571 Y107.586 E2.85911
G1 X162.730 Y107.408 E2.93721
G1 X161.946 Y107.058 E3.01532
G1 X161.251 Y106.553 E3.09342
G1 X160.676 Y105.915 E3.17151
G1 X160.245 Y105.168 E3.24994
G1 X159.980 Y104.339 E3.32908
G1 X159.891 Y103.500 E3.40581
G1 X159.981 Y102.646 E3.48390
G1 X160.247 Y101.829 E3.56202
G1 X160.676 Y101.085 E3.64012
G1 X161.251 Y100.447 E3.71821
G1 X161.946 Y99.942 E3.79632
G1 X162.730 Y99.592 E3.87442
G1 X163.571 Y99.414 E3.95252
G1 X164.429 Y99.414 E4.03062
G1 X165.270 Y99.592 E4.10872
G1 X166.054 Y99.942 E4.18683
G1 X166.749 Y100.447 E4.26493
G1 X167.274 Y101.029 E4.33620
G1 X166.815 Y101.454 F10800.000
G1 F1800
G1 X167.180 Y102.086 E4.40256
G1 X167.406 Y102.790 E4.46974
G1 X167.480 Y103.500 E4.53466
G1 X167.404 Y104.224 E4.60081
G1 X167.179 Y104.916 E4.66698
G1 X166.815 Y105.546 E4.73314
G1 X166.329 Y106.086 E4.79929
G1 X165.740 Y106.514 E4.86545
G1 X165.075 Y106.810 E4.93161
G1 X164.364 Y106.961 E4.99777
G1 X163.636 Y106.961 E5.06392
G1 X162.925 Y106.810 E5.13007
G1 X162.260 Y106.514 E5.19624
G1 X161.671 Y106.086 E5.26240
G1 X161.185 Y105.546 E5.32854
G1 X160.820 Y104.914 E5.39490
G1 X160.594 Y104.210 E5.46209
G1 X160.520 Y103.500 E5.52701
G1 X160.596 Y102.776 E5.59316
G1 X160.821 Y102.084 E5.65933
G1 X161.184 Y101.454 E5.72549
G1 X161.671 Y100.914 E5.79164
G1 X162.260 Y100.486 E5.85779
G1 X162.925 Y100.190 E5.92396
G1 X163.636 Y100.039 E5.99011
G1 X164.364 Y100.039 E6.05627
G1 X165.075 Y100.190 E6.12242
G1 X165.740 Y100.486 E6.18858
G1 X166.329 Y100.914 E6.25474
G1 X166.765 Y101.399 E6.31407
G1 X166.307 Y101.824 F10800.000
G1 F1800
G1 X166.606 Y102.341 E6.36836
G1 X166.791 Y102.919 E6.42359
G1 X166.852 Y103.500 E6.47669
G1 X166.790 Y104.093 E6.53090
G1 X166.605 Y104.660 E6.58512
G1 X166.307 Y105.176 E6.63934
G1 X165.908 Y105.619 E6.69355
G1 X165.426 Y105.970 E6.74776
G1 X164.881 Y106.212 E6.80198
G1 X164.298 Y106.336 E6.85619
G1 X163.702 Y106.336 E6.91040
G1 X163.119 Y106.212 E6.96461
G1 X162.574 Y105.970 E7.01883
G1 X162.092 Y105.619 E7.07304
G1 X161.693 Y105.176 E7.12725
G1 X161.394 Y104.659 E7.18154
G1 X161.209 Y104.081 E7.23677
G1 X161.148 Y103.500 E7.28988
G1 X161.210 Y102.907 E7.34409
G1 X161.395 Y102.340 E7.39830
G1 X161.693 Y101.824 E7.45252
G1 X162.092 Y101.381 E7.50673
G1 X162.574 Y101.030 E7.56094
G1 X163.119 Y100.788 E7.61516
G1 X163.702 Y100.664 E7.66937
G1 X164.298 Y100.664 E7.72358
G1 X164.881 Y100.788 E7.77779
G1 X165.426 Y101.030 E7.83201
G1 X165.908 Y101.381 E7.88622
G1 X166.257 Y101.768 E7.93361
G1 X166.307 Y101.824 F10800.000
G1 E5.93361 F2400.00000
G92 E0
G1 X202.469 Y94.238 F10800.000
G1 E2.00000 F2400.00000
G1 F1800
G1 X202.391 Y93.500 E2.06744
G1 X202.470 Y92.750 E2.13603
G1 X202.703 Y92.032 E2.20464
G1 X203.081 Y91.379 E2.27323
G1 X203.585 Y90.818 E2.34182
G1 X204.196 Y90.375 E2.41043
G1 X204.885 Y90.068 E2.47902
G1 X205.623 Y89.911 E2.54761
G1 X206.377 Y89.911 E2.61621
G1 X207.115 Y90.068 E2.68481
G1 X207.804 Y90.375 E2.75340
G1 X208.415 Y90.818 E2.82202
G1 X208.919 Y91.379 E2.89060
G1 X209.298 Y92.035 E2.95952
G1 X209.531 Y92.762 E3.02894
G1 X209.609 Y93.500 E3.09638
G1 X209.530 Y94.250 E3.16497
G1 X209.297 Y94.968 E3.23358
G1 X208.919 Y95.621 E3.30217
G1 X208.415 Y96.182 E3.37076
G1 X207.804 Y96.625 E3.43937
G1 X207.115 Y96.932 E3.50797
G1 X206.377 Y97.089 E3.57657
G1 X205.623 Y97.089 E3.64517
G1 X204.885 Y96.932 E3.71375
G1 X204.196 Y96.625 E3.78235
G1 X203.585 Y96.182 E3.85096
G1 X203.081 Y95.621 E3.91954
G1 X202.702 Y94.965 E3.98846
G1 X202.492 Y94.309 E4.05107
G1 X203.084 Y94.108 F10800.000
G1 F1800
G1 X203.020 Y93.500 E4.10669
G1 X203.085 Y92.880 E4.16334
G1 X203.277 Y92.288 E4.22000
G1 X203.589 Y91.748 E4.27665
G1 X204.006 Y91.285 E4.33329
G1 X204.510 Y90.919 E4.38995
G1 X205.079 Y90.666 E4.44661
G1 X205.688 Y90.536 E4.50325
G1 X206.311 Y90.536 E4.55990
G1 X206.921 Y90.666 E4.61656
G1 X207.490 Y90.919 E4.67321
G1 X207.994 Y91.285 E4.72988
G1 X208.411 Y91.748 E4.78652
G1 X208.724 Y92.290 E4.84337
G1 X208.916 Y92.892 E4.90084
G1 X208.980 Y93.500 E4.95646
G1 X208.915 Y94.120 E5.01312
G1 X208.723 Y94.712 E5.06977
G1 X208.411 Y95.252 E5.12642
G1 X207.994 Y95.715 E5.18307
G1 X207.490 Y96.081 E5.23973
G1 X206.921 Y96.334 E5.29639
G1 X206.311 Y96.464 E5.35304
G1 X205.688 Y96.464 E5.40970
G1 X205.079 Y96.334 E5.46634
G1 X204.510 Y96.081 E5.52299
G1 X204.006 Y95.715 E5.57965
G1 X203.589 Y95.252 E5.63630
G1 X203.276 Y94.710 E5.69315
G1 X203.107 Y94.180 E5.74380
G1 X203.698 Y93.979 F10800.000
G1 F1800
G1 X203.648 Y93.500 E5.78761
G1 X203.699 Y93.011 E5.83232
G1 X203.851 Y92.543 E5.87703
G1 X204.097 Y92.118 E5.92174
G1 X204.426 Y91.752 E5.96644
G1 X204.824 Y91.463 E6.01115
G1 X205.273 Y91.263 E6.05586
G1 X205.754 Y91.161 E6.10057
G1 X206.246 Y91.161 E6.14527
G1 X206.727 Y91.263 E6.18999
G1 X207.176 Y91.463 E6.23470
G1 X207.574 Y91.752 E6.27941
G1 X207.903 Y92.118 E6.32411
G1 X208.149 Y92.544 E6.36889
G1 X208.302 Y93.021 E6.41442
G1 X208.352 Y93.500 E6.45822
G1 X208.301 Y93.989 E6.50293
G1 X208.149 Y94.457 E6.54764
G1 X207.903 Y94.882 E6.59235
G1 X207.574 Y95.248 E6.63705
G1 X207.176 Y95.537 E6.68177
G1 X206.727 Y95.737 E6.72648
G1 X206.246 Y95.839 E6.77119
G1 X205.754 Y95.839 E6.81590
G1 X205.273 Y95.737 E6.86060
G1 X204.824 Y95.537 E6.90531
G1 X204.426 Y95.248 E6.95002
G1 X204.097 Y94.882 E6.99473
G1 X203.851 Y94.456 E7.03951
G1 X203.721 Y94.051 E7.07821
G1 X203.698 Y93.979 F10800.000
G1 E5.07821 F2400.00000
G92 E0
G1 X60.109 Y103.500 F10800.000
G1 E2.00000 F2400.00000
G1 F1800
G1 X60.019 Y104.354 E2.07810
G1 X59.753 Y105.171 E2.15621
G1 X59.324 Y105.915 E2.23432
G1 X58.749 Y106.553 E2.31241
