; generated by Slic3r 1.3.0 on 2020-09-10 at 16:14:07

; external perimeters extrusion width = 0.55mm (4.37mm^3/s)
; perimeters extrusion width = 0.70mm (11.44mm^3/s)
; infill extrusion width = 0.62mm (13.45mm^3/s)
; solid infill extrusion width = 0.70mm (3.81mm^3/s)
; top infill extrusion width = 0.70mm (2.86mm^3/s)

M107
M104 S200 ; set temperature
G28 ; home all axes
G1 Z5 F5000 ; lift nozzle

; Filament gcode

M109 S200 ; set temperature and wait for it to be reached
G21 ; set units to millimeters
G90 ; use absolute coordinates
M82 ; use absolute distances for extrusion
G92 E0
G1 Z0.350 F7800.000
G1 E-2.00000 F2400.00000
G92 E0
G1 X98.842 Y94.276 F7800.000
G1 E2.00000 F2400.00000
G1 F1800
G1 X100.900 Y93.264 E2.20854
G1 X102.750 Y93.000 E2.37848
G1 X117.250 Y93.000 E3.69696
G1 X119.509 Y93.397 E3.90550
G1 X121.497 Y94.540 E4.11404
G1 X122.976 Y96.293 E4.32258
G1 X123.679 Y98.025 E4.49252
G1 X126.210 Y108.196 E5.44557
G1 X126.370 Y109.103 E5.52936
G1 X126.589 Y111.183 E5.71946
G1 X126.589 Y112.567 E5.84539
G1 X126.370 Y114.647 E6.03554
G1 X126.210 Y115.554 E6.11929
G1 X123.679 Y125.725 E7.07234
G1 X122.748 Y127.821 E7.28088
G1 X121.158 Y129.474 E7.48942
G1 X119.100 Y130.486 E7.69796
G1 X117.250 Y130.750 E7.86790
G1 X102.750 Y130.750 E9.18638
G1 X100.491 Y130.353 E9.39492
G1 X98.503 Y129.210 E9.60346
G1 X97.024 Y127.457 E9.81200
G1 X96.321 Y125.725 E9.98194
G1 X93.790 Y115.554 E10.93499
G1 X93.630 Y114.647 E11.01879
G1 X93.411 Y112.567 E11.20891
G1 X93.411 Y111.183 E11.33481
G1 X93.630 Y109.103 E11.52496
G1 X93.790 Y108.196 E11.60871
G1 X96.321 Y98.025 E12.56176
G1 X97.252 Y95.929 E12.77030
G1 X98.790 Y94.330 E12.97202
G1 E10.97202 F2400.00000
G92 E0
G1 X115.650 Y122.525 F7800.000
G1 E2.00000 F2400.00000
G1 F1800
G1 X104.350 Y122.525 E3.02754
G1 X104.350 Y118.072 E3.43249
G1 X103.211 Y116.807 E3.58721
G1 X102.334 Y115.288 E3.74673
G1 X101.792 Y113.620 E3.90624
G1 X101.609 Y111.875 E4.06576
G1 X101.792 Y110.130 E4.22528
G1 X102.334 Y108.462 E4.38479
G1 X103.211 Y106.943 E4.54431
G1 X104.350 Y105.678 E4.69903
G1 X104.350 Y101.225 E5.10397
G1 X115.650 Y101.225 E6.13152
G1 X115.650 Y105.678 E6.53646
G1 X116.789 Y106.943 E6.69118
G1 X117.666 Y108.462 E6.85070
G1 X118.208 Y110.130 E7.01021
G1 X118.391 Y111.875 E7.16973
G1 X118.208 Y113.620 E7.32925
G1 X117.666 Y115.288 E7.48876
G1 X116.789 Y116.807 E7.64828
G1 X115.650 Y118.072 E7.80300
G1 X115.650 Y122.450 E8.20113
G1 X116.275 Y123.150 F7800.000
G1 F1800
G1 X103.725 Y123.150 E9.34231
G1 X103.725 Y118.312 E9.78226
G1 X102.703 Y117.177 E9.92115
G1 X101.760 Y115.544 E10.09261
G1 X101.177 Y113.750 E10.26407
G1 X100.980 Y111.875 E10.43553
G1 X101.177 Y110.000 E10.60699
G1 X101.760 Y108.206 E10.77845
G1 X102.703 Y106.573 E10.94991
G1 X103.725 Y105.438 E11.08879
G1 X103.725 Y100.600 E11.52874
G1 X116.275 Y100.600 E12.66993
G1 X116.275 Y105.438 E13.10988
G1 X117.297 Y106.573 E13.24877
G1 X118.240 Y108.206 E13.42023
G1 X118.823 Y110.000 E13.59169
G1 X119.020 Y111.875 E13.76315
G1 X118.823 Y113.750 E13.93461
G1 X118.240 Y115.544 E14.10607
G1 X117.297 Y117.177 E14.27753
G1 X116.275 Y118.312 E14.41641
G1 X116.275 Y123.075 E14.84954
G1 X116.900 Y123.775 F7800.000
G1 F1800
G1 X103.100 Y123.775 E16.10437
G1 X103.100 Y118.552 E16.57933
G1 X102.195 Y117.546 E16.70238
G1 X101.186 Y115.799 E16.88578
G1 X100.563 Y113.881 E17.06919
G1 X100.352 Y111.875 E17.25259
G1 X100.563 Y109.869 E17.43600
G1 X101.186 Y107.951 E17.61940
G1 X102.195 Y106.204 E17.80281
G1 X103.100 Y105.198 E17.92585
G1 X103.100 Y99.975 E18.40081
G1 X116.900 Y99.975 E19.65564
G1 X116.900 Y105.198 E20.13060
G1 X117.805 Y106.204 E20.25365
G1 X118.814 Y107.951 E20.43705
G1 X119.437 Y109.869 E20.62045
G1 X119.648 Y111.875 E20.80386
G1 X119.437 Y113.881 E20.98726
G1 X118.814 Y115.799 E21.17067
G1 X117.805 Y117.546 E21.35407
G1 X116.900 Y118.552 E21.47712
G1 X116.900 Y123.700 E21.94526
G1 X116.480 Y123.504 F7800.000
G1 E19.94526 F2400.00000
G92 E0
G1 X114.782 Y122.143 F7800.000
G1 E2.00000 F2400.00000
G1 F1800
G1 X115.268 Y121.657 E2.06263
G1 X115.268 Y120.772 E2.14328
G1 X113.897 Y122.143 E2.31997
G1 X113.012 Y122.143 E2.40062
G1 X115.268 Y119.887 E2.69136
G1 X115.268 Y119.001 E2.77201
G1 X112.126 Y122.143 E3.17681
G1 X111.241 Y122.143 E3.25745
G1 X115.268 Y118.116 E3.77630
G1 X115.268 Y117.589 E3.82430
G1 X116.524 Y116.195 E3.99517
G1 X116.823 Y115.675 E4.04982
G1 X110.356 Y122.143 E4.88306
G1 X109.470 Y122.143 E4.96370
G1 X117.581 Y114.033 E6.00857
G1 X117.836 Y113.246 E6.08393
G1 X117.878 Y112.850 E6.12018
G1 X108.585 Y122.143 E7.31739
G1 X107.700 Y122.143 E7.39804
G1 X117.982 Y111.861 E8.72270
G1 X118.006 Y111.632 E8.74367
G1 X117.941 Y111.016 E8.80007
G1 X106.814 Y122.143 E10.23354
G1 X105.929 Y122.143 E10.31419
G1 X117.857 Y110.215 E11.85087
G1 X117.836 Y110.018 E11.86893
G1 X117.673 Y109.514 E11.91718
G1 X105.044 Y122.143 E13.54416
G1 X104.732 Y122.143 E13.57258
G1 X104.732 Y121.570 E13.62481
G1 X117.456 Y108.846 E15.26401
G1 X117.335 Y108.474 E15.29960
G1 X117.191 Y108.225 E15.32581
G1 X104.732 Y120.685 E16.93092
G1 X104.732 Y119.799 E17.01157
G1 X116.867 Y107.664 E18.57494
G1 X116.543 Y107.103 E18.63398
G1 X104.732 Y118.914 E20.15559
G1 X104.732 Y118.075 E20.23202
G1 X104.710 Y118.051 E20.23501
G1 X116.129 Y106.631 E21.70616
G1 X115.710 Y106.165 E21.76326
G1 X104.290 Y117.585 E23.23441
G1 X103.871 Y117.119 E23.29151
G1 X115.290 Y105.699 E24.76266
G1 X115.268 Y105.675 E24.76565
G1 X115.268 Y104.836 E24.84208
G1 X103.457 Y116.647 E26.36370
G1 X103.133 Y116.086 E26.42273
G1 X115.268 Y103.951 E27.98610
G1 X115.268 Y103.065 E28.06675
G1 X102.809 Y115.525 E29.67186
G1 X102.665 Y115.276 E29.69807
G1 X102.544 Y114.904 E29.73366
G1 X115.268 Y102.180 E31.37286
G1 X115.268 Y101.607 E31.42509
G1 X114.956 Y101.607 E31.45351
G1 X102.327 Y114.236 E33.08049
G1 X102.164 Y113.732 E33.12874
G1 X102.143 Y113.535 E33.14680
G1 X114.071 Y101.607 E34.68348
G1 X113.186 Y101.607 E34.76413
G1 X102.059 Y112.734 E36.19761
G1 X101.994 Y112.118 E36.25401
G1 X102.018 Y111.889 E36.27498
G1 X112.300 Y101.607 E37.59964
G1 X111.415 Y101.607 E37.68029
G1 X102.122 Y110.900 E38.87750
G1 X102.164 Y110.504 E38.91376
G1 X102.419 Y109.717 E38.98911
G1 X110.530 Y101.607 E40.03398
G1 X109.644 Y101.607 E40.11463
G1 X103.177 Y108.075 E40.94787
G1 X103.476 Y107.555 E41.00252
G1 X104.732 Y106.161 E41.17340
G1 X104.732 Y105.634 E41.22139
G1 X108.759 Y101.607 E41.74024
G1 X107.874 Y101.607 E41.82089
G1 X104.732 Y104.749 E42.22569
G1 X104.732 Y103.863 E42.30634
G1 X106.988 Y101.607 E42.59708
G1 X106.103 Y101.607 E42.67773
G1 X104.732 Y102.978 E42.85442
G1 X104.732 Y102.093 E42.93506
G1 X105.218 Y101.607 E42.99770
G1 Z0.650 F7800.000
G1 X115.779 Y122.654 F7800.000
G1 F3600
G1 X104.221 Y122.654 E43.91396
G1 X104.221 Y118.121 E44.27329
G1 X103.107 Y116.883 E44.40535
G1 X102.216 Y115.341 E44.54656
G1 X101.666 Y113.647 E44.68778
G1 X101.479 Y111.875 E44.82900
G1 X101.666 Y110.103 E44.97022
G1 X102.216 Y108.409 E45.11144
G1 X103.107 Y106.867 E45.25265
G1 X104.221 Y105.629 E45.38471
G1 X104.221 Y101.096 E45.74404
G1 X115.779 Y101.096 E46.66030
G1 X115.779 Y105.629 E47.01963
G1 X116.893 Y106.867 E47.15169
G1 X117.784 Y108.409 E47.29291
G1 X118.334 Y110.103 E47.43412
G1 X118.521 Y111.875 E47.57534
G1 X118.334 Y113.647 E47.71656
G1 X117.784 Y115.341 E47.85778
G1 X116.893 Y116.883 E47.99900
G1 X115.779 Y118.121 E48.13105
G1 X115.779 Y122.579 E48.48444
G1 X116.414 Y123.289 F7800.000
G1 F3600
G1 X103.586 Y123.289 E49.50148
G1 X103.586 Y118.365 E49.89186
G1 X102.590 Y117.259 E50.00987
G1 X101.632 Y115.601 E50.16168
G1 X101.040 Y113.779 E50.31349
G1 X100.840 Y111.875 E50.46530
G1 X101.040 Y109.971 E50.61711
G1 X101.632 Y108.149 E50.76892
G1 X102.590 Y106.491 E50.92073
G1 X103.586 Y105.385 E51.03874
G1 X103.586 Y100.461 E51.42912
G1 X116.414 Y100.461 E52.44616
G1 X116.414 Y105.385 E52.83653
G1 X117.410 Y106.491 E52.95454
G1 X118.368 Y108.149 E53.10635
G1 X118.960 Y109.971 E53.25817
G1 X119.160 Y111.875 E53.40998
G1 X118.960 Y113.779 E53.56179
G1 X118.368 Y115.601 E53.71360
G1 X117.410 Y117.259 E53.86541
G1 X116.414 Y118.365 E53.98342
G1 X116.414 Y123.214 E54.36785
G1 X116.975 Y123.850 F7800.000
G1 F1800
G1 X103.025 Y123.850 E55.21279
G1 X103.025 Y118.580 E55.53197
G1 X102.134 Y117.590 E55.61266
G1 X101.117 Y115.830 E55.73578
G1 X100.489 Y113.897 E55.85891
G1 X100.277 Y111.875 E55.98203
G1 X100.489 Y109.853 E56.10515
G1 X101.117 Y107.920 E56.22827
G1 X102.134 Y106.160 E56.35140
G1 X103.025 Y105.170 E56.43209
G1 X103.025 Y99.900 E56.75127
G1 X116.975 Y99.900 E57.59621
G1 X116.975 Y105.170 E57.91538
G1 X117.866 Y106.160 E57.99608
G1 X118.883 Y107.920 E58.11920
G1 X119.511 Y109.853 E58.24232
G1 X119.723 Y111.875 E58.36544
G1 X119.511 Y113.897 E58.48857
G1 X118.883 Y115.830 E58.61169
G1 X117.866 Y117.590 E58.73481
G1 X116.975 Y118.580 E58.81551
G1 X116.975 Y123.775 E59.13014
G1 X116.554 Y123.580 F7800.000
G1 X104.610 Y121.771 F7800.000
G1 F1200
G1 X105.104 Y122.265 E59.18560
G1 X106.003 Y122.265 E59.25691
G1 X104.610 Y120.872 E59.41322
G1 X104.610 Y119.972 E59.48453
G1 X106.903 Y122.265 E59.74169
G1 X107.802 Y122.265 E59.81300
G1 X104.610 Y119.073 E60.17100
G1 X104.610 Y118.174 E60.24231
G1 X108.701 Y122.265 E60.70115
G1 X109.600 Y122.265 E60.77246
G1 X103.078 Y115.743 E61.50397
G1 X102.553 Y114.834 E61.58724
G1 X102.305 Y114.071 E61.65083
G1 X110.499 Y122.265 E62.56986
G1 X111.399 Y122.265 E62.64116
G1 X102.002 Y112.868 E63.69504
G1 X101.896 Y111.864 E63.77516
G1 X112.298 Y122.265 E64.94172
G1 X113.197 Y122.265 E65.01303
G1 X101.937 Y111.005 E66.27588
G1 X102.022 Y110.191 E66.34076
G1 X114.096 Y122.265 E67.69486
G1 X114.995 Y122.265 E67.76617
G1 X102.209 Y109.479 E69.20015
G1 X102.430 Y108.801 E69.25674
G1 X115.390 Y121.761 E70.71031
G1 X115.390 Y120.862 E70.78162
G1 X102.698 Y108.170 E72.20506
G1 X103.027 Y107.600 E72.25726
G1 X115.390 Y119.963 E73.64379
G1 X115.390 Y119.064 E73.71510
G1 X103.356 Y107.030 E75.06472
G1 X103.777 Y106.551 E75.11525
G1 X115.390 Y118.165 E76.41775
G1 X115.390 Y118.124 E76.42094
G1 X115.797 Y117.672 E76.46917
G1 X104.203 Y106.078 E77.76954
G1 X104.610 Y105.626 E77.81778
G1 X104.610 Y105.585 E77.82097
G1 X116.223 Y117.199 E79.12347
G1 X116.644 Y116.720 E79.17400
G1 X104.610 Y104.686 E80.52362
G1 X104.610 Y103.787 E80.59493
G1 X116.973 Y116.150 E81.98146
G1 X117.302 Y115.580 E82.03366
G1 X104.610 Y102.888 E83.45711
G1 X104.610 Y101.989 E83.52841
G1 X117.570 Y114.949 E84.98198
G1 X117.791 Y114.271 E85.03857
G1 X105.005 Y101.485 E86.47255
G1 X105.904 Y101.485 E86.54385
G1 X117.978 Y113.558 E87.89795
G1 X118.063 Y112.745 E87.96283
G1 X106.803 Y101.485 E89.22568
G1 X107.702 Y101.485 E89.29699
G1 X118.104 Y111.886 E90.46355
G1 X117.998 Y110.881 E90.54367
G1 X108.602 Y101.485 E91.59754
G1 X109.501 Y101.485 E91.66885
G1 X117.695 Y109.679 E92.58786
G1 X117.447 Y108.916 E92.65145
G1 X116.922 Y108.007 E92.73473
G1 X110.400 Y101.485 E93.46623
G1 X111.299 Y101.485 E93.53754
G1 X115.390 Y105.576 E93.99638
G1 X115.390 Y104.677 E94.06769
G1 X112.198 Y101.485 E94.42569
G1 X113.097 Y101.485 E94.49699
G1 X115.390 Y103.778 E94.75415
G1 X115.390 Y102.878 E94.82546
G1 X113.997 Y101.485 E94.98176
G1 X114.896 Y101.485 E95.05307
G1 X115.390 Y101.979 E95.10854
G1 Z0.950 F7800.000
G1 X115.779 Y122.654 F7800.000
G1 F3600
G1 X104.221 Y122.654 E96.02479
G1 X104.221 Y118.121 E96.38412
G1 X103.107 Y116.883 E96.51618
G1 X102.216 Y115.341 E96.65740
G1 X101.666 Y113.647 E96.79862
G1 X101.479 Y111.875 E96.93984
G1 X101.666 Y110.103 E97.08105
G1 X102.216 Y108.409 E97.22227
G1 X103.107 Y106.867 E97.36349
G1 X104.221 Y105.629 E97.49555
G1 X104.221 Y101.096 E97.85488
G1 X115.779 Y101.096 E98.77113
G1 X115.779 Y105.629 E99.13047
G1 X116.893 Y106.867 E99.26252
G1 X117.784 Y108.409 E99.40374
G1 X118.334 Y110.103 E99.54496
G1 X118.521 Y111.875 E99.68618
G1 X118.334 Y113.647 E99.82739
G1 X117.784 Y115.341 E99.96861
G1 X116.893 Y116.883 E100.10983
G1 X115.779 Y118.121 E100.24189
G1 X115.779 Y122.579 E100.59527
G1 X116.414 Y123.289 F7800.000
G1 F3600
G1 X103.586 Y123.289 E101.61231
G1 X103.586 Y118.365 E102.00269
G1 X102.590 Y117.259 E102.12070
G1 X101.632 Y115.601 E102.27251
G1 X101.040 Y113.779 E102.42432
G1 X100.840 Y111.875 E102.57613
G1 X101.040 Y109.971 E102.72794
G1 X101.632 Y108.149 E102.87975
G1 X102.590 Y106.491 E103.03156
G1 X103.586 Y105.385 E103.14957
G1 X103.586 Y100.461 E103.53995
G1 X116.414 Y100.461 E104.55699
G1 X116.414 Y105.385 E104.94737
G1 X117.410 Y106.491 E105.06538
G1 X118.368 Y108.149 E105.21719
G1 X118.960 Y109.971 E105.36900
G1 X119.160 Y111.875 E105.52081
G1 X118.960 Y113.779 E105.67262
G1 X118.368 Y115.601 E105.82443
G1 X117.410 Y117.259 E105.97624
G1 X116.414 Y118.365 E106.09425
G1 X116.414 Y123.214 E106.47869
G1 X116.975 Y123.850 F7800.000
G1 F1800
G1 X103.025 Y123.850 E107.32363
G1 X103.025 Y118.580 E107.64280
G1 X102.134 Y117.590 E107.72350
G1 X101.117 Y115.830 E107.84662
G1 X100.489 Y113.897 E107.96974
G1 X100.277 Y111.875 E108.09286
G1 X100.489 Y109.853 E108.21599
G1 X101.117 Y107.920 E108.33911
G1 X102.134 Y106.160 E108.46223
G1 X103.025 Y105.170 E108.54293
G1 X103.025 Y99.900 E108.86210
G1 X116.975 Y99.900 E109.70704
G1 X116.975 Y105.170 E110.02622
G1 X117.866 Y106.160 E110.10691
G1 X118.883 Y107.920 E110.23003
G1 X119.511 Y109.853 E110.35316
G1 X119.723 Y111.875 E110.47628
G1 X119.511 Y113.897 E110.59940
G1 X118.883 Y115.830 E110.72252
G1 X117.866 Y117.590 E110.84565
G1 X116.975 Y118.580 E110.92634
G1 X116.975 Y123.775 E111.24097
G1 X116.554 Y123.580 F7800.000
G1 X114.896 Y122.265 F7800.000
G1 F1200
G1 X115.390 Y121.771 E111.29644
G1 X115.390 Y120.872 E111.36775
G1 X113.997 Y122.265 E111.52405
G1 X113.097 Y122.265 E111.59536
G1 X115.390 Y119.972 E111.85252
G1 X115.390 Y119.073 E111.92382
G1 X112.198 Y122.265 E112.28182
G1 X111.299 Y122.265 E112.35313
G1 X115.390 Y118.174 E112.81197
G1 X115.390 Y117.630 E112.85512
G1 X116.624 Y116.260 E113.00127
G1 X116.922 Y115.743 E113.04866
G1 X110.400 Y122.265 E113.78015
G1 X109.501 Y122.265 E113.85146
G1 X117.695 Y114.071 E114.77048
G1 X117.957 Y113.266 E114.83756
G1 X117.998 Y112.869 E114.86929
G1 X108.602 Y122.265 E115.92316
G1 X107.702 Y122.265 E115.99447
G1 X118.104 Y111.864 E117.16102
G1 X118.129 Y111.628 E117.17984
G1 X118.063 Y111.005 E117.22948
G1 X106.803 Y122.265 E118.49233
G1 X105.904 Y122.265 E118.56364
G1 X117.978 Y110.192 E119.91774
G1 X117.957 Y109.989 E119.93388
G1 X117.791 Y109.479 E119.97639
G1 X105.005 Y122.265 E121.41037
G1 X104.610 Y122.265 E121.44170
G1 X104.610 Y121.761 E121.48168
G1 X117.570 Y108.801 E122.93524
G1 X117.447 Y108.422 E122.96680
G1 X117.302 Y108.170 E122.98989
G1 X104.610 Y120.862 E124.41333
G1 X104.610 Y119.963 E124.48464
G1 X116.973 Y107.600 E125.87117
G1 X116.644 Y107.030 E125.92337
G1 X104.610 Y119.064 E127.27300
G1 X104.610 Y118.165 E127.34430
G1 X116.223 Y106.551 E128.64681
G1 X115.797 Y106.078 E128.69730
G1 X104.203 Y117.672 E129.99767
G1 X103.777 Y117.199 E130.04816
G1 X115.390 Y105.585 E131.35066
G1 X115.390 Y104.686 E131.42197
G1 X103.356 Y116.720 E132.77159
G1 X103.027 Y116.150 E132.82379
G1 X115.390 Y103.787 E134.21032
G1 X115.390 Y102.888 E134.28163
G1 X102.698 Y115.580 E135.70507
G1 X102.553 Y115.328 E135.72816
G1 X102.430 Y114.949 E135.75972
G1 X115.390 Y101.989 E137.21328
G1 X115.390 Y101.485 E137.25326
G1 X114.995 Y101.485 E137.28459
G1 X102.209 Y114.271 E138.71857
G1 X102.043 Y113.761 E138.76109
G1 X102.022 Y113.559 E138.77723
G1 X114.096 Y101.485 E140.13133
G1 X113.197 Y101.485 E140.20264
G1 X101.937 Y112.745 E141.46549
G1 X101.871 Y112.122 E141.51514
G1 X101.896 Y111.886 E141.53395
G1 X112.298 Y101.485 E142.70051
G1 X111.399 Y101.485 E142.77182
G1 X102.002 Y110.882 E143.82569
G1 X102.043 Y110.484 E143.85743
G1 X102.305 Y109.679 E143.92450
G1 X110.499 Y101.485 E144.84352
G1 X109.600 Y101.485 E144.91483
G1 X103.078 Y108.007 E145.64634
G1 X103.376 Y107.490 E145.69374
G1 X104.610 Y106.120 E145.83988
G1 X104.610 Y105.576 E145.88303
G1 X108.701 Y101.485 E146.34187
G1 X107.802 Y101.485 E146.41318
G1 X104.610 Y104.677 E146.77118
G1 X104.610 Y103.778 E146.84249
G1 X106.903 Y101.485 E147.09965
G1 X106.003 Y101.485 E147.17096
G1 X104.610 Y102.878 E147.32727
