; generated by Slic3r 1.3.0 on 2020-09-10 at 16:41:50

; external perimeters extrusion width = 0.55mm (4.37mm^3/s)
; perimeters extrusion width = 0.70mm (11.44mm^3/s)
; infill extrusion width = 0.62mm (13.45mm^3/s)
; solid infill extrusion width = 0.70mm (3.81mm^3/s)
; top infill extrusion width = 0.70mm (2.86mm^3/s)

M107
M104 S200 ; set temperature
G28 ; home all axes
G1 Z5 F5000 ; lift nozzle

; Filament gcode

M109 S200 ; set temperature and wait for it to be reached
G21 ; set units to millimeters
G90 ; use absolute coordinates
M82 ; use absolute distances for extrusion
G92 E0
G1 Z0.350 F7800.000
G1 E-2.00000 F2400.00000
G92 E0
G1 X94.915 Y88.503 F7800.000
G1 E2.00000 F2400.00000
G1 F1800
G1 X96.668 Y87.024 E2.20854
G1 X98.820 Y86.231 E2.41708
G1 X100.000 Y86.125 E2.52479
G1 X120.000 Y86.125 E4.34339
G1 X122.259 Y86.522 E4.55193
G1 X124.247 Y87.665 E4.76047
G1 X125.726 Y89.418 E4.96901
G1 X126.519 Y91.570 E5.17755
G1 X126.625 Y92.750 E5.28526
G1 X126.625 Y127.250 E8.42233
G1 X126.228 Y129.509 E8.63088
G1 X125.085 Y131.497 E8.83942
G1 X123.332 Y132.976 E9.04796
G1 X121.180 Y133.769 E9.25650
G1 X120.000 Y133.875 E9.36421
G1 X100.000 Y133.875 E11.18280
G1 X97.741 Y133.478 E11.39135
G1 X95.753 Y132.335 E11.59989
G1 X94.274 Y130.582 E11.80843
G1 X93.481 Y128.430 E12.01697
G1 X93.375 Y127.250 E12.12468
G1 X93.375 Y92.750 E15.26175
G1 X93.772 Y90.491 E15.47030
G1 X94.878 Y88.568 E15.67202
G1 E13.67202 F2400.00000
G92 E0
G1 X119.650 Y126.900 F7800.000
G1 E2.00000 F2400.00000
G1 F1800
G1 X100.350 Y126.900 E3.75494
G1 X100.350 Y126.100 E3.82768
G1 X119.650 Y126.100 E5.58263
G1 X119.650 Y126.825 E5.64855
G1 X119.150 Y126.893 F7800.000
G1 E3.64855 F2400.00000
G92 E0
G1 X100.500 Y125.750 F7800.000
G1 E2.00000 F2400.00000
G1 F1800
G1 X100.500 Y94.250 E6.23938
G1 E4.23938 F2400.00000
G92 E0
G1 X119.650 Y93.900 F7800.000
G1 E2.00000 F2400.00000
G1 F1800
G1 X100.350 Y93.900 E3.75494
G1 X100.350 Y93.100 E3.82768
G1 X119.650 Y93.100 E5.58263
G1 X119.650 Y93.825 E5.64855
G1 X119.150 Y93.893 F7800.000
G1 X119.338 Y93.500 F7800.000
G1 F1800
G1 X100.662 Y93.500 E5.92031
G1 E3.92031 F2400.00000
G92 E0
G1 X100.662 Y126.500 F7800.000
G1 E2.00000 F2400.00000
G1 F1800
G1 X119.338 Y126.500 E2.27176
G1 Z0.650 F7800.000
G1 E0.27176 F2400.00000
G92 E0
G1 X100.725 Y93.975 F7800.000
G1 E2.00000 F2400.00000
G1 F1800
G1 X100.725 Y126.025 E3.94124
G1 X119.725 Y126.025 E5.09205
G1 X119.725 Y126.975 E5.14959
G1 X100.275 Y126.975 E6.32766
G1 X100.275 Y93.025 E8.38399
G1 X119.725 Y93.025 E9.56206
G1 X119.725 Y93.975 E9.61960
G1 X100.800 Y93.975 E10.76587
G1 X100.225 Y93.983 F7800.000
G1 X100.555 Y93.500 F7800.000
G1 F1200
G1 X119.445 Y93.500 E11.53157
G1 E9.53157 F2400.00000
G92 E0
G1 X119.445 Y126.500 F7800.000
G1 E2.00000 F2400.00000
G1 F1200
G1 X100.555 Y126.500 E2.76570
G1 Z0.950 F7800.000
G1 X100.725 Y93.975 F7800.000
G1 F1800
G1 X100.725 Y126.025 E4.70694
G1 X119.725 Y126.025 E5.85775
G1 X119.725 Y126.975 E5.91529
G1 X100.275 Y126.975 E7.09336
G1 X100.275 Y93.025 E9.14969
G1 X119.725 Y93.025 E10.32776
G1 X119.725 Y93.975 E10.38530
G1 X100.800 Y93.975 E11.53157
G1 X100.225 Y93.983 F7800.000
G1 X100.555 Y93.500 F7800.000
G1 F1200
G1 X119.445 Y93.500 E12.29727
G1 E10.29727 F2400.00000
G92 E0
G1 X119.445 Y126.500 F7800.000
G1 E2.00000 F2400.00000
G1 F1200
G1 X100.555 Y126.500 E2.76570
M106 S247.35
G1 Z1.250 F7800.000
G1 X100.725 Y93.975 F7800.000
G1 F1800
G1 X100.725 Y126.025 E4.70694
G1 X119.725 Y126.025 E5.85775
G1 X119.725 Y126.975 E5.91529
G1 X100.275 Y126.975 E7.09336
G1 X100.275 Y93.025 E9.14969
G1 X119.725 Y93.025 E10.32776
G1 X119.725 Y93.975 E10.38530
G1 X100.800 Y93.975 E11.53157
G1 X100.225 Y93.983 F7800.000
G1 X100.555 Y93.500 F7800.000
G1 F1200
G1 X119.445 Y93.500 E12.29727
G1 E10.29727 F2400.00000
G92 E0
G1 X119.445 Y126.500 F7800.000
G1 E2.00000 F2400.00000
G1 F1200
G1 X100.555 Y126.500 E2.76570
G1 Z1.550 F7800.000
G1 X100.725 Y93.975 F7800.000
G1 F1800
G1 X100.725 Y126.025 E4.70694
G1 X119.725 Y126.025 E5.85775
G1 X119.725 Y126.975 E5.91529
G1 X100.275 Y126.975 E7.09336
G1 X100.275 Y93.025 E9.14969
G1 X119.725 Y93.025 E10.32776
G1 X119.725 Y93.975 E10.38530
G1 X100.800 Y93.975 E11.53157
G1 X100.225 Y93.983 F7800.000
G1 X100.555 Y93.500 F7800.000
G1 F1200
G1 X119.445 Y93.500 E12.29727
G1 E10.29727 F2400.00000
G92 E0
G1 X119.445 Y126.500 F7800.000
G1 E2.00000 F2400.00000
G1 F1200
G1 X100.555 Y126.500 E2.76570
G1 Z1.850 F7800.000
G1 X100.725 Y93.975 F7800.000
G1 F1800
G1 X100.725 Y126.025 E4.70694
G1 X119.725 Y126.025 E5.85775
G1 X119.725 Y126.975 E5.91529
G1 X100.275 Y126.975 E7.09336
G1 X100.275 Y93.025 E9.14969
G1 X119.725 Y93.025 E10.32776
G1 X119.725 Y93.975 E10.38530
G1 X100.800 Y93.975 E11.53157
G1 X100.225 Y93.983 F7800.000
G1 X100.555 Y93.500 F7800.000
G1 F1200
G1 X119.445 Y93.500 E12.29727
G1 E10.29727 F2400.00000
G92 E0
G1 X119.445 Y126.500 F7800.000
G1 E2.00000 F2400.00000
G1 F1200
G1 X100.555 Y126.500 E2.76570
G1 Z2.150 F7800.000
G1 X100.725 Y93.975 F7800.000
G1 F1800
G1 X100.725 Y126.025 E4.70694
G1 X119.725 Y126.025 E5.85775
G1 X119.725 Y126.975 E5.91529
G1 X100.275 Y126.975 E7.09336
G1 X100.275 Y93.025 E9.14969
G1 X119.725 Y93.025 E10.32776
G1 X119.725 Y93.975 E10.38530
G1 X100.800 Y93.975 E11.53157
G1 X100.225 Y93.983 F7800.000
G1 X100.555 Y93.500 F7800.000
G1 F1200
G1 X119.445 Y93.500 E12.29727
G1 E10.29727 F2400.00000
G92 E0
G1 X119.445 Y126.500 F7800.000
G1 E2.00000 F2400.00000
G1 F1200
G1 X100.555 Y126.500 E2.76570
G1 Z2.450 F7800.000
G1 X100.725 Y93.975 F7800.000
G1 F1800
G1 X100.725 Y126.025 E4.70694
G1 X119.725 Y126.025 E5.85775
G1 X119.725 Y126.975 E5.91529
G1 X100.275 Y126.975 E7.09336
G1 X100.275 Y93.025 E9.14969
G1 X119.725 Y93.025 E10.32776
G1 X119.725 Y93.975 E10.38530
G1 X100.800 Y93.975 E11.53157
G1 X100.225 Y93.983 F7800.000
G1 X100.555 Y93.500 F7800.000
G1 F1200
G1 X119.445 Y93.500 E12.29727
G1 E10.29727 F2400.00000
G92 E0
G1 X119.445 Y126.500 F7800.000
G1 E2.00000 F2400.00000
G1 F1200
G1 X100.555 Y126.500 E2.76570
G1 Z2.750 F7800.000
G1 X100.725 Y93.975 F7800.000
G1 F1800
G1 X100.725 Y126.025 E4.70694
G1 X119.725 Y126.025 E5.85775
G1 X119.725 Y126.975 E5.91529
G1 X100.275 Y126.975 E7.09336
G1 X100.275 Y93.025 E9.14969
G1 X119.725 Y93.025 E10.32776
G1 X119.725 Y93.975 E10.38530
G1 X100.800 Y93.975 E11.53157
G1 X100.225 Y93.983 F7800.000
G1 X100.555 Y93.500 F7800.000
G1 F1200
G1 X119.445 Y93.500 E12.29727
G1 E10.29727 F2400.00000
G92 E0
G1 X119.445 Y126.500 F7800.000
G1 E2.00000 F2400.00000
G1 F1200
G1 X100.555 Y126.500 E2.76570
G1 Z3.050 F7800.000
G1 X100.725 Y93.975 F7800.000
G1 F1800
G1 X100.725 Y126.025 E4.70694
G1 X119.725 Y126.025 E5.85775
G1 X119.725 Y126.975 E5.91529
G1 X100.275 Y126.975 E7.09336
G1 X100.275 Y93.025 E9.14969
G1 X119.725 Y93.025 E10.32776
G1 X119.725 Y93.975 E10.38530
G1 X100.800 Y93.975 E11.53157
G1 X100.225 Y93.983 F7800.000
G1 X100.555 Y93.500 F7800.000
G1 F1200
G1 X119.445 Y93.500 E12.29727
G1 E10.29727 F2400.00000
G92 E0
G1 X119.445 Y126.500 F7800.000
G1 E2.00000 F2400.00000
G1 F1200
G1 X100.555 Y126.500 E2.76570
G1 Z3.350 F7800.000
G1 X100.725 Y93.975 F7800.000
G1 F1800
G1 X100.725 Y126.025 E4.70694
G1 X119.725 Y126.025 E5.85775
G1 X119.725 Y126.975 E5.91529
G1 X100.275 Y126.975 E7.09336
G1 X100.275 Y93.025 E9.14969
G1 X119.725 Y93.025 E10.32776
G1 X119.725 Y93.975 E10.38530
G1 X100.800 Y93.975 E11.53157
G1 X100.225 Y93.983 F7800.000
G1 X100.555 Y93.500 F7800.000
G1 F1200
G1 X119.445 Y93.500 E12.29727
G1 E10.29727 F2400.00000
G92 E0
G1 X119.445 Y126.500 F7800.000
G1 E2.00000 F2400.00000
G1 F1200
G1 X100.555 Y126.500 E2.76570
G1 Z3.650 F7800.000
G1 X100.725 Y93.975 F7800.000
G1 F1800
G1 X100.725 Y126.025 E4.70694
G1 X119.725 Y126.025 E5.85775
G1 X119.725 Y126.975 E5.91529
G1 X100.275 Y126.975 E7.09336
G1 X100.275 Y93.025 E9.14969
G1 X119.725 Y93.025 E10.32776
G1 X119.725 Y93.975 E10.38530
G1 X100.800 Y93.975 E11.53157
G1 X100.225 Y93.983 F7800.000
G1 X100.555 Y93.500 F7800.000
G1 F1200
G1 X119.445 Y93.500 E12.29727
G1 E10.29727 F2400.00000
G92 E0
G1 X119.445 Y126.500 F7800.000
G1 E2.00000 F2400.00000
G1 F1200
G1 X100.555 Y126.500 E2.76570
G1 Z3.950 F7800.000
G1 X100.725 Y93.975 F7800.000
G1 F1800
G1 X100.725 Y126.025 E4.70694
G1 X119.725 Y126.025 E5.85775
G1 X119.725 Y126.975 E5.91529
G1 X100.275 Y126.975 E7.09336
G1 X100.275 Y93.025 E9.14969
G1 X119.725 Y93.025 E10.32776
G1 X119.725 Y93.975 E10.38530
G1 X100.800 Y93.975 E11.53157
G1 X100.225 Y93.983 F7800.000
G1 X100.555 Y93.500 F7800.000
G1 F1200
G1 X119.445 Y93.500 E12.29727
G1 E10.29727 F2400.00000
G92 E0
G1 X119.445 Y126.500 F7800.000
G1 E2.00000 F2400.00000
G1 F1200
G1 X100.555 Y126.500 E2.76570
G1 Z4.250 F7800.000
G1 E0.76570 F2400.00000
G92 E0
G1 X116.075 Y126.025 F7800.000
G1 E2.00000 F2400.00000
G1 F900
G1 X119.725 Y126.025 E2.22108
G1 X119.725 Y126.975 E2.27862
G1 X116.075 Y126.975 E2.49969
G1 X116.075 Y126.100 E2.55269
G1 X116.573 Y126.067 F7800.000
G1 X116.355 Y126.500 F7800.000
G1 F1200
G1 X119.445 Y126.500 E2.67792
G1 E0.67792 F2400.00000
G92 E0
G1 X100.725 Y126.025 F7800.000
G1 E2.00000 F2400.00000
G1 F1800
G1 X113.925 Y126.025 E2.79951
G1 X113.925 Y126.975 E2.85705
G1 X100.275 Y126.975 E3.68382
G1 X100.275 Y93.025 E5.74014
G1 X113.925 Y93.025 E6.56691
G1 X113.925 Y93.975 E6.62445
G1 X100.725 Y93.975 E7.42396
G1 X100.725 Y125.950 E9.36066
G1 X100.660 Y126.521 F7800.000
G1 X100.555 Y126.500 F7800.000
G1 F1200
G1 X113.645 Y126.500 E9.89125
G1 E7.89125 F2400.00000
G92 E0
G1 X113.645 Y93.500 F7800.000
G1 E2.00000 F2400.00000
G1 F1200
G1 X100.555 Y93.500 E2.53059
G1 E0.53059 F2400.00000
G92 E0
G1 X116.075 Y93.975 F7800.000
G1 E2.00000 F2400.00000
G1 F900
G1 X116.075 Y93.025 E2.05754
G1 X119.725 Y93.025 E2.27862
G1 X119.725 Y93.975 E2.33616
G1 X116.150 Y93.975 E2.55269
G1 X116.287 Y93.522 F7800.000
G1 X116.355 Y93.500 F7800.000
G1 F1200
G1 X119.445 Y93.500 E2.67792
M106 S249.9
G1 Z4.550 F7800.000
G1 E0.67792 F2400.00000
G92 E0
G1 X116.867 Y126.025 F7800.000
G1 E2.00000 F2400.00000
G1 F900
G1 X119.725 Y126.025 E2.17309
G1 X119.725 Y126.975 E2.23063
G1 X116.867 Y126.975 E2.40372
G1 X116.867 Y126.100 E2.45671
G1 X117.364 Y126.078 F7800.000
G1 X117.148 Y126.500 F7800.000
G1 F1200
G1 X119.445 Y126.500 E2.54983
G1 E0.54983 F2400.00000
G92 E0
G1 X100.725 Y126.025 F7800.000
G1 E2.00000 F2400.00000
G1 F1800
G1 X113.133 Y126.025 E2.75152
G1 X113.133 Y126.975 E2.80906
G1 X100.275 Y126.975 E3.58784
G1 X100.275 Y93.025 E5.64417
G1 X113.133 Y93.025 E6.42294
G1 X113.133 Y93.975 E6.48049
G1 X100.725 Y93.975 E7.23201
G1 X100.725 Y125.950 E9.16871
G1 X100.664 Y126.521 F7800.000
G1 X100.555 Y126.500 F7800.000
G1 F1200
G1 X112.852 Y126.500 E9.66718
G1 E7.66718 F2400.00000
G92 E0
G1 X112.852 Y93.500 F7800.000
G1 E2.00000 F2400.00000
G1 F1200
G1 X100.555 Y93.500 E2.49847
G1 E0.49847 F2400.00000
G92 E0
G1 X116.867 Y93.975 F7800.000
G1 E2.00000 F2400.00000
G1 F900
G1 X116.867 Y93.025 E2.05754
G1 X119.725 Y93.025 E2.23063
G1 X119.725 Y93.975 E2.28817
G1 X116.942 Y93.975 E2.45671
G1 X117.070 Y93.518 F7800.000
G1 X117.148 Y93.500 F7800.000
G1 F1200
G1 X119.445 Y93.500 E2.54983
G1 Z4.850 F7800.000
G1 E0.54983 F2400.00000
G92 E0
G1 X117.367 Y126.025 F7800.000
G1 E2.00000 F2400.00000
G1 F900
G1 X119.725 Y126.025 E2.14280
G1 X119.725 Y126.975 E2.20034
G1 X117.367 Y126.975 E2.34315
G1 X117.367 Y126.100 E2.39615
G1 X117.863 Y126.089 F7800.000
G1 X117.648 Y126.500 F7800.000
G1 F1200
G1 X119.445 Y126.500 E2.46899
G1 E0.46899 F2400.00000
G92 E0
G1 X100.725 Y126.025 F7800.000
G1 E2.00000 F2400.00000
G1 F1800
G1 X112.633 Y126.025 E2.72124
G1 X112.633 Y126.975 E2.77878
G1 X100.275 Y126.975 E3.52728
G1 X100.275 Y93.025 E5.58360
G1 X112.633 Y93.025 E6.33209
G1 X112.633 Y93.975 E6.38963
G1 X100.725 Y93.975 E7.11087
G1 X100.725 Y125.950 E9.04757
G1 X100.666 Y126.521 F7800.000
G1 X100.555 Y126.500 F7800.000
G1 F1200
G1 X112.352 Y126.500 E9.52578
G1 E7.52578 F2400.00000
G92 E0
G1 X112.352 Y93.500 F7800.000
G1 E2.00000 F2400.00000
G1 F1200
G1 X100.555 Y93.500 E2.47821
G1 E0.47821 F2400.00000
G92 E0
G1 X117.367 Y93.975 F7800.000
G1 E2.00000 F2400.00000
G1 F900
G1 X117.367 Y93.025 E2.05754
G1 X119.725 Y93.025 E2.20034
G1 X119.725 Y93.975 E2.25789
G1 X117.442 Y93.975 E2.39615
G1 X117.560 Y93.514 F7800.000
G1 X117.648 Y93.500 F7800.000
G1 F1200
G1 X119.445 Y93.500 E2.46899
G1 Z5.150 F7800.000
G1 E0.46899 F2400.00000
G92 E0
G1 X117.700 Y126.025 F7800.000
G1 E2.00000 F2400.00000
G1 F900
G1 X119.725 Y126.025 E2.12262
G1 X119.725 Y126.975 E2.18016
G1 X117.700 Y126.975 E2.30279
G1 X117.700 Y126.100 E2.35579
G1 X118.195 Y126.098 F7800.000
G1 X117.981 Y126.500 F7800.000
G1 F1200
G1 X119.445 Y126.500 E2.41513
G1 E0.41513 F2400.00000
G92 E0
G1 X100.725 Y126.025 F7800.000
G1 E2.00000 F2400.00000
G1 F1800
G1 X112.300 Y126.025 E2.70106
G1 X112.300 Y126.975 E2.75860
G1 X100.275 Y126.975 E3.48691
G1 X100.275 Y93.025 E5.54324
G1 X112.300 Y93.025 E6.27155
G1 X112.300 Y93.975 E6.32909
G1 X100.725 Y93.975 E7.03015
G1 X100.725 Y125.950 E8.96685
G1 X100.667 Y126.522 F7800.000
G1 X100.555 Y126.500 F7800.000
G1 F1200
G1 X112.019 Y126.500 E9.43155
G1 E7.43155 F2400.00000
G92 E0
G1 X112.019 Y93.500 F7800.000
G1 E2.00000 F2400.00000
G1 F1200
G1 X100.555 Y93.500 E2.46470
G1 E0.46470 F2400.00000
G92 E0
G1 X117.700 Y93.975 F7800.000
G1 E2.00000 F2400.00000
G1 F900
G1 X117.700 Y93.025 E2.05754
G1 X119.725 Y93.025 E2.18016
G1 X119.725 Y93.975 E2.23770
G1 X117.775 Y93.975 E2.35579
G1 X117.885 Y93.510 F7800.000
G1 X117.981 Y93.500 F7800.000
G1 F1200
G1 X119.445 Y93.500 E2.41513
M106 S252.45
G1 Z5.450 F7800.000
G1 E0.41513 F2400.00000
G92 E0
G1 X117.979 Y126.025 F7800.000
G1 E2.00000 F2400.00000
G1 F900
G1 X119.725 Y126.025 E2.10574
G1 X119.725 Y126.975 E2.16329
G1 X117.979 Y126.975 E2.26903
G1 X117.979 Y126.100 E2.32203
G1 X118.472 Y126.108 F7800.000
G1 X118.259 Y126.500 F7800.000
G1 F1200
G1 X119.445 Y126.500 E2.37007
G1 E0.37007 F2400.00000
G92 E0
G1 X100.725 Y126.025 F7800.000
G1 E2.00000 F2400.00000
G1 F1800
G1 X112.021 Y126.025 E2.68418
G1 X112.021 Y126.975 E2.74172
G1 X100.275 Y126.975 E3.45316
G1 X100.275 Y93.025 E5.50948
G1 X112.021 Y93.025 E6.22092
G1 X112.021 Y93.975 E6.27846
G1 X100.725 Y93.975 E6.96264
G1 X100.725 Y125.950 E8.89933
G1 X100.669 Y126.522 F7800.000
G1 X100.555 Y126.500 F7800.000
G1 F1200
G1 X111.741 Y126.500 E9.35274
G1 E7.35274 F2400.00000
G92 E0
G1 X111.741 Y93.500 F7800.000
G1 E2.00000 F2400.00000
G1 F1200
G1 X100.555 Y93.500 E2.45340
G1 E0.45340 F2400.00000
G92 E0
G1 X117.979 Y93.975 F7800.000
G1 E2.00000 F2400.00000
G1 F900
G1 X117.979 Y93.025 E2.05754
G1 X119.725 Y93.025 E2.16329
G1 X119.725 Y93.975 E2.22083
G1 X118.054 Y93.975 E2.32203
G1 X118.154 Y93.507 F7800.000
G1 X118.259 Y93.500 F7800.000
G1 F1200
G1 X119.445 Y93.500 E2.37007
G1 Z5.750 F7800.000
G1 E0.37007 F2400.00000
G92 E0
G1 X118.197 Y126.025 F7800.000
G1 E2.00000 F2400.00000
G1 F900
G1 X119.725 Y126.025 E2.09254
G1 X119.725 Y126.975 E2.15008
G1 X118.197 Y126.975 E2.24263
G1 X118.197 Y126.100 E2.29562
G1 X118.689 Y126.117 F7800.000
G1 X118.477 Y126.500 F7800.000
G1 F1200
G1 X119.445 Y126.500 E2.33483
G1 E0.33483 F2400.00000
G92 E0
G1 X100.725 Y126.025 F7800.000
G1 E2.00000 F2400.00000
G1 F1800
G1 X111.803 Y126.025 E2.67098
G1 X111.803 Y126.975 E2.72852
G1 X100.275 Y126.975 E3.42675
G1 X100.275 Y93.025 E5.48307
G1 X111.803 Y93.025 E6.18131
G1 X111.803 Y93.975 E6.23885
G1 X100.725 Y93.975 E6.90983
G1 X100.725 Y125.950 E8.84653
G1 X100.670 Y126.522 F7800.000
G1 X100.555 Y126.500 F7800.000
G1 F1200
G1 X111.523 Y126.500 E9.29109
G1 E7.29109 F2400.00000
G92 E0
G1 X111.523 Y93.500 F7800.000
G1 E2.00000 F2400.00000
G1 F1200
G1 X100.555 Y93.500 E2.44457
G1 E0.44457 F2400.00000
G92 E0
G1 X118.197 Y93.975 F7800.000
G1 E2.00000 F2400.00000
G1 F900
G1 X118.197 Y93.025 E2.05754
G1 X119.725 Y93.025 E2.15008
G1 X119.725 Y93.975 E2.20762
G1 X118.272 Y93.975 E2.29562
G1 X118.363 Y93.503 F7800.000
G1 X118.477 Y93.500 F7800.000
G1 F1200
G1 X119.445 Y93.500 E2.33483
G1 Z6.050 F7800.000
G1 E0.33483 F2400.00000
G92 E0
G1 X118.373 Y126.025 F7800.000
G1 E2.00000 F2400.00000
G1 F900
G1 X119.725 Y126.025 E2.08190
G1 X119.725 Y126.975 E2.13944
G1 X118.373 Y126.975 E2.22133
G1 X118.373 Y126.100 E2.27433
