; generated by Slic3r 1.3.0 on 2020-09-07 at 20:17:01

; external perimeters extrusion width = 0.55mm (4.37mm^3/s)
; perimeters extrusion width = 0.70mm (11.44mm^3/s)
; infill extrusion width = 0.62mm (13.45mm^3/s)
; solid infill extrusion width = 0.70mm (3.81mm^3/s)
; top infill extrusion width = 0.70mm (2.86mm^3/s)

M107
M104 S200 ; set temperature
G28 ; home all axes
G1 Z5 F5000 ; lift nozzle

; Filament gcode

M109 S200 ; set temperature and wait for it to be reached
G21 ; set units to millimeters
G90 ; use absolute coordinates
M82 ; use absolute distances for extrusion
G92 E0
G1 Z0.350 F7800.000
G1 E-2.00000 F2400.00000
G92 E0
G1 X96.913 Y96.501 F7800.000
G1 E2.00000 F2400.00000
G1 F1800
G1 X97.943 Y95.574 E2.12594
G1 X100.006 Y94.075 E2.35785
G1 X101.205 Y93.382 E2.48378
G1 X103.535 Y92.345 E2.71570
G1 X104.852 Y91.917 E2.84161
G1 X107.347 Y91.387 E3.07355
G1 X108.725 Y91.242 E3.19949
G1 X111.275 Y91.242 E3.43140
G1 X112.652 Y91.387 E3.55730
G1 X115.147 Y91.917 E3.78926
G1 X116.465 Y92.345 E3.91519
G1 X118.795 Y93.382 E4.14711
G1 X119.994 Y94.075 E4.27304
G1 X122.057 Y95.574 E4.50495
G1 X123.087 Y96.501 E4.63089
G1 X124.793 Y98.396 E4.86281
G1 X125.607 Y99.516 E4.98873
G1 X126.883 Y101.725 E5.22065
G1 X127.446 Y102.991 E5.34661
G1 X128.234 Y105.416 E5.57852
G1 X128.522 Y106.771 E5.70445
G1 X128.789 Y109.308 E5.93636
G1 X128.789 Y110.692 E6.06230
G1 X128.522 Y113.229 E6.29421
G1 X128.234 Y114.584 E6.42014
G1 X127.446 Y117.010 E6.65207
G1 X126.883 Y118.275 E6.77801
G1 X125.607 Y120.484 E7.00992
G1 X124.793 Y121.604 E7.13585
G1 X123.087 Y123.499 E7.36777
G1 X122.057 Y124.426 E7.49370
G1 X119.994 Y125.925 E7.72562
G1 X118.795 Y126.618 E7.85155
G1 X116.465 Y127.655 E8.08346
G1 X115.147 Y128.083 E8.20940
G1 X112.653 Y128.613 E8.44131
G1 X111.275 Y128.758 E8.56726
G1 X108.725 Y128.758 E8.79917
G1 X107.347 Y128.613 E8.92510
G1 X104.853 Y128.083 E9.15703
G1 X103.536 Y127.655 E9.28294
G1 X101.205 Y126.618 E9.51488
G1 X100.006 Y125.925 E9.64079
G1 X97.943 Y124.426 E9.87272
G1 X96.913 Y123.499 E9.99866
G1 X95.207 Y121.604 E10.23058
G1 X94.393 Y120.484 E10.35650
G1 X93.117 Y118.275 E10.58842
G1 X92.554 Y117.009 E10.71437
G1 X91.766 Y114.584 E10.94629
G1 X91.478 Y113.229 E11.07221
G1 X91.211 Y110.692 E11.30416
G1 X91.211 Y109.308 E11.43006
G1 X91.478 Y106.771 E11.66200
G1 X91.766 Y105.416 E11.78790
G1 X92.554 Y102.990 E12.01984
G1 X93.117 Y101.725 E12.14578
G1 X94.393 Y99.516 E12.37769
G1 X95.207 Y98.396 E12.50362
G1 X96.863 Y96.556 E12.72872
G1 E10.72872 F2400.00000
G92 E0
G1 X117.087 Y117.871 F7800.000
G1 E2.00000 F2400.00000
G1 F1800
G1 X115.296 Y119.172 E2.20134
G1 X113.273 Y120.073 E2.40268
G1 X111.107 Y120.533 E2.60401
G1 X108.893 Y120.533 E2.80535
G1 X106.727 Y120.073 E3.00668
G1 X104.704 Y119.172 E3.20802
G1 X102.913 Y117.871 E3.40936
G1 X101.431 Y116.225 E3.61070
G1 X100.324 Y114.308 E3.81204
G1 X99.640 Y112.202 E4.01337
G1 X99.409 Y110.000 E4.21471
G1 X99.640 Y107.798 E4.41605
G1 X100.324 Y105.692 E4.61738
G1 X101.431 Y103.775 E4.81872
G1 X102.913 Y102.129 E5.02006
G1 X104.704 Y100.828 E5.22139
G1 X106.727 Y99.927 E5.42273
G1 X108.891 Y99.467 E5.62387
G1 X111.138 Y99.473 E5.82826
G1 X113.273 Y99.927 E6.02668
G1 X115.296 Y100.828 E6.22801
G1 X117.087 Y102.129 E6.42935
G1 X118.569 Y103.775 E6.63069
G1 X119.676 Y105.692 E6.83203
G1 X120.360 Y107.798 E7.03336
G1 X120.591 Y110.000 E7.23470
G1 X120.360 Y112.202 E7.43604
G1 X119.676 Y114.308 E7.63737
G1 X118.569 Y116.225 E7.83871
G1 X117.137 Y117.815 E8.03323
G1 X117.551 Y118.289 F7800.000
G1 F1800
G1 X117.507 Y118.338 E8.03920
G1 X115.610 Y119.717 E8.25248
G1 X113.467 Y120.671 E8.46576
G1 X111.173 Y121.158 E8.67905
G1 X108.827 Y121.158 E8.89233
G1 X106.533 Y120.671 E9.10561
G1 X104.390 Y119.717 E9.31889
G1 X102.493 Y118.338 E9.53217
G1 X100.923 Y116.595 E9.74545
G1 X99.750 Y114.563 E9.95873
G1 X99.025 Y112.333 E10.17201
G1 X98.780 Y110.000 E10.38530
G1 X99.025 Y107.667 E10.59858
G1 X99.750 Y105.437 E10.81186
G1 X100.923 Y103.405 E11.02514
G1 X102.493 Y101.662 E11.23842
G1 X104.390 Y100.283 E11.45170
G1 X106.533 Y99.329 E11.66499
G1 X108.826 Y98.842 E11.87814
G1 X111.205 Y98.849 E12.09448
G1 X113.467 Y99.329 E12.30476
G1 X115.610 Y100.283 E12.51804
G1 X117.507 Y101.662 E12.73132
G1 X119.077 Y103.405 E12.94461
G1 X120.250 Y105.437 E13.15789
G1 X120.975 Y107.667 E13.37117
G1 X121.220 Y110.000 E13.58445
G1 X120.975 Y112.333 E13.79773
G1 X120.250 Y114.563 E14.01101
G1 X119.077 Y116.595 E14.22429
G1 X117.602 Y118.233 E14.42478
G1 X118.016 Y118.707 F7800.000
G1 F1800
G1 X117.928 Y118.805 E14.43673
G1 X115.924 Y120.261 E14.66195
G1 X113.661 Y121.268 E14.88718
G1 X111.238 Y121.783 E15.11241
G1 X108.762 Y121.783 E15.33763
G1 X106.339 Y121.268 E15.56286
G1 X104.076 Y120.261 E15.78808
G1 X102.072 Y118.805 E16.01331
G1 X100.415 Y116.964 E16.23853
G1 X99.176 Y114.819 E16.46376
G1 X98.411 Y112.463 E16.68899
G1 X98.152 Y110.000 E16.91421
G1 X98.411 Y107.537 E17.13944
G1 X99.176 Y105.181 E17.36466
G1 X100.415 Y103.036 E17.58989
G1 X102.072 Y101.195 E17.81511
G1 X104.076 Y99.739 E18.04034
G1 X106.339 Y98.732 E18.26556
G1 X108.761 Y98.217 E18.49075
G1 X111.272 Y98.224 E18.71903
G1 X113.661 Y98.732 E18.94117
G1 X115.924 Y99.739 E19.16640
G1 X117.928 Y101.195 E19.39163
G1 X119.585 Y103.036 E19.61685
G1 X120.824 Y105.181 E19.84208
G1 X121.589 Y107.537 E20.06730
G1 X121.848 Y110.000 E20.29253
G1 X121.589 Y112.463 E20.51775
G1 X120.824 Y114.819 E20.74298
G1 X119.585 Y116.964 E20.96820
G1 X118.066 Y118.651 E21.17467
G1 X117.886 Y118.685 F7800.000
G1 X116.423 Y117.647 F7800.000
G1 F1800
G1 X116.911 Y117.160 E21.23911
G1 X118.303 Y115.613 E21.43348
G1 X119.333 Y113.830 E21.62583
G1 X113.933 Y119.230 E22.33921
G1 X112.836 Y119.719 E22.45135
G1 X112.456 Y119.799 E22.48764
G1 X119.778 Y112.477 E23.45482
G1 X119.988 Y111.828 E23.51855
G1 X120.044 Y111.304 E23.56784
G1 X111.303 Y120.044 E24.72243
G1 X110.798 Y120.152 E24.77060
G1 X110.288 Y120.152 E24.81829
G1 X120.150 Y110.289 E26.12104
G1 X120.206 Y109.757 E26.17103
G1 X120.165 Y109.367 E26.20770
G1 X109.380 Y120.152 E27.63232
G1 X108.716 Y120.152 E27.69439
G1 X108.515 Y120.109 E27.71355
G1 X120.079 Y108.545 E29.24105
G1 X119.992 Y107.724 E29.31820
G1 X107.766 Y119.950 E30.93318
G1 X107.018 Y119.791 E31.00467
G1 X119.776 Y107.032 E32.68998
G1 X119.554 Y106.347 E32.75727
G1 X106.335 Y119.566 E34.50336
G1 X105.707 Y119.286 E34.56758
G1 X119.324 Y105.669 E36.36633
G1 X118.992 Y105.093 E36.42840
G1 X105.079 Y119.006 E38.26622
G1 X104.775 Y118.871 E38.29723
G1 X104.503 Y118.674 E38.32862
G1 X118.660 Y104.518 E40.19854
G1 X118.327 Y103.942 E40.26061
G1 X103.978 Y118.292 E42.15608
G1 X103.452 Y117.910 E42.21678
G1 X117.904 Y103.457 E44.12582
G1 X117.474 Y102.980 E44.18586
G1 X102.956 Y117.498 E46.10359
G1 X102.526 Y117.020 E46.16363
G1 X117.044 Y102.502 E48.08136
G1 X116.910 Y102.353 E48.10012
G1 X116.548 Y102.090 E48.14186
G1 X102.096 Y116.543 E50.05090
G1 X101.673 Y116.058 E50.11099
G1 X116.022 Y101.708 E52.00647
G1 X115.497 Y101.326 E52.06717
G1 X101.340 Y115.482 E53.93708
G1 X101.008 Y114.907 E53.99915
G1 X114.921 Y100.994 E55.83698
G1 X114.293 Y100.714 E55.90120
G1 X100.676 Y114.331 E57.69995
G1 X100.446 Y113.653 E57.76683
G1 X113.665 Y100.434 E59.51292
G1 X113.322 Y100.281 E59.54803
G1 X112.982 Y100.209 E59.58044
G1 X100.224 Y112.968 E61.26575
G1 X100.008 Y112.276 E61.33342
G1 X112.234 Y100.050 E62.94841
G1 X111.485 Y99.891 E63.01990
G1 X99.921 Y111.455 E64.54740
G1 X99.835 Y110.633 E64.62455
G1 X110.615 Y99.853 E66.04857
G1 X109.710 Y99.850 E66.13313
G1 X99.850 Y109.711 E67.43561
G1 X99.956 Y108.696 E67.53088
G1 X108.697 Y99.956 E68.68547
G1 X107.544 Y100.201 E68.79555
G1 X100.222 Y107.523 E69.76273
G1 X100.667 Y106.170 E69.89568
G1 X106.067 Y100.770 E70.60906
G1 X105.261 Y101.129 E70.69147
G1 X103.577 Y102.353 E70.88595
G1 X103.091 Y102.839 E70.95015
G1 Z0.650 F7800.000
G1 X117.183 Y117.957 F7800.000
G1 F3600
G1 X115.360 Y119.284 E71.12888
G1 X113.313 Y120.196 E71.30656
G1 X111.121 Y120.662 E71.48424
G1 X108.879 Y120.662 E71.66192
G1 X106.687 Y120.196 E71.83960
G1 X104.640 Y119.284 E72.01728
G1 X102.826 Y117.967 E72.19496
G1 X101.327 Y116.301 E72.37264
G1 X100.206 Y114.360 E72.55032
G1 X99.514 Y112.229 E72.72800
G1 X99.279 Y110.000 E72.90568
G1 X99.514 Y107.771 E73.08336
G1 X100.206 Y105.640 E73.26104
G1 X101.327 Y103.699 E73.43872
G1 X102.826 Y102.033 E73.61640
G1 X104.640 Y100.716 E73.79408
G1 X106.687 Y99.804 E73.97176
G1 X108.879 Y99.338 E74.14944
G1 X111.121 Y99.338 E74.32712
G1 X113.313 Y99.804 E74.50480
G1 X115.360 Y100.716 E74.68248
G1 X117.174 Y102.033 E74.86016
G1 X118.673 Y103.699 E75.03784
G1 X119.794 Y105.640 E75.21552
G1 X120.486 Y107.771 E75.39320
G1 X120.721 Y110.000 E75.57088
G1 X120.486 Y112.229 E75.74856
G1 X119.794 Y114.360 E75.92624
G1 X118.673 Y116.301 E76.10392
G1 X117.233 Y117.901 E76.27458
G1 X117.655 Y118.382 F7800.000
G1 F3600
G1 X117.601 Y118.442 E76.28095
G1 X115.680 Y119.838 E76.46922
G1 X113.510 Y120.804 E76.65750
G1 X111.187 Y121.298 E76.84577
G1 X108.813 Y121.298 E77.03404
G1 X106.490 Y120.804 E77.22232
G1 X104.320 Y119.838 E77.41059
G1 X102.399 Y118.442 E77.59886
G1 X100.810 Y116.677 E77.78713
G1 X99.622 Y114.620 E77.97541
G1 X98.888 Y112.362 E78.16368
G1 X98.640 Y110.000 E78.35195
G1 X98.888 Y107.638 E78.54022
G1 X99.622 Y105.380 E78.72850
G1 X100.810 Y103.323 E78.91677
G1 X102.399 Y101.558 E79.10504
G1 X104.320 Y100.162 E79.29331
G1 X106.490 Y99.196 E79.48159
G1 X108.813 Y98.702 E79.66986
G1 X111.187 Y98.702 E79.85813
G1 X113.510 Y99.196 E80.04641
G1 X115.680 Y100.162 E80.23468
G1 X117.601 Y101.558 E80.42295
G1 X119.190 Y103.323 E80.61122
G1 X120.378 Y105.380 E80.79950
G1 X121.112 Y107.638 E80.98777
G1 X121.360 Y110.000 E81.17604
G1 X121.112 Y112.362 E81.36431
G1 X120.378 Y114.620 E81.55259
G1 X119.190 Y116.677 E81.74086
G1 X117.705 Y118.327 E81.91682
G1 X118.072 Y118.757 F7800.000
G1 F1800
G1 X117.978 Y118.861 E81.92525
G1 X115.962 Y120.326 E82.07623
G1 X113.685 Y121.340 E82.22721
G1 X111.246 Y121.858 E82.37819
G1 X108.754 Y121.858 E82.52917
G1 X106.315 Y121.340 E82.68015
G1 X104.038 Y120.326 E82.83113
G1 X102.022 Y118.861 E82.98211
G1 X100.354 Y117.008 E83.13309
G1 X99.107 Y114.850 E83.28407
G1 X98.337 Y112.479 E83.43505
G1 X98.077 Y110.000 E83.58603
G1 X98.337 Y107.521 E83.73701
G1 X99.107 Y105.150 E83.88799
G1 X100.354 Y102.992 E84.03897
G1 X102.022 Y101.139 E84.18995
G1 X104.038 Y99.674 E84.34093
G1 X106.315 Y98.660 E84.49191
G1 X108.754 Y98.142 E84.64289
G1 X111.246 Y98.142 E84.79387
G1 X113.685 Y98.660 E84.94485
G1 X115.962 Y99.674 E85.09583
G1 X117.978 Y101.139 E85.24681
G1 X119.646 Y102.992 E85.39779
G1 X120.893 Y105.150 E85.54877
G1 X121.663 Y107.521 E85.69975
G1 X121.923 Y110.000 E85.85073
G1 X121.663 Y112.479 E86.00171
G1 X120.893 Y114.850 E86.15269
G1 X119.646 Y117.008 E86.30367
G1 X118.122 Y118.702 E86.44168
G1 X117.934 Y118.733 F7800.000
G1 X103.500 Y117.738 F7800.000
G1 F1200
G1 X103.005 Y117.243 E86.49832
G1 X101.597 Y115.679 E86.66889
G1 X100.555 Y113.874 E86.83772
G1 X106.022 Y119.341 E87.46410
G1 X107.132 Y119.835 E87.56252
G1 X107.516 Y119.917 E87.59438
G1 X100.105 Y112.506 E88.44351
G1 X99.892 Y111.849 E88.49945
G1 X99.836 Y111.318 E88.54271
G1 X108.683 Y120.165 E89.55633
G1 X109.193 Y120.274 E89.59860
G1 X109.710 Y120.274 E89.64045
G1 X99.728 Y110.291 E90.78410
G1 X99.671 Y109.753 E90.82797
G1 X99.713 Y109.358 E90.86016
G1 X110.629 Y120.274 E92.11077
G1 X111.301 Y120.274 E92.16524
G1 X111.504 Y120.230 E92.18206
G1 X99.800 Y108.527 E93.52296
G1 X99.887 Y107.695 E93.59067
G1 X112.262 Y120.069 E95.00835
G1 X113.019 Y119.908 E95.07109
G1 X100.106 Y106.996 E96.55049
G1 X100.332 Y106.302 E96.60955
G1 X113.710 Y119.681 E98.14229
G1 X114.346 Y119.398 E98.19865
G1 X100.564 Y105.616 E99.77761
G1 X100.900 Y105.034 E99.83209
G1 X114.981 Y119.115 E101.44535
G1 X115.288 Y118.978 E101.47256
G1 X115.563 Y118.778 E101.50011
G1 X101.236 Y104.451 E103.14153
G1 X101.572 Y103.869 E103.19601
G1 X116.095 Y118.392 E104.85986
G1 X116.627 Y118.005 E104.91313
G1 X102.001 Y103.378 E106.58889
G1 X102.436 Y102.895 E106.64158
G1 X117.129 Y117.588 E108.32497
G1 X117.564 Y117.105 E108.37766
G1 X102.871 Y102.412 E110.06104
G1 X103.007 Y102.261 E110.07750
G1 X103.373 Y101.995 E110.11414
G1 X117.999 Y116.622 E111.78989
G1 X118.428 Y116.131 E111.84263
G1 X103.905 Y101.608 E113.50648
G1 X104.437 Y101.222 E113.55976
G1 X118.764 Y115.549 E115.20118
G1 X119.100 Y114.966 E115.25565
G1 X105.019 Y100.885 E116.86891
G1 X105.654 Y100.602 E116.92527
G1 X119.436 Y114.384 E118.50423
G1 X119.668 Y113.698 E118.56293
G1 X106.290 Y100.319 E120.09568
G1 X106.637 Y100.165 E120.12648
G1 X106.981 Y100.092 E120.15493
G1 X119.894 Y113.004 E121.63433
G1 X120.113 Y112.305 E121.69372
G1 X107.738 Y99.931 E123.11140
G1 X108.496 Y99.770 E123.17414
G1 X120.200 Y111.473 E124.51504
G1 X120.287 Y110.642 E124.58275
G1 X109.371 Y99.726 E125.83336
G1 X110.290 Y99.726 E125.90778
G1 X120.272 Y109.709 E127.05142
G1 X120.164 Y108.682 E127.13504
G1 X111.317 Y99.835 E128.14865
G1 X112.484 Y100.083 E128.24527
G1 X119.895 Y107.494 E129.09440
G1 X119.445 Y106.126 E129.21108
G1 X113.978 Y100.659 E129.83746
G1 X114.794 Y101.022 E129.90978
G1 X116.498 Y102.260 E130.08048
G1 X116.994 Y102.757 E130.13732
G1 Z0.950 F7800.000
G1 X117.183 Y117.957 F7800.000
G1 F3600
G1 X115.360 Y119.284 E130.31605
G1 X113.313 Y120.196 E130.49373
G1 X111.121 Y120.662 E130.67141
G1 X108.879 Y120.662 E130.84909
G1 X106.687 Y120.196 E131.02677
G1 X104.640 Y119.284 E131.20445
G1 X102.826 Y117.967 E131.38213
G1 X101.327 Y116.301 E131.55981
G1 X100.206 Y114.360 E131.73749
G1 X99.514 Y112.229 E131.91517
G1 X99.279 Y110.000 E132.09285
G1 X99.514 Y107.771 E132.27053
G1 X100.206 Y105.640 E132.44821
G1 X101.327 Y103.699 E132.62589
G1 X102.826 Y102.033 E132.80357
G1 X104.640 Y100.716 E132.98125
G1 X106.687 Y99.804 E133.15893
G1 X108.879 Y99.338 E133.33661
G1 X111.121 Y99.338 E133.51429
G1 X113.313 Y99.804 E133.69197
G1 X115.360 Y100.716 E133.86965
G1 X117.174 Y102.033 E134.04733
G1 X118.673 Y103.699 E134.22502
G1 X119.794 Y105.640 E134.40270
G1 X120.486 Y107.771 E134.58037
G1 X120.721 Y110.000 E134.75806
G1 X120.486 Y112.229 E134.93574
G1 X119.794 Y114.360 E135.11341
G1 X118.673 Y116.301 E135.29109
G1 X117.233 Y117.901 E135.46176
G1 X117.655 Y118.382 F7800.000
G1 F3600
G1 X117.601 Y118.442 E135.46813
G1 X115.680 Y119.838 E135.65640
G1 X113.510 Y120.804 E135.84467
G1 X111.187 Y121.298 E136.03294
G1 X108.813 Y121.298 E136.22122
G1 X106.490 Y120.804 E136.40949
G1 X104.320 Y119.838 E136.59776
G1 X102.399 Y118.442 E136.78603
G1 X100.810 Y116.677 E136.97431
G1 X99.622 Y114.620 E137.16258
G1 X98.888 Y112.362 E137.35085
G1 X98.640 Y110.000 E137.53913
G1 X98.888 Y107.638 E137.72740
G1 X99.622 Y105.380 E137.91567
G1 X100.810 Y103.323 E138.10394
G1 X102.399 Y101.558 E138.29222
G1 X104.320 Y100.162 E138.48049
G1 X106.490 Y99.196 E138.66876
G1 X108.813 Y98.702 E138.85703
G1 X111.187 Y98.702 E139.04531
G1 X113.510 Y99.196 E139.23358
G1 X115.680 Y100.162 E139.42185
G1 X117.601 Y101.558 E139.61012
G1 X119.190 Y103.323 E139.79840
G1 X120.378 Y105.380 E139.98667
G1 X121.112 Y107.638 E140.17494
G1 X121.360 Y110.000 E140.36322
G1 X121.112 Y112.362 E140.55149
G1 X120.378 Y114.620 E140.73976
G1 X119.190 Y116.677 E140.92803
G1 X117.705 Y118.327 E141.10399
G1 X118.072 Y118.757 F7800.000
G1 F1800
G1 X117.978 Y118.861 E141.11243
G1 X115.962 Y120.326 E141.26341
G1 X113.685 Y121.340 E141.41439
G1 X111.246 Y121.858 E141.56537
G1 X108.754 Y121.858 E141.71635
G1 X106.315 Y121.340 E141.86733
G1 X104.038 Y120.326 E142.01831
G1 X102.022 Y118.861 E142.16929
G1 X100.354 Y117.008 E142.32027
G1 X99.107 Y114.850 E142.47125
G1 X98.337 Y112.479 E142.62223
G1 X98.077 Y110.000 E142.77321
G1 X98.337 Y107.521 E142.92419
G1 X99.107 Y105.150 E143.07517
G1 X100.354 Y102.992 E143.22615
G1 X102.022 Y101.139 E143.37713
G1 X104.038 Y99.674 E143.52811
G1 X106.315 Y98.660 E143.67909
G1 X108.754 Y98.142 E143.83007
G1 X111.246 Y98.142 E143.98105
G1 X113.685 Y98.660 E144.13203
G1 X115.962 Y99.674 E144.28301
G1 X117.978 Y101.139 E144.43399
G1 X119.646 Y102.992 E144.58497
G1 X120.893 Y105.150 E144.73595
G1 X121.663 Y107.521 E144.88693
