; generated by Slic3r 1.3.0 on 2020-09-07 at 16:06:32

; external perimeters extrusion width = 0.55mm (4.37mm^3/s)
; perimeters extrusion width = 0.70mm (11.44mm^3/s)
; infill extrusion width = 0.62mm (13.45mm^3/s)
; solid infill extrusion width = 0.70mm (3.81mm^3/s)
; top infill extrusion width = 0.70mm (2.86mm^3/s)

M107
M104 S200 ; set temperature
G28 ; home all axes
G1 Z5 F5000 ; lift nozzle

; Filament gcode

M109 S200 ; set temperature and wait for it to be reached
G21 ; set units to millimeters
G90 ; use absolute coordinates
M82 ; use absolute distances for extrusion
G92 E0
G1 Z0.350 F7800.000
G1 E-2.00000 F2400.00000
G92 E0
G1 X87.515 Y98.853 F7800.000
G1 E2.00000 F2400.00000
G1 F1800
G1 X89.268 Y97.374 E2.20854
G1 X91.420 Y96.581 E2.41708
G1 X92.600 Y96.475 E2.52479
G1 X127.400 Y96.475 E5.68914
G1 X129.659 Y96.872 E5.89769
G1 X131.647 Y98.015 E6.10623
G1 X133.126 Y99.768 E6.31477
G1 X133.919 Y101.920 E6.52331
G1 X134.025 Y103.100 E6.63102
G1 X134.025 Y116.900 E7.88585
G1 X133.628 Y119.159 E8.09439
G1 X132.485 Y121.147 E8.30293
G1 X130.732 Y122.626 E8.51148
G1 X128.580 Y123.419 E8.72002
G1 X127.400 Y123.525 E8.82773
G1 X92.600 Y123.525 E11.99208
G1 X90.341 Y123.128 E12.20062
G1 X88.353 Y121.985 E12.40916
G1 X86.874 Y120.232 E12.61770
G1 X86.081 Y118.080 E12.82625
G1 X85.975 Y116.900 E12.93396
G1 X85.975 Y103.100 E14.18878
G1 X86.372 Y100.841 E14.39733
G1 X87.478 Y98.918 E14.59905
G1 E12.59905 F2400.00000
G92 E0
G1 X126.250 Y114.750 F7800.000
G1 E2.00000 F2400.00000
G1 F1800
G1 X121.750 Y114.750 E2.40918
G1 X121.750 Y105.250 E3.27301
G1 X126.250 Y105.250 E3.68220
G1 X126.250 Y114.675 E4.53921
G1 X126.323 Y115.245 F7800.000
G1 E2.53921 F2400.00000
G92 E0
G1 X120.500 Y115.300 F7800.000
G1 E2.00000 F2400.00000
G1 F1800
G1 X94.200 Y115.300 E4.39149
G1 X94.200 Y104.700 E5.35538
G1 X120.500 Y104.700 E7.74687
G1 X120.500 Y115.225 E8.70395
G1 X121.125 Y115.375 F7800.000
G1 F1800
G1 X126.425 Y115.375 E9.18587
G1 X126.425 Y115.925 E9.23590
G1 X93.575 Y115.925 E12.22296
G1 X93.575 Y104.075 E13.30050
G1 X126.425 Y104.075 E16.28755
G1 X126.425 Y104.625 E16.33758
G1 X121.125 Y104.625 E16.81951
G1 X121.125 Y115.300 E17.79016
G1 E15.79016 F2400.00000
G92 E0
G1 X127.050 Y116.550 F7800.000
G1 E2.00000 F2400.00000
G1 F1800
G1 X92.950 Y116.550 E5.10070
G1 X92.950 Y103.450 E6.29188
G1 X127.050 Y103.450 E9.39258
G1 X127.050 Y116.475 E10.57693
G1 X126.554 Y116.489 F7800.000
G1 X126.650 Y115.062 F7800.000
G1 F1800
G1 X126.650 Y104.938 E10.72427
G1 E8.72427 F2400.00000
G92 E0
G1 X119.632 Y114.918 F7800.000
G1 E2.00000 F2400.00000
G1 F1800
G1 X120.118 Y114.432 E2.06405
G1 X120.118 Y113.527 E2.14837
G1 X118.727 Y114.918 E2.33168
G1 X117.822 Y114.918 E2.41600
G1 X120.118 Y112.622 E2.71856
G1 X120.118 Y111.716 E2.80289
G1 X116.916 Y114.918 E3.22470
G1 X116.011 Y114.918 E3.30903
G1 X120.118 Y110.811 E3.85010
G1 X120.118 Y109.906 E3.93442
G1 X115.106 Y114.918 E4.59475
G1 X114.200 Y114.918 E4.67908
G1 X120.118 Y109.000 E5.45866
G1 X120.118 Y108.095 E5.54298
G1 X113.295 Y114.918 E6.44182
G1 X112.390 Y114.918 E6.52615
G1 X120.118 Y107.190 E7.54424
G1 X120.118 Y106.285 E7.62857
G1 X111.485 Y114.918 E8.76591
G1 X110.579 Y114.918 E8.85024
G1 X120.118 Y105.379 E10.10685
G1 X120.118 Y105.082 E10.13457
G1 X119.511 Y105.082 E10.19117
G1 X109.674 Y114.918 E11.48699
G1 X108.769 Y114.918 E11.57131
G1 X118.605 Y105.082 E12.86713
G1 X117.700 Y105.082 E12.95145
G1 X107.863 Y114.918 E14.24727
G1 X106.958 Y114.918 E14.33159
G1 X116.795 Y105.082 E15.62741
G1 X115.890 Y105.082 E15.71173
G1 X106.053 Y114.918 E17.00755
G1 X105.148 Y114.918 E17.09188
G1 X114.984 Y105.082 E18.38769
G1 X114.079 Y105.082 E18.47202
G1 X104.242 Y114.918 E19.76783
G1 X103.337 Y114.918 E19.85216
G1 X113.174 Y105.082 E21.14797
G1 X112.268 Y105.082 E21.23230
G1 X102.432 Y114.918 E22.52811
G1 X101.526 Y114.918 E22.61244
G1 X111.363 Y105.082 E23.90825
G1 X110.458 Y105.082 E23.99258
G1 X100.621 Y114.918 E25.28839
G1 X99.716 Y114.918 E25.37272
G1 X109.553 Y105.082 E26.66853
G1 X108.647 Y105.082 E26.75286
G1 X98.810 Y114.918 E28.04867
G1 X97.905 Y114.918 E28.13300
G1 X107.742 Y105.082 E29.42881
G1 X106.837 Y105.082 E29.51314
G1 X97.000 Y114.918 E30.80896
G1 X96.095 Y114.918 E30.89328
G1 X105.931 Y105.082 E32.18910
G1 X105.026 Y105.082 E32.27342
G1 X95.189 Y114.918 E33.56924
G1 X94.582 Y114.918 E33.62584
G1 X94.582 Y114.621 E33.65356
G1 X104.121 Y105.082 E34.91017
G1 X103.215 Y105.082 E34.99450
G1 X94.582 Y113.715 E36.13185
G1 X94.582 Y112.810 E36.21618
G1 X102.310 Y105.082 E37.23428
G1 X101.405 Y105.082 E37.31861
G1 X94.582 Y111.905 E38.21745
G1 X94.582 Y111.000 E38.30177
G1 X100.500 Y105.082 E39.08136
G1 X99.594 Y105.082 E39.16569
G1 X94.582 Y110.094 E39.82602
G1 X94.582 Y109.189 E39.91035
G1 X98.689 Y105.082 E40.45142
G1 X97.784 Y105.082 E40.53575
G1 X94.582 Y108.284 E40.95757
G1 X94.582 Y107.378 E41.04189
G1 X96.878 Y105.082 E41.34446
G1 X95.973 Y105.082 E41.42878
G1 X94.582 Y106.473 E41.61209
G1 X94.582 Y105.568 E41.69642
G1 X95.068 Y105.082 E41.76047
G1 Z0.650 F7800.000
G1 E39.76047 F2400.00000
G92 E0
G1 X126.175 Y114.675 F7800.000
G1 E2.00000 F2400.00000
G1 F900
G1 X121.825 Y114.675 E2.26348
G1 X121.825 Y105.325 E2.82980
G1 X126.175 Y105.325 E3.09327
G1 X126.175 Y114.600 E3.65505
G1 X126.247 Y115.170 F7800.000
G1 X120.629 Y115.429 F7800.000
G1 F3600
G1 X94.071 Y115.429 E5.76048
G1 X94.071 Y104.571 E6.62124
G1 X120.629 Y104.571 E8.72667
G1 X120.629 Y115.354 E9.58148
G1 X121.264 Y115.236 F7800.000
G1 F3600
G1 X126.564 Y115.236 E10.00166
G1 X126.564 Y116.064 E10.06736
G1 X93.436 Y116.064 E12.69374
G1 X93.436 Y103.936 E13.65528
G1 X126.564 Y103.936 E16.28166
G1 X126.564 Y104.764 E16.34737
G1 X121.264 Y104.764 E16.76754
G1 X121.264 Y115.161 E17.59173
G1 X127.125 Y116.625 F7800.000
G1 F1800
G1 X92.875 Y116.625 E19.66622
G1 X92.875 Y103.375 E20.46877
G1 X127.125 Y103.375 E22.54326
G1 X127.125 Y116.550 E23.34126
G1 X126.629 Y116.564 F7800.000
G1 X126.247 Y115.650 F7800.000
G1 F1200
G1 X120.947 Y115.650 E23.42637
G1 X126.650 Y114.955 F7800.000
G1 F1200
G1 X126.650 Y105.045 E23.82811
G1 X126.247 Y104.350 F7800.000
G1 F1200
G1 X120.947 Y104.350 E23.91323
G1 X120.240 Y105.454 F7800.000
G1 F1200
G1 X119.746 Y104.960 E23.96983
G1 X118.828 Y104.960 E24.04411
G1 X120.240 Y106.372 E24.20575
G1 X120.240 Y107.290 E24.28002
G1 X117.910 Y104.960 E24.54671
G1 X116.993 Y104.960 E24.62098
G1 X120.240 Y108.207 E24.99270
G1 X120.240 Y109.125 E25.06697
G1 X116.075 Y104.960 E25.54373
G1 X115.157 Y104.960 E25.61801
G1 X120.240 Y110.043 E26.19981
G1 X120.240 Y110.960 E26.27408
G1 X114.240 Y104.960 E26.96092
G1 X113.322 Y104.960 E27.03519
G1 X120.240 Y111.878 E27.82707
G1 X120.240 Y112.796 E27.90134
G1 X112.404 Y104.960 E28.79826
G1 X111.487 Y104.960 E28.87253
G1 X120.240 Y113.713 E29.87449
G1 X120.240 Y114.631 E29.94876
G1 X110.569 Y104.960 E31.05575
G1 X109.651 Y104.960 E31.13003
G1 X119.732 Y115.040 E32.28386
G1 X118.814 Y115.040 E32.35814
G1 X108.734 Y104.960 E33.51198
G1 X107.816 Y104.960 E33.58625
G1 X117.897 Y115.040 E34.74009
G1 X116.979 Y115.040 E34.81436
G1 X106.898 Y104.960 E35.96820
G1 X105.980 Y104.960 E36.04247
G1 X116.061 Y115.040 E37.19631
G1 X115.143 Y115.040 E37.27058
G1 X105.063 Y104.960 E38.42442
G1 X104.145 Y104.960 E38.49869
G1 X114.226 Y115.040 E39.65253
G1 X113.308 Y115.040 E39.72680
G1 X103.227 Y104.960 E40.88064
G1 X102.310 Y104.960 E40.95491
G1 X112.390 Y115.040 E42.10875
G1 X111.473 Y115.040 E42.18302
G1 X101.392 Y104.960 E43.33686
G1 X100.474 Y104.960 E43.41113
G1 X110.555 Y115.040 E44.56497
G1 X109.637 Y115.040 E44.63924
G1 X99.557 Y104.960 E45.79308
G1 X98.639 Y104.960 E45.86735
G1 X108.720 Y115.040 E47.02119
G1 X107.802 Y115.040 E47.09546
G1 X97.721 Y104.960 E48.24930
G1 X96.803 Y104.960 E48.32357
G1 X106.884 Y115.040 E49.47741
G1 X105.967 Y115.040 E49.55169
G1 X95.886 Y104.960 E50.70552
G1 X94.968 Y104.960 E50.77980
G1 X105.049 Y115.040 E51.93363
G1 X104.131 Y115.040 E52.00791
G1 X94.460 Y105.369 E53.11490
G1 X94.460 Y106.287 E53.18918
G1 X103.213 Y115.040 E54.19114
G1 X102.296 Y115.040 E54.26541
G1 X94.460 Y107.204 E55.16233
G1 X94.460 Y108.122 E55.23660
G1 X101.378 Y115.040 E56.02848
G1 X100.460 Y115.040 E56.10276
G1 X94.460 Y109.040 E56.78960
G1 X94.460 Y109.957 E56.86387
G1 X99.543 Y115.040 E57.44568
G1 X98.625 Y115.040 E57.51995
G1 X94.460 Y110.875 E57.99672
G1 X94.460 Y111.793 E58.07099
G1 X97.707 Y115.040 E58.44271
G1 X96.790 Y115.040 E58.51699
G1 X94.460 Y112.710 E58.78367
G1 X94.460 Y113.628 E58.85795
G1 X95.872 Y115.040 E59.01960
G1 X94.954 Y115.040 E59.09387
G1 X94.460 Y114.546 E59.15048
G1 Z0.950 F7800.000
G1 X126.175 Y114.675 F7800.000
G1 F900
G1 X121.825 Y114.675 E59.41395
G1 X121.825 Y105.325 E59.98027
G1 X126.175 Y105.325 E60.24375
G1 X126.175 Y114.600 E60.80553
G1 X126.247 Y115.170 F7800.000
G1 X120.629 Y115.429 F7800.000
G1 F3600
G1 X94.071 Y115.429 E62.91096
G1 X94.071 Y104.571 E63.77172
G1 X120.629 Y104.571 E65.87714
G1 X120.629 Y115.354 E66.73196
G1 X121.264 Y115.236 F7800.000
G1 F3600
G1 X126.564 Y115.236 E67.15213
G1 X126.564 Y116.064 E67.21784
G1 X93.436 Y116.064 E69.84422
G1 X93.436 Y103.936 E70.80576
G1 X126.564 Y103.936 E73.43214
G1 X126.564 Y104.764 E73.49784
G1 X121.264 Y104.764 E73.91802
G1 X121.264 Y115.161 E74.74221
G1 X127.125 Y116.625 F7800.000
G1 F1800
G1 X92.875 Y116.625 E76.81670
G1 X92.875 Y103.375 E77.61924
G1 X127.125 Y103.375 E79.69374
G1 X127.125 Y116.550 E80.49173
G1 X126.629 Y116.564 F7800.000
G1 X126.247 Y115.650 F7800.000
G1 F1200
G1 X120.947 Y115.650 E80.57685
G1 X119.746 Y115.040 F7800.000
G1 F1200
G1 X120.240 Y114.546 E80.63346
G1 X120.240 Y113.628 E80.70773
G1 X118.828 Y115.040 E80.86937
G1 X117.910 Y115.040 E80.94365
G1 X120.240 Y112.710 E81.21033
G1 X120.240 Y111.793 E81.28460
G1 X116.993 Y115.040 E81.65632
G1 X116.075 Y115.040 E81.73060
G1 X120.240 Y110.875 E82.20736
G1 X120.240 Y109.957 E82.28163
G1 X115.157 Y115.040 E82.86343
G1 X114.240 Y115.040 E82.93770
G1 X120.240 Y109.040 E83.62454
G1 X120.240 Y108.122 E83.69882
G1 X113.322 Y115.040 E84.49069
G1 X112.404 Y115.040 E84.56497
G1 X120.240 Y107.204 E85.46188
G1 X120.240 Y106.287 E85.53616
G1 X111.487 Y115.040 E86.53811
G1 X110.569 Y115.040 E86.61239
G1 X120.240 Y105.369 E87.71938
G1 X120.240 Y104.960 E87.75250
G1 X119.732 Y104.960 E87.79365
G1 X109.651 Y115.040 E88.94749
G1 X108.734 Y115.040 E89.02176
G1 X118.814 Y104.960 E90.17560
G1 X117.897 Y104.960 E90.24987
G1 X107.816 Y115.040 E91.40371
G1 X106.898 Y115.040 E91.47798
G1 X116.979 Y104.960 E92.63182
G1 X116.061 Y104.960 E92.70610
G1 X105.980 Y115.040 E93.85993
G1 X105.063 Y115.040 E93.93421
G1 X115.143 Y104.960 E95.08804
G1 X114.226 Y104.960 E95.16232
G1 X104.145 Y115.040 E96.31615
G1 X103.227 Y115.040 E96.39043
G1 X113.308 Y104.960 E97.54426
G1 X112.390 Y104.960 E97.61854
G1 X102.310 Y115.040 E98.77237
G1 X101.392 Y115.040 E98.84665
G1 X111.473 Y104.960 E100.00049
G1 X110.555 Y104.960 E100.07476
G1 X100.474 Y115.040 E101.22860
G1 X99.557 Y115.040 E101.30287
G1 X109.637 Y104.960 E102.45671
G1 X108.720 Y104.960 E102.53098
G1 X98.639 Y115.040 E103.68482
G1 X97.721 Y115.040 E103.75909
G1 X107.802 Y104.960 E104.91293
G1 X106.884 Y104.960 E104.98720
G1 X96.803 Y115.040 E106.14104
G1 X95.886 Y115.040 E106.21531
G1 X105.967 Y104.960 E107.36915
G1 X105.049 Y104.960 E107.44342
G1 X94.968 Y115.040 E108.59726
G1 X94.460 Y115.040 E108.63841
G1 X94.460 Y114.631 E108.67153
G1 X104.131 Y104.960 E109.77853
G1 X103.213 Y104.960 E109.85280
G1 X94.460 Y113.713 E110.85476
G1 X94.460 Y112.796 E110.92904
G1 X102.296 Y104.960 E111.82596
G1 X101.378 Y104.960 E111.90023
G1 X94.460 Y111.878 E112.69211
G1 X94.460 Y110.960 E112.76638
G1 X100.460 Y104.960 E113.45323
G1 X99.543 Y104.960 E113.52750
G1 X94.460 Y110.043 E114.10930
G1 X94.460 Y109.125 E114.18358
G1 X98.625 Y104.960 E114.66034
G1 X97.707 Y104.960 E114.73461
G1 X94.460 Y108.207 E115.10634
G1 X94.460 Y107.290 E115.18061
G1 X96.790 Y104.960 E115.44730
G1 X95.872 Y104.960 E115.52157
G1 X94.460 Y106.372 E115.68322
G1 X94.460 Y105.454 E115.75749
G1 X94.954 Y104.960 E115.81410
G1 X120.947 Y104.350 F7800.000
G1 F1200
G1 X126.247 Y104.350 E115.89922
G1 X126.650 Y105.045 F7800.000
G1 F1200
G1 X126.650 Y114.955 E116.30095
M106 S232.05
G1 Z1.250 F7800.000
G1 X126.175 Y114.675 F7800.000
G1 F900
G1 X121.825 Y114.675 E116.56443
G1 X121.825 Y105.325 E117.13075
G1 X126.175 Y105.325 E117.39423
G1 X126.175 Y114.600 E117.95601
G1 X126.247 Y115.170 F7800.000
G1 X120.629 Y115.871 F7800.000
G1 F3600
G1 X122.116 Y115.871 E118.07394
G1 X121.701 Y116.332 E118.12310
G1 X120.576 Y117.150 E118.23342
M106 S255

G1 F3600
G1 X120.260 Y117.379 E118.26524
G1 X118.633 Y118.104 E118.41065
G1 X116.891 Y118.474 E118.55606
G1 X115.109 Y118.474 E118.70147
G1 X113.367 Y118.104 E118.84689
G1 X111.740 Y117.379 E118.99230
G1 X111.424 Y117.150 E119.02412
M106 S232.05

G1 F3600
G1 X110.299 Y116.332 E119.13443
G1 X109.485 Y115.429 E119.23080
G1 X94.071 Y115.429 E120.45279
G1 X94.071 Y104.571 E121.31355
G1 X109.485 Y104.571 E122.53554
G1 X110.299 Y103.668 E122.63190
G1 X111.424 Y102.850 E122.74222
M106 S255

G1 F3600
G1 X111.740 Y102.621 E122.77404
G1 X113.367 Y101.896 E122.91945
G1 X115.109 Y101.526 E123.06482
G1 X116.898 Y101.528 E123.21086
G1 X118.633 Y101.896 E123.35568
G1 X120.260 Y102.621 E123.50109
G1 X120.576 Y102.850 E123.53291
M106 S232.05

G1 F3600
G1 X121.701 Y103.668 E123.64322
G1 X122.116 Y104.129 E123.69238
G1 X120.629 Y104.129 E123.81032
G1 X120.629 Y115.796 E124.73529
G1 X121.264 Y115.236 F7800.000
G1 F3600
G1 X126.564 Y115.236 E125.15547
G1 X126.564 Y116.064 E125.22117
G1 X122.798 Y116.064 E125.51978
G1 X122.129 Y116.807 E125.59900
G1 X121.657 Y117.150 E125.64526
M106 S255

G1 F3600
G1 X120.580 Y117.933 E125.75395
G1 X118.831 Y118.711 E125.91027
G1 X116.957 Y119.110 E126.06659
G1 X115.043 Y119.110 E126.22291
G1 X113.169 Y118.711 E126.37923
G1 X111.420 Y117.933 E126.53555
G1 X110.343 Y117.150 E126.64424
M106 S232.05

G1 F3600
G1 X109.871 Y116.807 E126.69049
G1 X109.202 Y116.064 E126.76972
G1 X93.436 Y116.064 E128.01966
G1 X93.436 Y103.936 E128.98121
G1 X109.202 Y103.936 E130.23115
G1 X109.871 Y103.193 E130.31038
G1 X110.343 Y102.850 E130.35663
M106 S255

G1 F3600
G1 X111.420 Y102.067 E130.46532
G1 X113.169 Y101.289 E130.62164
G1 X115.042 Y100.890 E130.77793
G1 X116.965 Y100.892 E130.93488
G1 X118.831 Y101.289 E131.09059
G1 X120.580 Y102.067 E131.24691
G1 X121.657 Y102.850 E131.35559
M106 S232.05

G1 F3600
G1 X122.129 Y103.193 E131.40185
G1 X122.798 Y103.936 E131.48108
G1 X126.564 Y103.936 E131.77969
G1 X126.564 Y104.764 E131.84539
G1 X121.264 Y104.764 E132.26556
G1 X121.264 Y115.161 E133.08975
G1 X127.125 Y116.625 F7800.000
G1 F1800
G1 X123.047 Y116.625 E133.33673
G1 X122.575 Y117.150 E133.37952
M106 S255

G1 F3600
G1 X122.506 Y117.226 E133.38787
G1 X120.862 Y118.421 E133.55381
G1 X119.005 Y119.248 E133.71975
G1 X117.016 Y119.670 E133.88569
G1 X114.984 Y119.670 E134.05163
G1 X112.995 Y119.248 E134.21756
G1 X111.138 Y118.421 E134.38350
G1 X109.494 Y117.226 E134.54944
G1 X109.425 Y117.150 E134.55779
M106 S232.05

G1 F1800
G1 X108.953 Y116.625 E134.60058
G1 X92.875 Y116.625 E135.57438
G1 X92.875 Y103.375 E136.37693
G1 X108.953 Y103.375 E137.35073
G1 X109.425 Y102.850 E137.39352
M106 S255

G1 F3600
G1 X109.494 Y102.774 E137.40187
G1 X111.138 Y101.579 E137.56781
G1 X112.995 Y100.752 E137.73375
G1 X114.984 Y100.330 E137.89968
G1 X117.024 Y100.331 E138.06625
G1 X119.005 Y100.752 E138.23155
G1 X120.862 Y101.579 E138.39749
G1 X122.506 Y102.774 E138.56343
G1 X122.575 Y102.850 E138.57177
M106 S232.05

G1 F1800
G1 X123.047 Y103.375 E138.61456
G1 X127.125 Y103.375 E138.86154
G1 X127.125 Y116.550 E139.65954
G1 X126.669 Y116.419 F7800.000
G1 X126.247 Y115.650 F7800.000
G1 F1200
G1 X122.743 Y115.650 E139.71580
G1 X120.361 Y114.204 F7800.000
M106 S255

G1 F3600
G1 X119.710 Y114.147 E139.77754
G1 X112.964 Y114.147 E140.41509
G1 X120.361 Y114.794 E141.11681
G1 X120.361 Y115.384 E141.17259
G1 X109.231 Y114.410 E142.22845
G1 X109.102 Y114.808 E142.26793
G1 X109.424 Y114.808 E142.29844
G1 X109.629 Y115.035 E142.32740
G1 X120.361 Y115.974 E143.34544
G1 X120.361 Y116.492 E143.39441
G1 X120.836 Y116.492 E143.43933
